milangroshev/niryo-one-datasets/digital-twin-remote-control/movement2-20-times.csv
timestamp,event,hw_timestamp,joint_1,joint_2,joint_3,joint_4,joint_5,joint_6
1606940260321134336,pose_received,1606940260319978437,-1.570,0.000,0.000,-1.570,-1.570,-0.297
1606940260340226304,pose_received,1606940260339061127,-1.570,0.000,0.000,-1.570,-1.570,-0.297
1606940260360327168,pose_received,1606940260359075511,-1.570,0.000,0.000,-1.570,-1.570,-0.297
1606940260379812096,pose_received,1606940260379069795,-1.570,0.000,0.000,-1.570,-1.570,-0.297
1606940260400103168,pose_received,1606940260399083879,-1.570,0.000,0.000,-1.570,-1.570,-0.297
1606940260420525824,pose_received,1606940260419071264,-1.570,0.000,0.000,-1.570,-1.570,-0.297
1606940260450266880,pose_received,1606940260449070490,-1.570,0.000,0.000,-1.570,-1.570,-0.297
1606940260460302080,pose_received,1606940260459074832,-1.570,0.000,0.000,-1.570,-1.570,-0.297
1606940260479898112,pose_received,1606940260479068617,-1.570,0.000,0.000,-1.570,-1.570,-0.297
1606940260499546368,pose_received,1606940260499077901,-1.570,0.000,0.000,-1.570,-1.570,-0.297
1606940260520537856,pose_received,1606940260519071785,-1.570,0.000,0.000,-1.570,-1.570,-0.297
1606940260539997696,pose_received,1606940260539070570,-1.570,0.000,0.000,-1.570,-1.570,-0.297
1606940260559890432,pose_received,1606940260559072254,-1.570,0.000,0.000,-1.570,-1.570,-0.297
1606940260579824640,pose_received,1606940260579071438,-1.570,0.000,0.000,-1.570,-1.570,-0.297
1606940260599822336,pose_received,1606940260599070122,-1.570,0.000,0.000,-1.570,-1.570,-0.297
1606940260619853824,pose_received,1606940260619081207,-1.570,0.000,0.000,-1.570,-1.570,-0.297
1606940260640011776,pose_received,1606940260639071891,-1.570,0.000,0.000,-1.570,-1.570,-0.297
1606940260659592448,pose_received,1606940260659070375,-1.570,0.000,0.000,-1.570,-1.570,-0.297
1606940260679664384,pose_received,1606940260679074060,-1.570,0.000,0.000,-1.570,-1.570,-0.297
1606940260699654912,pose_received,1606940260699072944,-1.570,0.000,0.000,-1.570,-1.570,-0.297
1606940260720487936,pose_received,1606940260719796224,-1.570,0.000,0.000,-1.570,-1.570,-0.297
1606940260739795712,pose_received,1606940260739072312,-1.570,0.000,0.000,-1.570,-1.570,-0.297
1606940260759597312,pose_received,1606940260759072597,-1.570,0.000,0.000,-1.570,-1.570,-0.297
1606940260779977472,pose_received,1606940260779072881,-1.570,0.000,0.000,-1.570,-1.570,-0.297
1606940260799748352,pose_received,1606940260799069565,-1.570,0.000,0.000,-1.570,-1.570,-0.297
1606940260819936256,pose_received,1606940260819072150,-1.570,0.000,0.000,-1.570,-1.570,-0.297
1606940260839788288,pose_received,1606940260839071634,-1.570,0.000,0.000,-1.570,-1.570,-0.297
1606940260860013312,pose_received,1606940260859067618,-1.570,0.000,0.000,-1.570,-1.570,-0.297
1606940260880050944,pose_received,1606940260879071103,-1.570,0.000,0.000,-1.570,-1.570,-0.297
1606940260899534848,pose_received,1606940260899070787,-1.570,0.000,0.000,-1.570,-1.570,-0.297
1606940260919612160,pose_received,1606940260919098771,-1.570,0.000,0.000,-1.570,-1.570,-0.297
1606940260940075520,pose_received,1606940260939071755,-1.570,0.000,0.000,-1.570,-1.570,-0.297
1606940260959707136,pose_received,1606940260959069240,-1.570,0.000,0.000,-1.570,-1.570,-0.297
1606940260980198144,pose_received,1606940260979073724,-1.570,0.000,0.000,-1.570,-1.570,-0.297
1606940260999932416,pose_received,1606940260999067908,-1.570,0.000,0.000,-1.570,-1.570,-0.297
1606940261019707648,pose_received,1606940261019069793,-1.570,0.000,0.000,-1.570,-1.570,-0.297
1606940261040295168,pose_received,1606940261039211476,-1.570,0.000,0.000,-1.570,-1.570,-0.297
1606940261059735552,pose_received,1606940261059069861,-1.570,0.000,0.000,-1.570,-1.570,-0.297
1606940261080042496,pose_received,1606940261079071446,-1.570,0.000,0.000,-1.570,-1.570,-0.297
1606940261099895552,pose_received,1606940261099071130,-1.570,0.000,0.000,-1.570,-1.570,-0.297
1606940261119648000,pose_received,1606940261119071215,-1.570,0.000,0.000,-1.570,-1.570,-0.297
1606940261139741184,pose_received,1606940261139177598,-1.570,0.000,0.000,-1.570,-1.570,-0.297
1606940261159842304,pose_received,1606940261159139483,-1.570,0.000,0.000,-1.570,-1.570,-0.297
1606940261179711488,pose_received,1606940261179070468,-1.570,0.000,0.000,-1.570,-1.570,-0.297
1606940261200017152,pose_received,1606940261199069852,-1.570,0.000,0.000,-1.570,-1.570,-0.297
1606940261220104448,pose_received,1606940261219082637,-1.570,0.000,0.000,-1.570,-1.570,-0.297
1606940261240000512,pose_received,1606940261239075721,-1.570,0.000,0.000,-1.570,-1.570,-0.297
1606940261259934464,pose_received,1606940261259070706,-1.570,0.000,0.000,-1.570,-1.570,-0.297
1606940261279936512,pose_received,1606940261279322088,-1.570,0.000,0.000,-1.570,-1.570,-0.297
1606940261300390912,pose_received,1606940261299079774,-1.570,0.000,0.000,-1.570,-1.570,-0.297
1606940261320086272,pose_received,1606940261319075359,-1.570,0.000,0.000,-1.570,-1.570,-0.297
1606940261340058112,pose_received,1606940261339073543,-1.570,0.000,0.000,-1.570,-1.570,-0.297
1606940261359675648,pose_received,1606940261359072728,-1.570,0.000,0.000,-1.570,-1.570,-0.297
1606940261380065536,pose_received,1606940261379070912,-1.570,0.000,0.000,-1.570,-1.570,-0.297
1606940261400473088,pose_received,1606940261399078996,-1.570,0.000,0.000,-1.570,-1.570,-0.297
1606940261419793920,pose_received,1606940261419074981,-1.570,0.000,0.000,-1.570,-1.570,-0.297
1606940261440077568,pose_received,1606940261439075065,-1.570,0.000,0.000,-1.570,-1.570,-0.297
1606940261459878400,pose_received,1606940261459073850,-1.570,0.000,0.000,-1.570,-1.570,-0.297
1606940261479926528,pose_received,1606940261479071734,-1.570,0.000,0.000,-1.570,-1.570,-0.297
1606940261500169472,pose_received,1606940261499075618,-1.570,0.000,0.000,-1.570,-1.570,-0.297
1606940261519806208,pose_received,1606940261519200502,-1.570,0.000,0.000,-1.570,-1.570,-0.297
1606940261539866624,pose_received,1606940261539071087,-1.570,0.000,0.000,-1.570,-1.570,-0.297
1606940261559676672,pose_received,1606940261559070172,-1.570,0.000,0.000,-1.570,-1.570,-0.297
1606940261580332800,pose_received,1606940261579226755,-1.570,0.000,0.000,-1.570,-1.570,-0.297
1606940261600171264,pose_received,1606940261599070740,-1.570,0.000,0.000,-1.570,-1.570,-0.297
1606940261620054528,pose_received,1606940261619071325,-1.570,0.000,0.000,-1.570,-1.570,-0.297
1606940261639933184,pose_received,1606940261639070009,-1.570,0.000,0.000,-1.570,-1.570,-0.297
1606940261660552960,pose_received,1606940261659061294,-1.570,0.000,0.000,-1.570,-1.570,-0.297
1606940261679872768,pose_received,1606940261679070878,-1.570,0.000,0.000,-1.570,-1.570,-0.297
1606940261699543040,pose_received,1606940261699082662,-1.570,0.000,0.000,-1.570,-1.570,-0.297
1606940261719684096,pose_received,1606940261719076047,-1.570,0.000,0.000,-1.570,-1.570,-0.297
1606940261739648768,pose_received,1606940261739072531,-1.570,0.000,0.000,-1.570,-1.570,-0.297
1606940261760298240,pose_received,1606940261759072916,-1.570,0.000,0.000,-1.570,-1.570,-0.297
1606940261780115968,pose_received,1606940261779064900,-1.570,0.000,0.000,-1.570,-1.570,-0.297
1606940261799757312,pose_received,1606940261799068884,-1.570,0.000,0.000,-1.570,-1.570,-0.297
1606940261819745280,pose_received,1606940261819077569,-1.570,0.000,0.000,-1.570,-1.570,-0.297
1606940261839586560,pose_received,1606940261839072053,-1.570,0.000,0.000,-1.570,-1.570,-0.297
1606940261859705600,pose_received,1606940261859071038,-1.570,0.000,0.000,-1.570,-1.570,-0.297
1606940261880001024,pose_received,1606940261879074322,-1.570,0.000,0.000,-1.570,-1.570,-0.297
1606940261899791360,pose_received,1606940261899070607,-1.570,0.000,0.000,-1.570,-1.570,-0.297
1606940261920209152,pose_received,1606940261919075891,-1.570,0.000,0.000,-1.570,-1.570,-0.297
1606940261940108032,pose_received,1606940261939070975,-1.570,0.000,0.000,-1.570,-1.570,-0.297
1606940261959842048,pose_received,1606940261959068560,-1.570,0.000,0.000,-1.570,-1.570,-0.297
1606940261979960320,pose_received,1606940261979070244,-1.570,0.000,0.000,-1.570,-1.570,-0.297
1606940261999686912,pose_received,1606940261999071129,-1.570,0.000,0.000,-1.570,-1.570,-0.297
1606940262020536320,pose_received,1606940262019269612,-1.570,0.000,0.000,-1.570,-1.570,-0.297
1606940262040021248,pose_received,1606940262039069598,-1.570,0.000,0.000,-1.570,-1.570,-0.297
1606940262059807488,pose_received,1606940262059069182,-1.570,0.000,0.000,-1.570,-1.570,-0.297
1606940262079649792,pose_received,1606940262079073067,-1.570,0.000,0.000,-1.570,-1.570,-0.297
1606940262100018176,pose_received,1606940262099068251,-1.570,0.000,0.000,-1.570,-1.570,-0.297
1606940262119735040,pose_received,1606940262119074636,-1.570,0.000,0.000,-1.570,-1.570,-0.297
1606940262140151552,pose_received,1606940262139064120,-1.570,0.000,0.000,-1.570,-1.570,-0.297
1606940262159931392,pose_received,1606940262159069305,-1.570,0.000,0.000,-1.570,-1.570,-0.297
1606940262179708160,pose_received,1606940262179078689,-1.570,0.000,0.000,-1.570,-1.570,-0.297
1606940262199684352,pose_received,1606940262199078274,-1.570,0.000,0.000,-1.570,-1.570,-0.297
1606940262220001280,pose_received,1606940262219070458,-1.570,0.000,0.000,-1.570,-1.570,-0.297
1606940262240101632,pose_received,1606940262239069743,-1.570,0.000,0.000,-1.570,-1.570,-0.297
1606940262259702528,pose_received,1606940262259070827,-1.570,0.000,0.000,-1.570,-1.570,-0.297
1606940262280063232,pose_received,1606940262279076812,-1.570,0.000,0.000,-1.570,-1.570,-0.297
1606940262299828992,pose_received,1606940262299066496,-1.570,0.000,0.000,-1.570,-1.570,-0.297
1606940262319610880,pose_received,1606940262319071881,-1.570,0.000,0.000,-1.570,-1.570,-0.297
1606940262339766784,pose_received,1606940262339069765,-1.570,0.000,0.000,-1.570,-1.570,-0.297
1606940262359885824,pose_received,1606940262359070350,-1.570,0.000,0.000,-1.570,-1.570,-0.297
1606940262379626240,pose_received,1606940262379075134,-1.570,0.000,0.000,-1.570,-1.570,-0.297
1606940262399592448,pose_received,1606940262399072619,-1.570,0.000,0.000,-1.570,-1.570,-0.297
1606940262419785472,pose_received,1606940262419066904,-1.570,0.000,0.000,-1.570,-1.570,-0.297
1606940262440022784,pose_received,1606940262439071188,-1.570,0.000,0.000,-1.570,-1.570,-0.297
1606940262459886336,pose_received,1606940262459070973,-1.570,0.000,0.000,-1.570,-1.570,-0.297
1606940262480053248,pose_received,1606940262479069557,-1.570,0.000,0.000,-1.570,-1.570,-0.297
1606940262499719936,pose_received,1606940262499073042,-1.570,0.000,0.000,-1.570,-1.570,-0.297
1606940262520106496,pose_received,1606940262519070926,-1.570,0.000,0.000,-1.570,-1.570,-0.297
1606940262540018688,pose_received,1606940262539087811,-1.570,0.000,0.000,-1.570,-1.570,-0.297
1606940262560188928,pose_received,1606940262559075895,-1.570,0.000,0.000,-1.570,-1.570,-0.297
1606940262579979776,pose_received,1606940262579069280,-1.570,0.000,0.000,-1.570,-1.570,-0.297
1606940262600045568,pose_received,1606940262599072064,-1.570,0.000,0.000,-1.570,-1.570,-0.297
1606940262619590912,pose_received,1606940262619075049,-1.570,0.000,0.000,-1.570,-1.570,-0.297
1606940262639892736,pose_received,1606940262639071433,-1.570,0.000,0.000,-1.570,-1.570,-0.297
1606940262660095744,pose_received,1606940262659067818,-1.570,0.000,0.000,-1.570,-1.570,-0.297
1606940262679739136,pose_received,1606940262679071202,-1.570,0.000,0.000,-1.570,-1.570,-0.297
1606940262699980800,pose_received,1606940262699189086,-1.570,0.000,0.000,-1.570,-1.570,-0.297
1606940262719844864,pose_received,1606940262719072871,-1.570,0.000,0.000,-1.570,-1.570,-0.297
1606940262739725568,pose_received,1606940262739068456,-1.570,0.000,0.000,-1.570,-1.570,-0.297
1606940262759964672,pose_received,1606940262759070940,-1.570,0.000,0.000,-1.570,-1.570,-0.297
1606940262779931392,pose_received,1606940262779070525,-1.570,0.000,0.000,-1.570,-1.570,-0.297
1606940262799906048,pose_received,1606940262799076009,-1.570,0.000,0.000,-1.570,-1.570,-0.297
1606940262821035008,pose_received,1606940262819771090,-1.570,0.000,0.000,-1.570,-1.570,-0.297
1606940262839885568,pose_received,1606940262839068878,-1.570,0.000,0.000,-1.570,-1.570,-0.297
1606940262859726848,pose_received,1606940262859203462,-1.570,0.000,0.000,-1.570,-1.570,-0.297
1606940262879949568,pose_received,1606940262879057148,-1.570,0.000,0.000,-1.570,-1.570,-0.297
1606940262899865344,pose_received,1606940262899068732,-1.570,0.000,0.000,-1.570,-1.570,-0.297
1606940262920120320,pose_received,1606940262919073916,-1.570,0.000,0.000,-1.570,-1.570,-0.297
1606940262940034048,pose_received,1606940262939068601,-1.570,0.000,0.000,-1.570,-1.570,-0.297
1606940262960038400,pose_received,1606940262959169185,-1.570,0.000,0.000,-1.570,-1.570,-0.297
1606940262979968000,pose_received,1606940262979071270,-1.570,0.000,0.000,-1.570,-1.570,-0.297
1606940263000041728,pose_received,1606940262999068755,-1.570,0.000,0.000,-1.570,-1.570,-0.297
1606940263019954176,pose_received,1606940263019072839,-1.570,0.000,0.000,-1.570,-1.570,-0.297
1606940263039822336,pose_received,1606940263039071224,-1.570,0.000,0.000,-1.570,-1.570,-0.297
1606940263059798528,pose_received,1606940263059074108,-1.570,0.000,0.000,-1.570,-1.570,-0.297
1606940263079805184,pose_received,1606940263079072693,-1.570,0.000,0.000,-1.570,-1.570,-0.297
1606940263099848192,pose_received,1606940263099069078,-1.570,0.000,0.000,-1.570,-1.570,-0.297
1606940263122046720,pose_received,1606940263121458949,-1.570,0.000,0.000,-1.570,-1.570,-0.297
1606940263139876864,pose_received,1606940263139075147,-1.570,0.000,0.000,-1.570,-1.570,-0.297
1606940263160557312,pose_received,1606940263159069832,-1.570,0.000,0.000,-1.570,-1.570,-0.297
1606940263179920384,pose_received,1606940263179071516,-1.570,0.000,0.000,-1.570,-1.570,-0.297
1606940263199814656,pose_received,1606940263199072101,-1.570,0.000,0.000,-1.570,-1.570,-0.297
1606940263219775232,pose_received,1606940263219083086,-1.570,0.000,0.000,-1.570,-1.570,-0.297
1606940263240015360,pose_received,1606940263239070770,-1.570,0.000,0.000,-1.570,-1.570,-0.297
1606940263259732224,pose_received,1606940263259070955,-1.570,0.000,0.000,-1.570,-1.570,-0.297
1606940263279795968,pose_received,1606940263279073839,-1.570,0.000,0.000,-1.570,-1.570,-0.297
1606940263299832320,pose_received,1606940263299071724,-1.570,0.000,0.000,-1.570,-1.570,-0.297
1606940263320123136,pose_received,1606940263319074509,-1.570,0.000,0.000,-1.570,-1.570,-0.297
1606940263339942400,pose_received,1606940263339072393,-1.570,0.000,0.000,-1.570,-1.570,-0.297
1606940263360018944,pose_received,1606940263359067078,-1.570,0.000,0.000,-1.570,-1.570,-0.297
1606940263380603136,pose_received,1606940263380095057,-1.570,0.000,0.000,-1.570,-1.570,-0.297
1606940263399863296,pose_received,1606940263399071447,-1.570,0.000,0.000,-1.570,-1.570,-0.297
1606940263419927552,pose_received,1606940263419072232,-1.570,0.000,0.000,-1.570,-1.570,-0.297
1606940263439933440,pose_received,1606940263439073717,-1.570,0.000,0.000,-1.570,-1.570,-0.297
1606940263460140800,pose_received,1606940263459459899,-1.570,0.000,0.000,-1.570,-1.570,-0.297
1606940263479940864,pose_received,1606940263479074386,-1.570,0.000,0.000,-1.570,-1.570,-0.297
1606940263499550208,pose_received,1606940263499073170,-1.570,0.000,0.000,-1.570,-1.570,-0.297
1606940263520030976,pose_received,1606940263519070255,-1.570,0.000,0.000,-1.570,-1.570,-0.297
1606940263539684864,pose_received,1606940263539070640,-1.570,0.000,0.000,-1.570,-1.570,-0.297
1606940263559973632,pose_received,1606940263559331623,-1.570,0.000,0.000,-1.570,-1.570,-0.297
1606940263580147200,pose_received,1606940263579075709,-1.570,0.000,0.000,-1.570,-1.570,-0.297
1606940263599835136,pose_received,1606940263599070794,-1.570,0.000,0.000,-1.570,-1.570,-0.297
1606940263620598272,pose_received,1606940263619059878,-1.570,0.000,0.000,-1.570,-1.570,-0.297
1606940263640035072,pose_received,1606940263639077163,-1.570,0.000,0.000,-1.570,-1.570,-0.297
1606940263659983616,pose_received,1606940263659327646,-1.570,0.000,0.000,-1.570,-1.570,-0.297
1606940263679685376,pose_received,1606940263679071032,-1.570,0.000,0.000,-1.570,-1.570,-0.297
1606940263700008192,pose_received,1606940263699071617,-1.570,0.000,0.000,-1.570,-1.570,-0.297
1606940263719579392,pose_received,1606940263719072301,-1.570,0.000,0.000,-1.570,-1.570,-0.297
1606940263740016128,pose_received,1606940263739072986,-1.570,0.000,0.000,-1.570,-1.570,-0.297
1606940263760003328,pose_received,1606940263759070871,-1.570,0.000,0.000,-1.570,-1.570,-0.297
1606940263779583744,pose_received,1606940263779071055,-1.570,0.000,0.000,-1.570,-1.570,-0.297
1606940263799643648,pose_received,1606940263799091740,-1.570,0.000,0.000,-1.570,-1.570,-0.297
1606940263819724544,pose_received,1606940263819072225,-1.570,0.000,0.000,-1.570,-1.570,-0.297
1606940263840008192,pose_received,1606940263839073409,-1.570,0.000,0.000,-1.570,-1.570,-0.297
1606940263859983616,pose_received,1606940263859070494,-1.570,0.000,0.000,-1.570,-1.570,-0.297
1606940263880096256,pose_received,1606940263879071079,-1.570,0.000,0.000,-1.570,-1.570,-0.297
1606940263900039168,pose_received,1606940263899069263,-1.570,0.000,0.000,-1.570,-1.570,-0.297
1606940263920039936,pose_received,1606940263919070948,-1.570,0.000,0.000,-1.570,-1.570,-0.297
1606940263939821312,pose_received,1606940263939072332,-1.570,0.000,0.000,-1.570,-1.570,-0.297
1606940263959606016,pose_received,1606940263959072117,-1.570,0.000,0.000,-1.570,-1.570,-0.297
1606940263980042752,pose_received,1606940263979104102,-1.570,0.000,0.000,-1.570,-1.570,-0.297
1606940264000116736,pose_received,1606940263999075386,-1.570,0.000,0.000,-1.570,-1.570,-0.297
1606940264020305664,pose_received,1606940264019089171,-1.570,0.000,0.000,-1.570,-1.570,-0.297
1606940264039745792,pose_received,1606940264039071156,-1.570,0.000,0.000,-1.570,-1.570,-0.297
1606940264059719680,pose_received,1606940264059070341,-1.570,0.000,0.000,-1.570,-1.570,-0.297
1606940264079881216,pose_received,1606940264079070225,-1.570,0.000,0.000,-1.570,-1.570,-0.297
1606940264099675648,pose_received,1606940264099075310,-1.570,0.000,0.000,-1.570,-1.570,-0.297
1606940264120033280,pose_received,1606940264119330793,-1.570,0.000,0.000,-1.570,-1.570,-0.297
1606940264139630592,pose_received,1606940264139072780,-1.570,0.000,0.000,-1.570,-1.570,-0.297
1606940264159856640,pose_received,1606940264159073664,-1.570,0.000,0.000,-1.570,-1.570,-0.297
1606940264179664128,pose_received,1606940264179070049,-1.570,0.000,0.000,-1.570,-1.570,-0.297
1606940264200172544,pose_received,1606940264199058634,-1.570,0.000,0.000,-1.570,-1.570,-0.297
1606940264219805440,pose_received,1606940264219073119,-1.570,0.000,0.000,-1.570,-1.570,-0.297
1606940264240254976,pose_received,1606940264239069903,-1.570,0.000,0.000,-1.570,-1.570,-0.297
1606940264260169216,pose_received,1606940264259101488,-1.570,0.000,0.000,-1.570,-1.570,-0.297
1606940264279671552,pose_received,1606940264279118773,-1.570,0.000,0.000,-1.570,-1.570,-0.297
1606940264299860736,pose_received,1606940264299069358,-1.570,0.000,0.000,-1.570,-1.570,-0.297
1606940264320234752,pose_received,1606940264319069842,-1.570,0.000,0.000,-1.570,-1.570,-0.297
1606940264339975168,pose_received,1606940264339070927,-1.570,0.000,0.000,-1.570,-1.570,-0.297
1606940264360044032,pose_received,1606940264359072812,-1.570,0.000,0.000,-1.570,-1.570,-0.297
1606940264379860480,pose_received,1606940264379070897,-1.570,0.000,0.000,-1.570,-1.570,-0.297
1606940264399613952,pose_received,1606940264399084281,-1.570,0.000,0.000,-1.570,-1.570,-0.297
1606940264420119040,pose_received,1606940264419072266,-1.570,0.000,0.000,-1.570,-1.570,-0.297
1606940264449810688,pose_received,1606940264449070693,-1.570,0.000,0.000,-1.570,-1.570,-0.297
1606940264460086528,pose_received,1606940264459071536,-1.570,0.000,0.000,-1.570,-1.570,-0.297
1606940264479992320,pose_received,1606940264479070820,-1.570,0.000,0.000,-1.570,-1.570,-0.297
1606940264499830528,pose_received,1606940264499070905,-1.570,0.000,0.000,-1.570,-1.570,-0.297
1606940264520843776,pose_received,1606940264519060890,-1.570,0.000,0.000,-1.570,-1.570,-0.297
1606940264540199680,pose_received,1606940264539075875,-1.570,0.000,0.000,-1.570,-1.570,-0.297
1606940264559598080,pose_received,1606940264559076659,-1.570,0.000,0.000,-1.570,-1.570,-0.297
1606940264579821824,pose_received,1606940264579072544,-1.570,0.000,0.000,-1.570,-1.570,-0.297
1606940264599730432,pose_received,1606940264599069429,-1.570,0.000,0.000,-1.570,-1.570,-0.297
1606940264619899136,pose_received,1606940264619074714,-1.570,0.000,0.000,-1.570,-1.570,-0.297
1606940264640123136,pose_received,1606940264639071698,-1.570,0.000,0.000,-1.570,-1.570,-0.297
1606940264659633920,pose_received,1606940264659074583,-1.570,0.000,0.000,-1.570,-1.570,-0.297
1606940264679694080,pose_received,1606940264679070568,-1.570,0.000,0.000,-1.570,-1.570,-0.297
1606940264699986944,pose_received,1606940264699088553,-1.570,0.000,0.000,-1.570,-1.570,-0.297
1606940264720102144,pose_received,1606940264719077537,-1.570,0.000,0.000,-1.570,-1.570,-0.297
1606940264749979392,pose_received,1606940264749069365,-1.570,0.000,0.000,-1.570,-1.570,-0.297
1606940264760178176,pose_received,1606940264759071407,-1.570,0.000,0.000,-1.570,-1.570,-0.297
1606940264780271616,pose_received,1606940264779077292,-1.570,0.000,0.000,-1.570,-1.570,-0.297
1606940264799875072,pose_received,1606940264799070876,-1.570,0.000,0.000,-1.570,-1.570,-0.297
1606940264819631616,pose_received,1606940264819070761,-1.570,0.000,0.000,-1.570,-1.570,-0.297
1606940264839897344,pose_received,1606940264839070046,-1.570,0.000,0.000,-1.570,-1.570,-0.297
1606940264859783936,pose_received,1606940264859069431,-1.570,0.000,0.000,-1.570,-1.570,-0.297
1606940264879983360,pose_received,1606940264879076715,-1.570,0.000,0.000,-1.570,-1.570,-0.297
1606940264899937280,pose_received,1606940264899069800,-1.570,0.000,0.000,-1.570,-1.570,-0.297
1606940264920088320,pose_received,1606940264919094985,-1.570,0.000,0.000,-1.570,-1.570,-0.297
1606940264939951872,pose_received,1606940264939181569,-1.570,0.000,0.000,-1.570,-1.570,-0.297
1606940264959945472,pose_received,1606940264959071254,-1.570,0.000,0.000,-1.570,-1.570,-0.297
1606940264979627776,pose_received,1606940264979071739,-1.570,0.000,0.000,-1.570,-1.570,-0.297
1606940264999997952,pose_received,1606940264999072024,-1.570,0.000,0.000,-1.570,-1.570,-0.297
1606940265019640832,pose_received,1606940265019073909,-1.570,0.000,0.000,-1.570,-1.570,-0.297
1606940265040330496,pose_received,1606940265039064494,-1.570,0.000,0.000,-1.570,-1.570,-0.297
1606940265069606144,pose_received,1606940265069069621,-1.570,0.000,0.000,-1.570,-1.570,-0.297
1606940265079691008,pose_received,1606940265079069463,-1.570,0.000,0.000,-1.570,-1.570,-0.297
1606940265099833088,pose_received,1606940265099070548,-1.570,0.000,0.000,-1.570,-1.570,-0.297
1606940265120078080,pose_received,1606940265119071533,-1.570,0.000,0.000,-1.570,-1.570,-0.297
1606940265139778560,pose_received,1606940265139078518,-1.570,0.000,0.000,-1.570,-1.570,-0.297
1606940265159810816,pose_received,1606940265159071103,-1.570,0.000,0.000,-1.570,-1.570,-0.297
1606940265180176896,pose_received,1606940265179069688,-1.570,0.000,0.000,-1.570,-1.570,-0.297
1606940265199667456,pose_received,1606940265199070772,-1.570,0.000,0.000,-1.570,-1.570,-0.297
1606940265219854592,pose_received,1606940265219069857,-1.570,0.000,0.000,-1.570,-1.570,-0.297
1606940265239866112,pose_received,1606940265239070642,-1.570,0.000,0.000,-1.570,-1.570,-0.297
1606940265260703232,pose_received,1606940265259070827,-1.570,0.000,0.000,-1.570,-1.570,-0.297
1606940265282241792,pose_received,1606940265281212200,-1.570,0.000,0.000,-1.570,-1.570,-0.297
1606940265299883520,pose_received,1606940265299073797,-1.570,0.000,0.000,-1.570,-1.570,-0.297
1606940265320662272,pose_received,1606940265319552579,-1.570,0.000,0.000,-1.570,-1.570,-0.297
1606940265339665152,pose_received,1606940265339069467,-1.570,0.000,0.000,-1.570,-1.570,-0.297
1606940265360028416,pose_received,1606940265359070551,-1.570,0.000,0.000,-1.570,-1.570,-0.297
1606940265379892224,pose_received,1606940265379070236,-1.570,0.000,0.000,-1.570,-1.570,-0.297
1606940265400334848,pose_received,1606940265399054221,-1.570,0.000,0.000,-1.570,-1.570,-0.297
1606940265420313856,pose_received,1606940265419068806,-1.570,0.000,0.000,-1.570,-1.570,-0.297
1606940265439994368,pose_received,1606940265439067391,-1.570,0.000,0.000,-1.570,-1.570,-0.297
1606940265459689216,pose_received,1606940265459072776,-1.570,0.000,0.000,-1.570,-1.570,-0.297
1606940265480037888,pose_received,1606940265479069961,-1.570,0.000,0.000,-1.570,-1.570,-0.297
1606940265501084672,pose_received,1606940265500057840,-1.570,0.000,0.000,-1.570,-1.570,-0.297
1606940265519808768,pose_received,1606940265519244929,-1.570,0.000,0.000,-1.570,-1.570,-0.297
1606940265549884672,pose_received,1606940265549070658,-1.570,0.000,0.000,-1.570,-1.570,-0.297
1606940265561624576,pose_received,1606940265559959595,-1.570,0.000,0.000,-1.570,-1.570,-0.297
1606940265579530496,pose_received,1606940265579070585,-1.570,0.000,0.000,-1.570,-1.570,-0.297
1606940265599895040,pose_received,1606940265599068770,-1.570,0.000,0.000,-1.570,-1.570,-0.297
1606940265620542208,pose_received,1606940265619053355,-1.570,0.000,0.000,-1.570,-1.570,-0.297
1606940265639996672,pose_received,1606940265639068640,-1.570,0.000,0.000,-1.570,-1.570,-0.297
1606940265659918592,pose_received,1606940265659173124,-1.570,0.000,0.000,-1.570,-1.570,-0.297
1606940265689762816,pose_received,1606940265689071352,-1.570,0.000,0.000,-1.570,-1.570,-0.297
1606940265699786752,pose_received,1606940265699069494,-1.570,0.000,0.000,-1.570,-1.570,-0.297
1606940265720245248,pose_received,1606940265719518976,-1.570,0.000,0.000,-1.570,-1.570,-0.297
1606940265740011008,pose_received,1606940265739073664,-1.570,0.000,0.000,-1.570,-1.570,-0.297
1606940265759848960,pose_received,1606940265759071949,-1.570,0.000,0.000,-1.570,-1.570,-0.297
1606940265780062464,pose_received,1606940265779073334,-1.570,0.000,0.000,-1.570,-1.570,-0.297
1606940265800179200,pose_received,1606940265799069518,-1.570,0.000,0.000,-1.570,-1.570,-0.297
1606940265820749056,pose_received,1606940265819226302,-1.570,0.000,0.000,-1.570,-1.570,-0.297
1606940265839970304,pose_received,1606940265839103188,-1.570,0.000,0.000,-1.570,-1.570,-0.297
1606940265859627264,pose_received,1606940265859073473,-1.570,0.000,0.000,-1.570,-1.570,-0.297
1606940265879595264,pose_received,1606940265879073058,-1.570,0.000,0.000,-1.570,-1.570,-0.297
1606940265899727616,pose_received,1606940265899071943,-1.570,0.000,0.000,-1.570,-1.570,-0.297
1606940265921224704,pose_received,1606940265919881623,-1.570,0.000,0.000,-1.570,-1.570,-0.297
1606940265940140544,pose_received,1606940265939057213,-1.570,0.000,0.000,-1.570,-1.570,-0.297
1606940265959994880,pose_received,1606940265959069597,-1.570,0.000,0.000,-1.570,-1.570,-0.297
1606940265979880704,pose_received,1606940265979077782,-1.570,0.000,0.000,-1.570,-1.570,-0.297
1606940265999608832,pose_received,1606940265999070067,-1.570,0.000,0.000,-1.570,-1.570,-0.297
1606940266019970304,pose_received,1606940266019072052,-1.570,0.000,0.000,-1.570,-1.570,-0.297
1606940266039719680,pose_received,1606940266039071737,-1.570,0.000,0.000,-1.570,-1.570,-0.297
1606940266060079360,pose_received,1606940266059068422,-1.570,0.000,0.000,-1.570,-1.570,-0.297
1606940266079880704,pose_received,1606940266079075907,-1.570,0.000,0.000,-1.570,-1.570,-0.297
1606940266099705856,pose_received,1606940266099071692,-1.570,0.000,0.000,-1.570,-1.570,-0.297
1606940266119664896,pose_received,1606940266119071177,-1.570,0.000,0.000,-1.570,-1.570,-0.297
1606940266140046848,pose_received,1606940266139071562,-1.570,0.000,0.000,-1.570,-1.570,-0.297
1606940266159898368,pose_received,1606940266159069047,-1.570,0.000,0.000,-1.570,-1.570,-0.297
1606940266179753984,pose_received,1606940266179072832,-1.570,0.000,0.000,-1.570,-1.570,-0.297
1606940266199829760,pose_received,1606940266199070917,-1.570,0.000,0.000,-1.570,-1.570,-0.297
1606940266219617792,pose_received,1606940266219071102,-1.570,0.000,0.000,-1.570,-1.570,-0.297
1606940266239750144,pose_received,1606940266239070687,-1.570,0.000,0.000,-1.570,-1.570,-0.297
1606940266269862912,pose_received,1606940266269067914,-1.570,0.000,0.000,-1.570,-1.570,-0.297
1606940266280156160,pose_received,1606940266279070557,-1.570,0.000,0.000,-1.570,-1.570,-0.297
1606940266299691520,pose_received,1606940266299072242,-1.570,0.000,0.000,-1.570,-1.570,-0.297
1606940266319913472,pose_received,1606940266319072527,-1.570,0.000,0.000,-1.570,-1.570,-0.297
1606940266339977728,pose_received,1606940266339272110,-1.570,0.000,0.000,-1.570,-1.570,-0.297
1606940266359656448,pose_received,1606940266359071397,-1.570,0.000,0.000,-1.570,-1.570,-0.297
1606940266380144384,pose_received,1606940266379074582,-1.570,0.000,0.000,-1.570,-1.570,-0.297
1606940266399867136,pose_received,1606940266399070967,-1.570,0.000,0.000,-1.570,-1.570,-0.297
1606940266419546624,pose_received,1606940266419075852,-1.570,0.000,0.000,-1.570,-1.570,-0.297
1606940266440037120,pose_received,1606940266439078536,-1.570,0.000,0.000,-1.570,-1.570,-0.297
1606940266459846912,pose_received,1606940266459072522,-1.570,0.000,0.000,-1.570,-1.570,-0.297
1606940266480021504,pose_received,1606940266479069606,-1.570,0.000,0.000,-1.570,-1.570,-0.297
1606940266500121600,pose_received,1606940266499084291,-1.570,0.000,0.000,-1.570,-1.570,-0.297
1606940266520088064,pose_received,1606940266519071576,-1.570,0.000,0.000,-1.570,-1.570,-0.297
1606940266540156416,pose_received,1606940266539059361,-1.570,0.000,0.000,-1.570,-1.570,-0.297
1606940266561557504,pose_received,1606940266560363839,-1.570,0.000,0.000,-1.570,-1.570,-0.297
1606940266579604736,pose_received,1606940266579071131,-1.570,0.000,0.000,-1.570,-1.570,-0.297
1606940266599788800,pose_received,1606940266599072216,-1.570,0.000,0.000,-1.570,-1.570,-0.297
1606940266620046336,pose_received,1606940266619071501,-1.570,0.000,0.000,-1.570,-1.570,-0.297
1606940266641518336,pose_received,1606940266640497578,-1.570,0.000,0.000,-1.570,-1.570,-0.297
1606940266659743488,pose_received,1606940266659072771,-1.570,0.000,0.000,-1.570,-1.570,-0.297
1606940266681327104,pose_received,1606940266680221050,-1.570,0.000,0.000,-1.570,-1.570,-0.297
1606940266700179456,pose_received,1606940266699073441,-1.570,0.000,0.000,-1.570,-1.570,-0.297
1606940266719915008,pose_received,1606940266719058726,-1.570,0.000,0.000,-1.570,-1.570,-0.297
1606940266750040576,pose_received,1606940266749067454,-1.570,0.000,0.000,-1.570,-1.570,-0.297
1606940266759687424,pose_received,1606940266759073896,-1.570,0.000,0.000,-1.570,-1.570,-0.297
1606940266780219648,pose_received,1606940266779219780,-1.570,0.000,0.000,-1.570,-1.570,-0.297
1606940266800060928,pose_received,1606940266799477764,-1.570,0.000,0.000,-1.570,-1.570,-0.297
1606940266819660288,pose_received,1606940266819078951,-1.570,0.000,0.000,-1.570,-1.570,-0.297
1606940266840103936,pose_received,1606940266839069436,-1.570,0.000,0.000,-1.570,-1.570,-0.297
1606940266860392960,pose_received,1606940266859084621,-1.570,0.000,0.000,-1.570,-1.570,-0.297
1606940266880110848,pose_received,1606940266879072006,-1.570,0.000,0.000,-1.570,-1.570,-0.297
1606940266900073472,pose_received,1606940266899073191,-1.570,0.000,0.000,-1.570,-1.570,-0.297
1606940266919721984,pose_received,1606940266919095376,-1.570,0.000,0.000,-1.570,-1.570,-0.297
1606940266941298176,pose_received,1606940266939067561,-1.570,0.000,0.000,-1.570,-1.570,-0.297
1606940266960243712,pose_received,1606940266959074146,-1.570,0.000,0.000,-1.570,-1.570,-0.297
1606940266979687936,pose_received,1606940266979071431,-1.570,0.000,0.000,-1.570,-1.570,-0.297
1606940267000022784,pose_received,1606940266999069516,-1.570,0.000,0.000,-1.570,-1.570,-0.297
1606940267019676672,pose_received,1606940267019072601,-1.570,0.000,0.000,-1.570,-1.570,-0.297
1606940267039896320,pose_received,1606940267039071686,-1.570,0.000,0.000,-1.570,-1.570,-0.297
1606940267059736576,pose_received,1606940267059074971,-1.570,0.000,0.000,-1.570,-1.570,-0.297
1606940267079952128,pose_received,1606940267079070056,-1.570,0.000,0.000,-1.570,-1.570,-0.297
1606940267099828736,pose_received,1606940267099070041,-1.570,0.000,0.000,-1.570,-1.570,-0.297
1606940267119993856,pose_received,1606940267119319025,-1.570,0.000,0.000,-1.570,-1.570,-0.297
1606940267149689856,pose_received,1606940267149070154,-1.570,0.000,0.000,-1.570,-1.570,-0.297
1606940267159810816,pose_received,1606940267159070797,-1.570,0.000,0.000,-1.570,-1.570,-0.297
1606940267179622656,pose_received,1606940267179070982,-1.570,0.000,0.000,-1.570,-1.570,-0.297
1606940267199978240,pose_received,1606940267199070167,-1.570,0.000,0.000,-1.570,-1.570,-0.297
1606940267220303872,pose_received,1606940267219073052,-1.570,0.000,0.000,-1.570,-1.570,-0.297
1606940267239864320,pose_received,1606940267239072237,-1.570,0.000,0.000,-1.570,-1.570,-0.297
1606940267259674368,pose_received,1606940267259069522,-1.570,0.000,0.000,-1.570,-1.570,-0.297
1606940267279718656,pose_received,1606940267279073307,-1.570,0.000,0.000,-1.570,-1.570,-0.297
1606940267299700480,pose_received,1606940267299071592,-1.570,0.000,0.000,-1.570,-1.570,-0.297
1606940267319982592,pose_received,1606940267319072577,-1.570,0.000,0.000,-1.570,-1.570,-0.297
1606940267340007936,pose_received,1606940267339074662,-1.570,0.000,0.000,-1.570,-1.570,-0.297
1606940267359676928,pose_received,1606940267359069648,-1.570,0.000,0.000,-1.570,-1.570,-0.297
1606940267380055808,pose_received,1606940267379073033,-1.570,0.000,0.000,-1.570,-1.570,-0.297
1606940267400091904,pose_received,1606940267399060518,-1.570,0.000,0.000,-1.570,-1.570,-0.297
1606940267419966720,pose_received,1606940267419069303,-1.570,0.000,0.000,-1.570,-1.570,-0.297
1606940267449859584,pose_received,1606940267449067130,-1.570,0.000,0.000,-1.570,-1.570,-0.297
1606940267459517952,pose_received,1606940267459071673,-1.570,0.000,0.000,-1.570,-1.570,-0.297
1606940267480270592,pose_received,1606940267479073058,-1.570,0.000,0.000,-1.570,-1.570,-0.297
1606940267500015872,pose_received,1606940267499068843,-1.570,0.000,0.000,-1.570,-1.570,-0.297
1606940267519787520,pose_received,1606940267519173228,-1.570,0.000,0.000,-1.570,-1.570,-0.297
1606940267550268928,pose_received,1606940267549069456,-1.570,0.000,0.000,-1.570,-1.570,-0.297
1606940267559960320,pose_received,1606940267559071698,-1.570,0.000,0.000,-1.570,-1.570,-0.297
1606940267579718656,pose_received,1606940267579069084,-1.570,0.000,0.000,-1.570,-1.570,-0.297
1606940267600004352,pose_received,1606940267599070169,-1.570,0.000,0.000,-1.570,-1.570,-0.297
1606940267619663104,pose_received,1606940267619068854,-1.570,0.000,0.000,-1.570,-1.570,-0.297
1606940267639690496,pose_received,1606940267639072539,-1.570,0.000,0.000,-1.570,-1.570,-0.297
1606940267659971328,pose_received,1606940267659070924,-1.570,0.000,0.000,-1.570,-1.570,-0.297
1606940267679597312,pose_received,1606940267679070609,-1.570,0.000,0.000,-1.570,-1.570,-0.297
1606940267699558400,pose_received,1606940267699072894,-1.570,0.000,0.000,-1.570,-1.570,-0.297
1606940267720072960,pose_received,1606940267719068179,-1.570,0.000,0.000,-1.570,-1.570,-0.297
1606940267739704064,pose_received,1606940267739075164,-1.570,0.000,0.000,-1.570,-1.570,-0.297
1606940267759919104,pose_received,1606940267759069649,-1.570,0.000,0.000,-1.570,-1.570,-0.297
1606940267779677184,pose_received,1606940267779068934,-1.570,0.000,0.000,-1.570,-1.570,-0.297
1606940267800073216,pose_received,1606940267799071319,-1.570,0.000,0.000,-1.570,-1.570,-0.297
1606940267819984384,pose_received,1606940267819068005,-1.570,0.000,0.000,-1.570,-1.570,-0.297
1606940267839668736,pose_received,1606940267839075690,-1.570,0.000,0.000,-1.570,-1.570,-0.297
1606940267860008192,pose_received,1606940267859070075,-1.570,0.000,0.000,-1.570,-1.570,-0.297
1606940267879742464,pose_received,1606940267879070060,-1.570,0.000,0.000,-1.570,-1.570,-0.297
1606940267899936256,pose_received,1606940267899069945,-1.570,0.000,0.000,-1.570,-1.570,-0.297
1606940267920071936,pose_received,1606940267919073330,-1.570,0.000,0.000,-1.570,-1.570,-0.297
1606940267939661056,pose_received,1606940267939071215,-1.570,0.000,0.000,-1.570,-1.570,-0.297
1606940267959663104,pose_received,1606940267959073700,-1.570,0.000,0.000,-1.570,-1.570,-0.297
1606940267979901184,pose_received,1606940267979071585,-1.570,0.000,0.000,-1.570,-1.570,-0.297
1606940267999969792,pose_received,1606940267999078070,-1.570,0.000,0.000,-1.570,-1.570,-0.297
1606940268019953664,pose_received,1606940268019071856,-1.570,0.000,0.000,-1.570,-1.570,-0.297
1606940268039901440,pose_received,1606940268039070641,-1.570,0.000,0.000,-1.570,-1.570,-0.297
1606940268061174784,pose_received,1606940268059071626,-1.570,0.000,0.000,-1.570,-1.570,-0.297
1606940268079742208,pose_received,1606940268079140611,-1.570,0.000,0.000,-1.570,-1.570,-0.297
1606940268099715072,pose_received,1606940268099071596,-1.570,0.087,0.087,-1.570,-1.483,-0.297
1606940268119767040,pose_received,1606940268119070882,-1.570,0.087,0.087,-1.570,-1.483,-0.297
1606940268140054272,pose_received,1606940268139068867,-1.570,0.087,0.087,-1.570,-1.483,-0.297
1606940268161565952,pose_received,1606940268159075252,-1.570,0.087,0.087,-1.570,-1.483,-0.297
1606940268179721472,pose_received,1606940268179073437,-1.570,0.087,0.105,-1.570,-1.465,-0.297
1606940268199867904,pose_received,1606940268199072422,-1.570,0.087,0.105,-1.570,-1.465,-0.297
1606940268220228608,pose_received,1606940268219074508,-1.570,0.048,0.124,-1.570,-1.446,-0.297
1606940268240074496,pose_received,1606940268239101893,-1.570,0.017,0.140,-1.570,-1.430,-0.297
1606940268263237888,pose_received,1606940268259930773,-1.570,0.017,0.140,-1.570,-1.430,-0.297
1606940268280073472,pose_received,1606940268279080163,-1.570,-0.017,0.209,-1.570,-1.361,-0.297
1606940268299968256,pose_received,1606940268299069048,-1.570,-0.017,0.209,-1.570,-1.361,-0.297
1606940268320431616,pose_received,1606940268319074134,-1.570,-0.037,0.229,-1.570,-1.341,-0.297
1606940268339759104,pose_received,1606940268339081219,-1.570,-0.052,0.244,-1.570,-1.326,-0.297
1606940268360084224,pose_received,1606940268359071404,-1.570,-0.052,0.244,-1.570,-1.326,-0.297
1606940268380736768,pose_received,1606940268379551586,-1.570,-0.052,0.244,-1.570,-1.326,-0.297
1606940268399874304,pose_received,1606940268399069774,-1.570,-0.052,0.244,-1.570,-1.326,-0.297
1606940268420492544,pose_received,1606940268419229959,-1.570,-0.070,0.314,-1.570,-1.256,-0.297
1606940268442119424,pose_received,1606940268441512131,-1.570,-0.070,0.314,-1.570,-1.256,-0.297
1606940268459782912,pose_received,1606940268459070430,-1.570,-0.070,0.328,-1.570,-1.242,-0.297
1606940268480445952,pose_received,1606940268479908610,-1.570,-0.070,0.331,-1.570,-1.239,-0.297
1606940268499699712,pose_received,1606940268499070500,-1.570,-0.070,0.331,-1.570,-1.239,-0.297
1606940268520295936,pose_received,1606940268519057986,-1.570,-0.105,0.384,-1.570,-1.186,-0.297
1606940268542073344,pose_received,1606940268539333469,-1.570,-0.105,0.384,-1.570,-1.186,-0.297
1606940268559732992,pose_received,1606940268559071156,-1.570,-0.134,0.443,-1.570,-1.127,-0.297
1606940268579801856,pose_received,1606940268579069941,-1.570,-0.140,0.454,-1.570,-1.116,-0.297
1606940268599933696,pose_received,1606940268599070526,-1.570,-0.140,0.454,-1.570,-1.116,-0.297
1606940268621370112,pose_received,1606940268620709902,-1.570,-0.150,0.484,-1.570,-1.086,-0.297
1606940268639610112,pose_received,1606940268639071397,-1.570,-0.157,0.506,-1.570,-1.064,-0.297
1606940268659905280,pose_received,1606940268659089982,-1.570,-0.157,0.506,-1.570,-1.064,-0.297
1606940268679915776,pose_received,1606940268679254266,-1.570,-0.157,0.506,-1.570,-1.064,-0.297
1606940268699953408,pose_received,1606940268699068652,-1.570,-0.157,0.558,-1.570,-1.012,-0.297
1606940268719701248,pose_received,1606940268719069038,-1.570,-0.157,0.558,-1.570,-1.012,-0.297
1606940268739759104,pose_received,1606940268739071323,-1.570,-0.157,0.558,-1.570,-1.012,-0.297
1606940268760031232,pose_received,1606940268759069108,-1.570,-0.183,0.597,-1.570,-0.973,-0.297
1606940268779959296,pose_received,1606940268779079393,-1.570,-0.192,0.611,-1.570,-0.959,-0.297
1606940268800127488,pose_received,1606940268799071578,-1.570,-0.192,0.611,-1.570,-0.959,-0.297
1606940268819950336,pose_received,1606940268819069464,-1.570,-0.192,0.642,-1.570,-0.928,-0.297
1606940268840078336,pose_received,1606940268839113449,-1.570,-0.192,0.663,-1.570,-0.907,-0.297
1606940268859830272,pose_received,1606940268859071734,-1.570,-0.192,0.663,-1.570,-0.907,-0.297
1606940268879799808,pose_received,1606940268879213018,-1.570,-0.209,0.698,-1.570,-0.872,-0.297
1606940268899550208,pose_received,1606940268899072004,-1.570,-0.209,0.698,-1.570,-0.872,-0.297
1606940268920003584,pose_received,1606940268919067990,-1.570,-0.209,0.698,-1.570,-0.872,-0.297
1606940268939840512,pose_received,1606940268939071275,-1.570,-0.209,0.744,-1.570,-0.826,-0.297
1606940268959936256,pose_received,1606940268959084260,-1.570,-0.209,0.768,-1.570,-0.802,-0.297
1606940268979607040,pose_received,1606940268979071145,-1.570,-0.209,0.768,-1.570,-0.802,-0.297
1606940268999867904,pose_received,1606940268999074030,-1.570,-0.209,0.768,-1.570,-0.802,-0.297
1606940269020129792,pose_received,1606940269019071416,-1.570,-0.218,0.804,-1.570,-0.766,-0.297
1606940269039807488,pose_received,1606940269039077001,-1.570,-0.227,0.837,-1.570,-0.733,-0.297
1606940269059855616,pose_received,1606940269059069686,-1.570,-0.227,0.837,-1.570,-0.733,-0.297
1606940269080024064,pose_received,1606940269079324570,-1.570,-0.227,0.837,-1.570,-0.733,-0.297
1606940269100215552,pose_received,1606940269099075957,-1.570,-0.227,0.872,-1.570,-0.698,-0.297
1606940269119699968,pose_received,1606940269119069542,-1.570,-0.227,0.872,-1.570,-0.698,-0.297
1606940269140074496,pose_received,1606940269139072628,-1.570,-0.227,0.885,-1.570,-0.685,-0.297
1606940269159775744,pose_received,1606940269159071613,-1.570,-0.227,0.890,-1.570,-0.680,-0.297
1606940269180692992,pose_received,1606940269179556796,-1.570,-0.227,0.890,-1.570,-0.680,-0.297
1606940269199771648,pose_received,1606940269199075584,-1.570,-0.227,0.925,-1.570,-0.645,-0.297
1606940269219646976,pose_received,1606940269219069369,-1.570,-0.227,0.925,-1.570,-0.645,-0.297
1606940269239831296,pose_received,1606940269239141554,-1.570,-0.250,0.984,-1.570,-0.586,-0.297
1606940269259744256,pose_received,1606940269259070340,-1.570,-0.262,1.012,-1.570,-0.558,-0.297
1606940269280414464,pose_received,1606940269279334723,-1.570,-0.262,1.012,-1.570,-0.558,-0.297
1606940269299713280,pose_received,1606940269299073310,-1.570,-0.262,1.012,-1.570,-0.558,-0.297
1606940269319821568,pose_received,1606940269319070496,-1.570,-0.297,1.082,-1.570,-0.488,-0.297
1606940269339785472,pose_received,1606940269339078181,-1.570,-0.297,1.082,-1.570,-0.488,-0.297
1606940269359862016,pose_received,1606940269359071366,-1.570,-0.282,1.082,-1.570,-0.488,-0.297
1606940269379585024,pose_received,1606940269379074251,-1.570,-0.279,1.082,-1.570,-0.488,-0.297
1606940269399637760,pose_received,1606940269399074437,-1.570,-0.279,1.082,-1.570,-0.488,-0.297
1606940269419926016,pose_received,1606940269419071722,-1.570,-0.279,1.101,-1.570,-0.469,-0.297
1606940269439886080,pose_received,1606940269439069507,-1.570,-0.279,1.116,-1.570,-0.454,-0.297
1606940269460159232,pose_received,1606940269459074393,-1.570,-0.279,1.116,-1.570,-0.454,-0.297
1606940269479921920,pose_received,1606940269479149678,-1.570,-0.279,1.116,-1.570,-0.454,-0.297
1606940269499640064,pose_received,1606940269499072063,-1.570,-0.279,1.169,-1.570,-0.401,-0.297
1606940269520844800,pose_received,1606940269519070249,-1.570,-0.279,1.169,-1.570,-0.401,-0.297
1606940269539911424,pose_received,1606940269539072434,-1.570,-0.268,1.169,-1.570,-0.401,-0.297
1606940269560087808,pose_received,1606940269559074619,-1.570,-0.262,1.169,-1.570,-0.401,-0.297
1606940269579727104,pose_received,1606940269579087904,-1.570,-0.262,1.169,-1.570,-0.401,-0.297
1606940269600037632,pose_received,1606940269599068790,-1.570,-0.262,1.204,-1.570,-0.366,-0.297
1606940269620535296,pose_received,1606940269619103075,-1.570,-0.262,1.204,-1.570,-0.366,-0.297
1606940269639589888,pose_received,1606940269639073461,-1.570,-0.215,1.180,-1.570,-0.390,-0.297
1606940269659660032,pose_received,1606940269659070146,-1.570,-0.192,1.169,-1.570,-0.401,-0.297
1606940269679898624,pose_received,1606940269679159331,-1.570,-0.191,1.169,-1.570,-0.401,-0.297
1606940269699611392,pose_received,1606940269699071916,-1.570,-0.174,1.169,-1.570,-0.401,-0.297
1606940269719904000,pose_received,1606940269719077902,-1.570,-0.174,1.169,-1.570,-0.401,-0.297
1606940269739935488,pose_received,1606940269739072087,-1.570,-0.174,1.169,-1.570,-0.401,-0.297
1606940269761662976,pose_received,1606940269761099961,-1.570,-0.174,1.169,-1.570,-0.401,-0.297
1606940269779711744,pose_received,1606940269779070058,-1.570,-0.140,1.186,-1.570,-0.384,-0.297
1606940269799665664,pose_received,1606940269799072543,-1.570,-0.140,1.186,-1.570,-0.384,-0.297
1606940269822235904,pose_received,1606940269819209928,-1.570,-0.140,1.206,-1.570,-0.364,-0.297
1606940269840039680,pose_received,1606940269839070514,-1.570,-0.140,1.221,-1.570,-0.349,-0.297
1606940269862900992,pose_received,1606940269861312386,-1.570,-0.140,1.221,-1.570,-0.349,-0.297
1606940269879800832,pose_received,1606940269879194884,-1.570,-0.122,1.221,-1.570,-0.349,-0.297
1606940269899701248,pose_received,1606940269899070270,-1.570,-0.122,1.221,-1.570,-0.349,-0.297
1606940269920197632,pose_received,1606940269919064855,-1.570,-0.122,1.221,-1.570,-0.349,-0.297
1606940269939973120,pose_received,1606940269939070440,-1.570,-0.084,1.209,-1.570,-0.361,-0.297
1606940269959630080,pose_received,1606940269959072826,-1.570,-0.070,1.204,-1.570,-0.366,-0.297
1606940269979908608,pose_received,1606940269979273110,-1.570,-0.070,1.204,-1.570,-0.366,-0.297
1606940269999659520,pose_received,1606940269999068796,-1.570,-0.070,1.204,-1.570,-0.366,-0.297
1606940270019979520,pose_received,1606940270019408380,-1.570,-0.049,1.204,-1.570,-0.366,-0.297
1606940270040188672,pose_received,1606940270039071867,-1.570,-0.035,1.204,-1.570,-0.366,-0.297
1606940270060148992,pose_received,1606940270059066952,-1.570,-0.035,1.204,-1.570,-0.366,-0.297
1606940270080189440,pose_received,1606940270079121238,-1.570,-0.035,1.204,-1.570,-0.366,-0.297
1606940270099891968,pose_received,1606940270099070523,-1.570,-0.035,1.221,-1.570,-0.349,-0.297
1606940270130502656,pose_received,1606940270129868447,-1.570,-0.035,1.221,-1.570,-0.349,-0.297
1606940270139969280,pose_received,1606940270139072094,-1.570,-0.035,1.221,-1.570,-0.349,-0.297
1606940270161517056,pose_received,1606940270160759370,-1.570,0.017,1.208,-1.570,-0.362,-0.297
1606940270179689728,pose_received,1606940270179079665,-1.570,0.035,1.204,-1.570,-0.366,-0.297
1606940270200036864,pose_received,1606940270199072250,-1.570,0.036,1.203,-1.570,-0.367,-0.297
1606940270219990784,pose_received,1606940270219078236,-1.570,0.087,1.186,-1.570,-0.384,-0.297
1606940270240268288,pose_received,1606940270239070721,-1.570,0.087,1.186,-1.570,-0.384,-0.297
1606940270259916544,pose_received,1606940270259071807,-1.570,0.102,1.201,-1.570,-0.369,-0.297
1606940270280087808,pose_received,1606940270279069792,-1.570,0.105,1.204,-1.570,-0.366,-0.297
1606940270299635456,pose_received,1606940270299073678,-1.570,0.105,1.204,-1.570,-0.366,-0.297
1606940270320026112,pose_received,1606940270319070563,-1.570,0.105,1.213,-1.570,-0.357,-0.297
1606940270349661184,pose_received,1606940270349083291,-1.570,0.105,1.221,-1.570,-0.349,-0.297
1606940270359942656,pose_received,1606940270359071134,-1.570,0.105,1.221,-1.570,-0.349,-0.297
1606940270379996160,pose_received,1606940270379501217,-1.570,0.105,1.221,-1.570,-0.349,-0.297
1606940270400097280,pose_received,1606940270399058205,-1.570,0.087,1.273,-1.570,-0.297,-0.297
1606940270419902464,pose_received,1606940270419069690,-1.570,0.087,1.273,-1.570,-0.297,-0.297
1606940270439624192,pose_received,1606940270439093575,-1.570,0.087,1.310,-1.570,-0.260,-0.297
1606940270459980544,pose_received,1606940270459071361,-1.570,0.087,1.326,-1.570,-0.244,-0.297
1606940270479661568,pose_received,1606940270479074246,-1.570,0.087,1.326,-1.570,-0.244,-0.297
1606940270499865344,pose_received,1606940270499077032,-1.570,0.087,1.326,-1.570,-0.244,-0.297
1606940270519902208,pose_received,1606940270519065017,-1.570,0.052,1.378,-1.570,-0.192,-0.297
1606940270540030976,pose_received,1606940270539069503,-1.570,0.052,1.378,-1.570,-0.192,-0.297
1606940270559716096,pose_received,1606940270559087488,-1.570,0.052,1.379,-1.570,-0.191,-0.297
1606940270579895296,pose_received,1606940270579069074,-1.570,-0.017,1.448,-1.570,-0.122,-0.297
1606940270599806720,pose_received,1606940270599076159,-1.570,-0.017,1.448,-1.570,-0.122,-0.297
1606940270619666432,pose_received,1606940270619069144,-1.570,-0.017,1.448,-1.570,-0.122,-0.297
1606940270640054528,pose_received,1606940270639079230,-1.570,-0.017,1.448,-1.570,-0.122,-0.297
1606940270659899136,pose_received,1606940270659071315,-1.570,-0.017,1.448,-1.570,-0.122,-0.297
1606940270679565056,pose_received,1606940270679070901,-1.570,-0.017,1.448,-1.570,-0.122,-0.297
1606940270700036096,pose_received,1606940270699069886,-1.570,-0.017,1.448,-1.570,-0.122,-0.297
1606940270729746176,pose_received,1606940270729069514,-1.570,-0.017,1.448,-1.570,-0.122,-0.297
1606940270739814656,pose_received,1606940270739069457,-1.570,-0.017,1.448,-1.570,-0.122,-0.297
1606940270759740928,pose_received,1606940270759080942,-1.570,-0.017,1.448,-1.570,-0.122,-0.297
1606940270779656192,pose_received,1606940270779070328,-1.570,-0.017,1.448,-1.570,-0.122,-0.297
1606940270799630336,pose_received,1606940270799069413,-1.570,-0.017,1.448,-1.570,-0.122,-0.297
1606940270820168192,pose_received,1606940270819071099,-1.570,-0.017,1.448,-1.570,-0.122,-0.297
1606940270839902464,pose_received,1606940270839068784,-1.570,-0.017,1.448,-1.570,-0.122,-0.297
1606940270860068352,pose_received,1606940270859072769,-1.570,-0.017,1.448,-1.570,-0.122,-0.297
1606940270880026112,pose_received,1606940270879102555,-1.570,-0.017,1.448,-1.570,-0.122,-0.297
1606940270899796736,pose_received,1606940270899284539,-1.570,-0.017,1.448,-1.570,-0.122,-0.297
1606940270920631552,pose_received,1606940270919088926,-1.570,-0.017,1.448,-1.570,-0.122,-0.297
1606940270939584512,pose_received,1606940270939071911,-1.570,-0.017,1.448,-1.570,-0.122,-0.297
1606940270959999744,pose_received,1606940270959071997,-1.570,-0.017,1.448,-1.570,-0.122,-0.297
1606940270979878400,pose_received,1606940270979073182,-1.570,-0.017,1.448,-1.570,-0.122,-0.297
1606940271000099584,pose_received,1606940270999097367,-1.570,-0.017,1.448,-1.570,-0.122,-0.297
1606940271019881472,pose_received,1606940271019071353,-1.570,-0.017,1.448,-1.570,-0.122,-0.297
1606940271039866880,pose_received,1606940271039070639,-1.570,-0.017,1.448,-1.570,-0.122,-0.297
1606940271060028160,pose_received,1606940271059096324,-1.570,-0.017,1.448,-1.570,-0.122,-0.297
1606940271079787008,pose_received,1606940271079070010,-1.570,-0.017,1.448,-1.570,-0.122,-0.297
1606940271099933440,pose_received,1606940271099069395,-1.570,-0.017,1.448,-1.570,-0.122,-0.297
1606940271119769088,pose_received,1606940271119073381,-1.570,-0.017,1.448,-1.570,-0.122,-0.297
1606940271140071168,pose_received,1606940271139058266,-1.570,-0.017,1.448,-1.570,-0.122,-0.297
1606940271159809280,pose_received,1606940271159070952,-1.570,-0.017,1.448,-1.570,-0.122,-0.297
1606940271180130304,pose_received,1606940271179070137,-1.570,-0.017,1.448,-1.570,-0.122,-0.297
1606940271199922688,pose_received,1606940271199070623,-1.570,-0.017,1.448,-1.570,-0.122,-0.297
1606940271219734784,pose_received,1606940271219072908,-1.570,-0.017,1.448,-1.570,-0.122,-0.297
1606940271239844096,pose_received,1606940271239286593,-1.570,-0.017,1.448,-1.570,-0.122,-0.297
1606940271259849216,pose_received,1606940271259070979,-1.570,-0.017,1.448,-1.570,-0.122,-0.297
1606940271279790848,pose_received,1606940271279071965,-1.570,-0.017,1.448,-1.570,-0.122,-0.297
1606940271299989760,pose_received,1606940271299250249,-1.570,-0.017,1.448,-1.570,-0.122,-0.297
1606940271329805312,pose_received,1606940271329075679,-1.570,-0.017,1.448,-1.570,-0.122,-0.297
1606940271339731968,pose_received,1606940271339109221,-1.570,-0.017,1.448,-1.570,-0.122,-0.297
1606940271360209664,pose_received,1606940271359112407,-1.570,-0.017,1.448,-1.570,-0.122,-0.297
1606940271380217600,pose_received,1606940271379075893,-1.570,-0.017,1.448,-1.570,-0.122,-0.297
1606940271399625216,pose_received,1606940271399072178,-1.570,-0.017,1.448,-1.570,-0.122,-0.297
1606940271420192768,pose_received,1606940271419064064,-1.570,-0.017,1.448,-1.570,-0.122,-0.297
1606940271440818944,pose_received,1606940271439076349,-1.570,-0.017,1.448,-1.570,-0.122,-0.297
1606940271459609856,pose_received,1606940271459071035,-1.570,-0.017,1.448,-1.570,-0.122,-0.297
1606940271480600064,pose_received,1606940271479108320,-1.570,-0.017,1.448,-1.570,-0.122,-0.297
1606940271500128256,pose_received,1606940271499070406,-1.570,-0.017,1.448,-1.570,-0.122,-0.297
1606940271520018688,pose_received,1606940271519071691,-1.570,-0.017,1.448,-1.570,-0.122,-0.297
1606940271540159232,pose_received,1606940271539073077,-1.570,-0.017,1.448,-1.570,-0.122,-0.297
1606940271559718144,pose_received,1606940271559069763,-1.570,-0.017,1.448,-1.570,-0.122,-0.297
1606940271579602176,pose_received,1606940271579069648,-1.570,-0.017,1.448,-1.570,-0.122,-0.297
1606940271599807232,pose_received,1606940271599070334,-1.570,-0.017,1.448,-1.570,-0.122,-0.297
1606940271620112128,pose_received,1606940271619068619,-1.570,-0.017,1.448,-1.570,-0.122,-0.297
1606940271639993856,pose_received,1606940271639072605,-1.570,-0.017,1.448,-1.570,-0.122,-0.297
1606940271659643904,pose_received,1606940271659126890,-1.570,-0.017,1.448,-1.570,-0.122,-0.297
1606940271680116736,pose_received,1606940271679070076,-1.570,-0.017,1.448,-1.570,-0.122,-0.297
1606940271699890176,pose_received,1606940271699076961,-1.570,-0.017,1.448,-1.570,-0.122,-0.297
1606940271719822848,pose_received,1606940271719070647,-1.570,-0.017,1.448,-1.570,-0.122,-0.297
1606940271740061184,pose_received,1606940271739070432,-1.570,-0.017,1.448,-1.570,-0.122,-0.297
1606940271759965696,pose_received,1606940271759073218,-1.570,-0.017,1.448,-1.570,-0.122,-0.297
1606940271779895808,pose_received,1606940271779098003,-1.570,-0.017,1.448,-1.570,-0.122,-0.297
1606940271799764736,pose_received,1606940271799074689,-1.570,-0.017,1.448,-1.570,-0.122,-0.297
1606940271819933440,pose_received,1606940271819069974,-1.570,-0.017,1.448,-1.570,-0.122,-0.297
1606940271840010496,pose_received,1606940271839071460,-1.570,-0.017,1.448,-1.570,-0.122,-0.297
1606940271859907072,pose_received,1606940271859071146,-1.570,-0.017,1.448,-1.570,-0.122,-0.297
1606940271879792128,pose_received,1606940271879069631,-1.570,-0.017,1.448,-1.570,-0.122,-0.297
1606940271900110336,pose_received,1606940271899503014,-1.570,-0.017,1.448,-1.570,-0.122,-0.297
1606940271919751936,pose_received,1606940271919069102,-1.570,-0.017,1.448,-1.570,-0.122,-0.297
1606940271939961856,pose_received,1606940271939071288,-1.570,-0.017,1.448,-1.570,-0.122,-0.297
1606940271959687424,pose_received,1606940271959074273,-1.570,-0.017,1.448,-1.570,-0.122,-0.297
1606940271980011264,pose_received,1606940271979069159,-1.570,-0.017,1.448,-1.570,-0.122,-0.297
1606940272000196352,pose_received,1606940271999059044,-1.570,-0.017,1.448,-1.570,-0.122,-0.297
1606940272020225024,pose_received,1606940272019071230,-1.570,-0.017,1.448,-1.570,-0.122,-0.297
1606940272039975168,pose_received,1606940272039072916,-1.570,-0.017,1.448,-1.570,-0.122,-0.297
1606940272059933696,pose_received,1606940272059071201,-1.570,-0.017,1.448,-1.570,-0.122,-0.297
1606940272079709440,pose_received,1606940272079105687,-1.570,-0.017,1.448,-1.570,-0.122,-0.297
1606940272099717376,pose_received,1606940272099069473,-1.570,-0.017,1.448,-1.570,-0.122,-0.297
1606940272119650048,pose_received,1606940272119072758,-1.570,-0.017,1.448,-1.570,-0.122,-0.297
1606940272140042752,pose_received,1606940272139069544,-1.570,-0.017,1.448,-1.570,-0.122,-0.297
1606940272170386944,pose_received,1606940272169069572,-1.570,-0.017,1.448,-1.570,-0.122,-0.297
1606940272179547392,pose_received,1606940272179072115,-1.570,-0.017,1.448,-1.570,-0.122,-0.297
1606940272200261120,pose_received,1606940272199090401,-1.570,-0.017,1.448,-1.570,-0.122,-0.297
1606940272219825408,pose_received,1606940272219072486,-1.570,-0.017,1.448,-1.570,-0.122,-0.297
1606940272240098560,pose_received,1606940272239074072,-1.570,-0.017,1.448,-1.570,-0.122,-0.297
1606940272259924736,pose_received,1606940272259071758,-1.570,-0.017,1.448,-1.570,-0.122,-0.297
1606940272279992064,pose_received,1606940272279072443,-1.570,-0.017,1.448,-1.570,-0.122,-0.297
1606940272299812352,pose_received,1606940272299081129,-1.570,-0.017,1.448,-1.570,-0.122,-0.297
1606940272319926528,pose_received,1606940272319075915,-1.570,-0.017,1.448,-1.570,-0.122,-0.297
1606940272340164608,pose_received,1606940272339076900,-1.570,-0.017,1.448,-1.570,-0.122,-0.297
1606940272359824896,pose_received,1606940272359069786,-1.570,-0.017,1.448,-1.570,-0.122,-0.297
1606940272379689984,pose_received,1606940272379070572,-1.570,-0.017,1.448,-1.570,-0.122,-0.297
1606940272400054528,pose_received,1606940272399070557,-1.570,-0.017,1.448,-1.570,-0.122,-0.297
1606940272419982592,pose_received,1606940272419074943,-1.570,-0.017,1.448,-1.570,-0.122,-0.297
1606940272440149504,pose_received,1606940272439060929,-1.570,-0.017,1.448,-1.570,-0.122,-0.297
1606940272459720192,pose_received,1606940272459069814,-1.570,-0.017,1.448,-1.570,-0.122,-0.297
1606940272479774208,pose_received,1606940272479069900,-1.570,-0.017,1.448,-1.570,-0.122,-0.297
1606940272500104192,pose_received,1606940272499123885,-1.570,-0.017,1.448,-1.570,-0.122,-0.297
1606940272519836672,pose_received,1606940272519072971,-1.570,-0.017,1.448,-1.570,-0.122,-0.297
1606940272540074752,pose_received,1606940272539071257,-1.570,-0.017,1.448,-1.570,-0.122,-0.297
1606940272559576064,pose_received,1606940272559072842,-1.570,-0.017,1.448,-1.570,-0.122,-0.297
1606940272579747840,pose_received,1606940272579099328,-1.570,-0.017,1.448,-1.570,-0.122,-0.297
1606940272599983360,pose_received,1606940272599072614,-1.570,-0.017,1.448,-1.570,-0.122,-0.297
1606940272619712512,pose_received,1606940272619089799,-1.570,-0.017,1.448,-1.570,-0.122,-0.297
1606940272639965184,pose_received,1606940272639071085,-1.570,-0.017,1.448,-1.570,-0.122,-0.297
1606940272659889920,pose_received,1606940272659360469,-1.570,-0.017,1.448,-1.570,-0.122,-0.297
1606940272679777536,pose_received,1606940272679078056,-1.570,-0.017,1.448,-1.570,-0.122,-0.297
1606940272699750144,pose_received,1606940272699071142,-1.570,-0.017,1.448,-1.570,-0.122,-0.297
1606940272719721216,pose_received,1606940272719070728,-1.570,-0.017,1.448,-1.570,-0.122,-0.297
1606940272739837184,pose_received,1606940272739071313,-1.570,-0.017,1.448,-1.570,-0.122,-0.297
1606940272760019712,pose_received,1606940272759070699,-1.570,-0.017,1.448,-1.570,-0.122,-0.297
1606940272779648256,pose_received,1606940272779073785,-1.570,-0.017,1.448,-1.570,-0.122,-0.297
1606940272800031488,pose_received,1606940272799082770,-1.570,-0.017,1.448,-1.570,-0.122,-0.297
1606940272819748352,pose_received,1606940272819069756,-1.570,-0.017,1.448,-1.570,-0.122,-0.297
1606940272839657728,pose_received,1606940272839111141,-1.570,-0.017,1.448,-1.570,-0.122,-0.297
1606940272859714560,pose_received,1606940272859084627,-1.570,-0.017,1.448,-1.570,-0.122,-0.297
1606940272879626752,pose_received,1606940272879070613,-1.570,-0.017,1.448,-1.570,-0.122,-0.297
1606940272900209664,pose_received,1606940272899099598,-1.570,-0.017,1.448,-1.570,-0.122,-0.297
1606940272920087552,pose_received,1606940272919286683,-1.570,-0.017,1.448,-1.570,-0.122,-0.297
1606940272939780096,pose_received,1606940272939073770,-1.570,0.000,0.000,-1.570,-1.570,-0.297
1606940272959872256,pose_received,1606940272959143555,-1.570,0.000,0.000,-1.570,-1.570,-0.297
1606940272979767808,pose_received,1606940272979070941,-1.570,0.000,0.000,-1.570,-1.570,-0.297
1606940273000292608,pose_received,1606940272999154126,-1.570,0.000,0.000,-1.570,-1.570,-0.297
1606940273019973120,pose_received,1606940273019070812,-1.570,0.000,0.000,-1.570,-1.570,-0.297
1606940273040123648,pose_received,1606940273039486696,-1.570,0.000,0.000,-1.570,-1.570,-0.297
1606940273059807488,pose_received,1606940273059071784,-1.570,0.000,0.000,-1.570,-1.570,-0.297
1606940273079826176,pose_received,1606940273079071070,-1.570,0.000,0.000,-1.570,-1.570,-0.297
1606940273100037376,pose_received,1606940273099424553,-1.570,0.000,0.000,-1.570,-1.570,-0.297
1606940273119713536,pose_received,1606940273119070241,-1.570,0.000,0.000,-1.570,-1.570,-0.297
1606940273139565824,pose_received,1606940273139070627,-1.570,0.000,0.000,-1.570,-1.570,-0.297
1606940273159989248,pose_received,1606940273159070613,-1.570,0.000,0.000,-1.570,-1.570,-0.297
1606940273180049152,pose_received,1606940273179070298,-1.570,0.000,0.000,-1.570,-1.570,-0.297
1606940273199849728,pose_received,1606940273199072284,-1.570,0.000,0.000,-1.570,-1.570,-0.297
1606940273219628544,pose_received,1606940273219069070,-1.570,0.000,0.000,-1.570,-1.570,-0.297
1606940273239772928,pose_received,1606940273239069956,-1.570,0.000,0.000,-1.570,-1.570,-0.297
1606940273259912960,pose_received,1606940273259070542,-1.570,0.000,0.000,-1.570,-1.570,-0.297
1606940273279851008,pose_received,1606940273279073727,-1.570,0.000,0.000,-1.570,-1.570,-0.297
1606940273299639808,pose_received,1606940273299072013,-1.570,0.000,0.000,-1.570,-1.570,-0.297
1606940273320355840,pose_received,1606940273319073599,-1.570,0.000,0.000,-1.570,-1.570,-0.297
1606940273340142080,pose_received,1606940273339061385,-1.570,0.000,0.000,-1.570,-1.570,-0.297
1606940273359744768,pose_received,1606940273359080570,-1.570,0.000,0.000,-1.570,-1.570,-0.297
1606940273379819520,pose_received,1606940273379070456,-1.570,0.000,0.000,-1.570,-1.570,-0.297
1606940273400064512,pose_received,1606940273399071042,-1.570,0.000,0.000,-1.570,-1.570,-0.297
1606940273420696832,pose_received,1606940273419087227,-1.570,0.000,0.000,-1.570,-1.570,-0.297
1606940273439663616,pose_received,1606940273439071713,-1.570,0.000,0.000,-1.570,-1.570,-0.297
1606940273460221184,pose_received,1606940273459075099,-1.570,0.000,0.000,-1.570,-1.570,-0.297
1606940273479852032,pose_received,1606940273479073985,-1.570,0.000,0.000,-1.570,-1.570,-0.297
1606940273500197888,pose_received,1606940273499196070,-1.570,0.000,0.000,-1.570,-1.570,-0.297
1606940273520232704,pose_received,1606940273519075556,-1.570,0.000,0.000,-1.570,-1.570,-0.297
1606940273549840896,pose_received,1606940273549072985,-1.570,0.000,0.000,-1.570,-1.570,-0.297
1606940273559936768,pose_received,1606940273559070328,-1.570,0.000,0.000,-1.570,-1.570,-0.297
1606940273579723520,pose_received,1606940273579070514,-1.570,0.000,0.000,-1.570,-1.570,-0.297
1606940273599840512,pose_received,1606940273599072499,-1.570,0.000,0.000,-1.570,-1.570,-0.297
1606940273620193536,pose_received,1606940273619073785,-1.570,0.000,0.000,-1.570,-1.570,-0.297
1606940273640042240,pose_received,1606940273639071771,-1.570,0.000,0.000,-1.570,-1.570,-0.297
1606940273659923456,pose_received,1606940273659070357,-1.570,0.000,0.000,-1.570,-1.570,-0.297
1606940273680092416,pose_received,1606940273679068642,-1.570,0.000,0.000,-1.570,-1.570,-0.297
1606940273699829504,pose_received,1606940273699073628,-1.570,0.000,0.000,-1.570,-1.570,-0.297
1606940273720111104,pose_received,1606940273719074214,-1.570,0.000,0.000,-1.570,-1.570,-0.297
1606940273739712512,pose_received,1606940273739070500,-1.570,0.000,0.000,-1.570,-1.570,-0.297
1606940273759810304,pose_received,1606940273759069685,-1.570,0.000,0.000,-1.570,-1.570,-0.297
1606940273779837184,pose_received,1606940273779073771,-1.570,0.000,0.000,-1.570,-1.570,-0.297
1606940273799948544,pose_received,1606940273799071757,-1.570,0.000,0.000,-1.570,-1.570,-0.297
1606940273829939200,pose_received,1606940273829085086,-1.570,0.000,0.000,-1.570,-1.570,-0.297
1606940273840044800,pose_received,1606940273839072028,-1.570,0.000,0.000,-1.570,-1.570,-0.297
1606940273859577088,pose_received,1606940273859070114,-1.570,0.000,0.000,-1.570,-1.570,-0.297
1606940273880205568,pose_received,1606940273879075600,-1.570,0.000,0.000,-1.570,-1.570,-0.297
1606940273899599872,pose_received,1606940273899068886,-1.570,0.000,0.000,-1.570,-1.570,-0.297
1606940273920133376,pose_received,1606940273919055972,-1.570,0.000,0.000,-1.570,-1.570,-0.297
1606940273939999744,pose_received,1606940273939070157,-1.570,0.000,0.000,-1.570,-1.570,-0.297
1606940273959813632,pose_received,1606940273959069443,-1.570,0.000,0.000,-1.570,-1.570,-0.297
1606940273980062976,pose_received,1606940273979073029,-1.570,0.000,0.000,-1.570,-1.570,-0.297
1606940274000014592,pose_received,1606940273999070715,-1.570,0.000,0.000,-1.570,-1.570,-0.297
1606940274020197632,pose_received,1606940274019089200,-1.570,0.000,0.000,-1.570,-1.570,-0.297
1606940274039971584,pose_received,1606940274039073386,-1.570,0.087,0.052,-1.570,-1.518,-0.297
1606940274060132352,pose_received,1606940274059061572,-1.570,0.087,0.052,-1.570,-1.518,-0.297
1606940274079997696,pose_received,1606940274079070258,-1.570,0.087,0.052,-1.570,-1.518,-0.297
1606940274099704064,pose_received,1606940274099071644,-1.570,0.087,0.052,-1.570,-1.518,-0.297
1606940274119739648,pose_received,1606940274119072930,-1.570,0.087,0.052,-1.570,-1.518,-0.297
1606940274139897088,pose_received,1606940274139076016,-1.570,0.087,0.052,-1.570,-1.518,-0.297
1606940274159742208,pose_received,1606940274159070501,-1.570,0.087,0.062,-1.570,-1.508,-0.297
1606940274179646976,pose_received,1606940274179069987,-1.570,0.087,0.070,-1.570,-1.500,-0.297
1606940274199822336,pose_received,1606940274199073673,-1.570,0.087,0.070,-1.570,-1.500,-0.297
1606940274219632384,pose_received,1606940274219071459,-1.570,0.070,0.087,-1.570,-1.483,-0.297
1606940274239874560,pose_received,1606940274239078745,-1.570,0.070,0.087,-1.570,-1.483,-0.297
1606940274269815296,pose_received,1606940274269069574,-1.570,0.035,0.157,-1.570,-1.413,-0.297
1606940274279597824,pose_received,1606940274279072017,-1.570,0.035,0.157,-1.570,-1.413,-0.297
1606940274299953152,pose_received,1606940274299072303,-1.570,0.035,0.157,-1.570,-1.413,-0.297
1606940274320214016,pose_received,1606940274319144388,-1.570,0.017,0.192,-1.570,-1.378,-0.297
1606940274339730944,pose_received,1606940274339069974,-1.570,0.017,0.192,-1.570,-1.378,-0.297
1606940274359933440,pose_received,1606940274359070860,-1.570,0.017,0.192,-1.570,-1.378,-0.297
1606940274379976960,pose_received,1606940274379070846,-1.570,-0.015,0.224,-1.570,-1.346,-0.297
1606940274409735680,pose_received,1606940274409046775,-1.570,-0.035,0.244,-1.570,-1.326,-0.297
1606940274419990528,pose_received,1606940274419070218,-1.570,-0.035,0.244,-1.570,-1.326,-0.297
1606940274440027392,pose_received,1606940274439069804,-1.570,-0.035,0.244,-1.570,-1.326,-0.297
1606940274461136896,pose_received,1606940274460097184,-1.570,-0.046,0.287,-1.570,-1.283,-0.297
1606940274479834368,pose_received,1606940274479071475,-1.570,-0.052,0.314,-1.570,-1.256,-0.297
1606940274500075520,pose_received,1606940274499080161,-1.570,-0.052,0.314,-1.570,-1.256,-0.297
1606940274520149760,pose_received,1606940274519505245,-1.570,-0.052,0.314,-1.570,-1.256,-0.297
1606940274539646976,pose_received,1606940274539100933,-1.570,-0.070,0.349,-1.570,-1.221,-0.297
1606940274559731200,pose_received,1606940274559077519,-1.570,-0.070,0.349,-1.570,-1.221,-0.297
1606940274579819008,pose_received,1606940274579070605,-1.570,-0.070,0.349,-1.570,-1.221,-0.297
1606940274610746624,pose_received,1606940274609370332,-1.570,-0.087,0.384,-1.570,-1.186,-0.297
1606940274620331776,pose_received,1606940274619534274,-1.570,-0.087,0.384,-1.570,-1.186,-0.297
1606940274641505536,pose_received,1606940274640415555,-1.570,-0.087,0.384,-1.570,-1.186,-0.297
1606940274660163840,pose_received,1606940274659072848,-1.570,-0.070,0.401,-1.570,-1.169,-0.297
1606940274679694848,pose_received,1606940274679069334,-1.570,-0.070,0.401,-1.570,-1.169,-0.297
1606940274699609344,pose_received,1606940274699069720,-1.570,-0.070,0.401,-1.570,-1.169,-0.297
1606940274719727616,pose_received,1606940274719074506,-1.570,-0.070,0.471,-1.570,-1.099,-0.297
1606940274739607296,pose_received,1606940274739070592,-1.570,-0.070,0.471,-1.570,-1.099,-0.297
1606940274759901952,pose_received,1606940274759095577,-1.570,-0.070,0.490,-1.570,-1.080,-0.297
1606940274779837440,pose_received,1606940274779173463,-1.570,-0.070,0.506,-1.570,-1.064,-0.297
1606940274803329536,pose_received,1606940274801440536,-1.570,-0.070,0.506,-1.570,-1.064,-0.297
1606940274820032768,pose_received,1606940274819072235,-1.570,-0.070,0.541,-1.570,-1.029,-0.297
1606940274840113408,pose_received,1606940274839076721,-1.570,-0.070,0.541,-1.570,-1.029,-0.297
1606940274859632128,pose_received,1606940274859074807,-1.570,-0.070,0.541,-1.570,-1.029,-0.297
1606940274879727616,pose_received,1606940274879071793,-1.570,-0.070,0.589,-1.570,-0.981,-0.297
1606940274899699712,pose_received,1606940274899070879,-1.570,-0.070,0.611,-1.570,-0.959,-0.297
1606940274920500224,pose_received,1606940274919278363,-1.570,-0.070,0.611,-1.570,-0.959,-0.297
1606940274939888128,pose_received,1606940274939075150,-1.570,-0.070,0.611,-1.570,-0.959,-0.297
1606940274960054784,pose_received,1606940274959068136,-1.570,-0.070,0.645,-1.570,-0.925,-0.297
1606940274979753216,pose_received,1606940274979069122,-1.570,-0.070,0.645,-1.570,-0.925,-0.297
1606940275000720640,pose_received,1606940274999072008,-1.570,-0.070,0.645,-1.570,-0.925,-0.297
1606940275019964416,pose_received,1606940275019076394,-1.570,-0.070,0.680,-1.570,-0.890,-0.297
1606940275039713024,pose_received,1606940275039074980,-1.570,-0.070,0.680,-1.570,-0.890,-0.297
1606940275059985408,pose_received,1606940275059067566,-1.570,-0.070,0.680,-1.570,-0.890,-0.297
1606940275080069888,pose_received,1606940275079073152,-1.570,-0.082,0.705,-1.570,-0.865,-0.297
1606940275100014336,pose_received,1606940275099068538,-1.570,-0.087,0.715,-1.570,-0.855,-0.297
1606940275119760640,pose_received,1606940275119078124,-1.570,-0.087,0.715,-1.570,-0.855,-0.297
1606940275139673600,pose_received,1606940275139155709,-1.570,-0.087,0.715,-1.570,-0.855,-0.297
1606940275159935488,pose_received,1606940275159069496,-1.570,-0.087,0.733,-1.570,-0.837,-0.297
1606940275182189312,pose_received,1606940275181585967,-1.570,-0.087,0.733,-1.570,-0.837,-0.297
1606940275200156160,pose_received,1606940275199076668,-1.570,-0.103,0.779,-1.570,-0.791,-0.297
1606940275219880192,pose_received,1606940275219069554,-1.570,-0.105,0.785,-1.570,-0.785,-0.297
1606940275239791104,pose_received,1606940275239081940,-1.570,-0.105,0.785,-1.570,-0.785,-0.297
1606940275259595008,pose_received,1606940275259056026,-1.570,-0.114,0.795,-1.570,-0.775,-0.297
1606940275279999488,pose_received,1606940275279073212,-1.570,-0.122,0.802,-1.570,-0.768,-0.297
1606940275299802880,pose_received,1606940275299070898,-1.570,-0.122,0.802,-1.570,-0.768,-0.297
1606940275319868160,pose_received,1606940275319279882,-1.570,-0.122,0.802,-1.570,-0.768,-0.297
1606940275340025344,pose_received,1606940275339070270,-1.570,-0.140,0.872,-1.570,-0.698,-0.297
1606940275359684096,pose_received,1606940275359073555,-1.570,-0.140,0.872,-1.570,-0.698,-0.297
1606940275380497920,pose_received,1606940275379196841,-1.570,-0.140,0.872,-1.570,-0.698,-0.297
1606940275403472896,pose_received,1606940275401511514,-1.570,-0.140,0.872,-1.570,-0.698,-0.297
1606940275419815936,pose_received,1606940275419070313,-1.570,-0.174,0.959,-1.570,-0.611,-0.297
1606940275439860992,pose_received,1606940275439072699,-1.570,-0.174,0.959,-1.570,-0.611,-0.297
1606940275459751168,pose_received,1606940275459091585,-1.570,-0.174,0.959,-1.570,-0.611,-0.297
1606940275480034560,pose_received,1606940275479070771,-1.570,-0.174,0.959,-1.570,-0.611,-0.297
1606940275499703808,pose_received,1606940275499071257,-1.570,-0.159,0.991,-1.570,-0.579,-0.297
1606940275520854016,pose_received,1606940275519763839,-1.570,-0.157,0.994,-1.570,-0.576,-0.297
1606940275539972352,pose_received,1606940275539075729,-1.570,-0.157,0.994,-1.570,-0.576,-0.297
1606940275559893760,pose_received,1606940275559071015,-1.570,-0.157,1.029,-1.570,-0.541,-0.297
1606940275579809792,pose_received,1606940275579072601,-1.570,-0.157,1.029,-1.570,-0.541,-0.297
1606940275600618496,pose_received,1606940275599082087,-1.570,-0.157,1.044,-1.570,-0.526,-0.297
1606940275620494080,pose_received,1606940275619365072,-1.570,-0.157,1.047,-1.570,-0.523,-0.297
1606940275641971200,pose_received,1606940275639062559,-1.570,-0.157,1.047,-1.570,-0.523,-0.297
1606940275659824128,pose_received,1606940275659072345,-1.570,-0.122,1.029,-1.570,-0.541,-0.297
1606940275680032512,pose_received,1606940275679070231,-1.570,-0.122,1.029,-1.570,-0.541,-0.297
1606940275700204288,pose_received,1606940275699072117,-1.570,-0.122,1.059,-1.570,-0.511,-0.297
1606940275720293888,pose_received,1606940275719072503,-1.570,-0.122,1.064,-1.570,-0.506,-0.297
1606940275739809280,pose_received,1606940275739073589,-1.570,-0.122,1.064,-1.570,-0.506,-0.297
1606940275759660800,pose_received,1606940275759073875,-1.570,-0.074,1.035,-1.570,-0.535,-0.297
1606940275779643136,pose_received,1606940275779069361,-1.570,-0.035,1.012,-1.570,-0.558,-0.297
1606940275799893760,pose_received,1606940275799076647,-1.570,-0.035,1.012,-1.570,-0.558,-0.297
1606940275820327424,pose_received,1606940275819093933,-1.570,-0.035,1.029,-1.570,-0.541,-0.297
1606940275849750272,pose_received,1606940275849071262,-1.570,-0.035,1.029,-1.570,-0.541,-0.297
1606940275860450304,pose_received,1606940275859309704,-1.570,-0.035,1.029,-1.570,-0.541,-0.297
1606940275879676160,pose_received,1606940275879083291,-1.570,-0.035,1.029,-1.570,-0.541,-0.297
1606940275899947008,pose_received,1606940275899072577,-1.570,-0.035,1.060,-1.570,-0.510,-0.297
1606940275920672512,pose_received,1606940275919750259,-1.570,-0.035,1.064,-1.570,-0.506,-0.297
1606940275939942912,pose_received,1606940275939071649,-1.570,-0.035,1.064,-1.570,-0.506,-0.297
1606940275959713024,pose_received,1606940275959074235,-1.570,-0.035,1.082,-1.570,-0.488,-0.297
1606940275979959552,pose_received,1606940275979072121,-1.570,-0.035,1.082,-1.570,-0.488,-0.297
1606940276000097792,pose_received,1606940275999069007,-1.570,-0.022,1.094,-1.570,-0.476,-0.297
1606940276019653120,pose_received,1606940276019071193,-1.570,-0.017,1.099,-1.570,-0.471,-0.297
1606940276049878272,pose_received,1606940276049070622,-1.570,-0.017,1.099,-1.570,-0.471,-0.297
1606940276059885568,pose_received,1606940276059072165,-1.570,-0.017,1.099,-1.570,-0.471,-0.297
1606940276079657216,pose_received,1606940276079071351,-1.570,-0.030,1.136,-1.570,-0.434,-0.297
1606940276099742720,pose_received,1606940276099286836,-1.570,-0.035,1.151,-1.570,-0.419,-0.297
1606940276120773376,pose_received,1606940276119175523,-1.570,-0.035,1.151,-1.570,-0.419,-0.297
1606940276139694080,pose_received,1606940276139069009,-1.570,-0.052,1.204,-1.570,-0.366,-0.297
1606940276159790336,pose_received,1606940276159071995,-1.570,-0.052,1.204,-1.570,-0.366,-0.297
1606940276180028416,pose_received,1606940276179070882,-1.570,-0.028,1.179,-1.570,-0.391,-0.297
1606940276199927552,pose_received,1606940276199070368,-1.570,-0.017,1.169,-1.570,-0.401,-0.297
1606940276220386048,pose_received,1606940276219698850,-1.570,-0.017,1.169,-1.570,-0.401,-0.297
1606940276239753472,pose_received,1606940276239071640,-1.570,-0.017,1.169,-1.570,-0.401,-0.297
1606940276259915008,pose_received,1606940276259069026,-1.570,-0.017,1.186,-1.570,-0.384,-0.297
1606940276279732736,pose_received,1606940276279071412,-1.570,-0.017,1.186,-1.570,-0.384,-0.297
1606940276301082880,pose_received,1606940276299069798,-1.570,-0.017,1.186,-1.570,-0.384,-0.297
1606940276320355072,pose_received,1606940276319072184,-1.570,0.000,1.204,-1.570,-0.366,-0.297
1606940276339924224,pose_received,1606940276339074970,-1.570,0.000,1.204,-1.570,-0.366,-0.297
1606940276369929984,pose_received,1606940276369072299,-1.570,0.052,1.186,-1.570,-0.384,-0.297
1606940276379558144,pose_received,1606940276379072742,-1.570,0.052,1.186,-1.570,-0.384,-0.297
1606940276400491520,pose_received,1606940276399073128,-1.570,0.052,1.186,-1.570,-0.384,-0.297
1606940276420185088,pose_received,1606940276419055315,-1.570,0.070,1.186,-1.570,-0.384,-0.297
1606940276440165120,pose_received,1606940276439052701,-1.570,0.070,1.186,-1.570,-0.384,-0.297
1606940276460090112,pose_received,1606940276459069987,-1.570,0.070,1.186,-1.570,-0.384,-0.297
1606940276480339712,pose_received,1606940276479077473,-1.570,0.070,1.186,-1.570,-0.384,-0.297
1606940276500322048,pose_received,1606940276499077659,-1.570,0.070,1.186,-1.570,-0.384,-0.297
1606940276520003840,pose_received,1606940276519073645,-1.570,0.105,1.221,-1.570,-0.349,-0.297
1606940276539978496,pose_received,1606940276539072431,-1.570,0.105,1.221,-1.570,-0.349,-0.297
1606940276559728128,pose_received,1606940276559069517,-1.570,0.105,1.221,-1.570,-0.349,-0.297
1606940276580102912,pose_received,1606940276579072403,-1.570,0.105,1.221,-1.570,-0.349,-0.297
1606940276599662592,pose_received,1606940276599087489,-1.570,0.119,1.221,-1.570,-0.349,-0.297
1606940276619998464,pose_received,1606940276619071975,-1.570,0.122,1.221,-1.570,-0.349,-0.297
1606940276639834880,pose_received,1606940276639071062,-1.570,0.122,1.221,-1.570,-0.349,-0.297
1606940276660299776,pose_received,1606940276659073848,-1.570,0.122,1.221,-1.570,-0.349,-0.297
1606940276680150016,pose_received,1606940276679073734,-1.570,0.122,1.221,-1.570,-0.349,-0.297
1606940276700053504,pose_received,1606940276699073620,-1.570,0.122,1.237,-1.570,-0.333,-0.297
1606940276720852736,pose_received,1606940276720096800,-1.570,0.122,1.239,-1.570,-0.331,-0.297
1606940276739939584,pose_received,1606940276739070492,-1.570,0.122,1.239,-1.570,-0.331,-0.297
1606940276759904768,pose_received,1606940276759069978,-1.570,0.000,1.396,-1.570,-0.174,-0.297
1606940276779936768,pose_received,1606940276779068464,-1.570,0.000,1.396,-1.570,-0.174,-0.297
1606940276799678464,pose_received,1606940276799069650,-1.570,0.000,1.396,-1.570,-0.174,-0.297
1606940276820311040,pose_received,1606940276819208036,-1.570,0.000,1.396,-1.570,-0.174,-0.297
1606940276840155392,pose_received,1606940276839090722,-1.570,0.035,1.378,-1.570,-0.192,-0.297
1606940276859967232,pose_received,1606940276859069908,-1.570,0.035,1.378,-1.570,-0.192,-0.297
1606940276880083200,pose_received,1606940276879069095,-1.570,0.035,1.378,-1.570,-0.192,-0.297
1606940276899722496,pose_received,1606940276899071481,-1.570,0.035,1.378,-1.570,-0.192,-0.297
1606940276920129280,pose_received,1606940276919055367,-1.570,0.035,1.378,-1.570,-0.192,-0.297
1606940276939942400,pose_received,1606940276939070553,-1.570,0.035,1.378,-1.570,-0.192,-0.297
1606940276959961856,pose_received,1606940276959070539,-1.570,0.035,1.378,-1.570,-0.192,-0.297
1606940276993091840,pose_received,1606940276989071868,-1.570,0.035,1.378,-1.570,-0.192,-0.297
1606940276999870208,pose_received,1606940276999076411,-1.570,0.035,1.378,-1.570,-0.192,-0.297
1606940277029586688,pose_received,1606940277029069340,-1.570,0.035,1.378,-1.570,-0.192,-0.297
1606940277039601152,pose_received,1606940277039065383,-1.570,0.035,1.378,-1.570,-0.192,-0.297
1606940277059694848,pose_received,1606940277059069670,-1.570,0.035,1.378,-1.570,-0.192,-0.297
1606940277079814400,pose_received,1606940277079070456,-1.570,0.035,1.378,-1.570,-0.192,-0.297
1606940277100147456,pose_received,1606940277099136042,-1.570,0.035,1.378,-1.570,-0.192,-0.297
1606940277119649536,pose_received,1606940277119073328,-1.570,0.035,1.378,-1.570,-0.192,-0.297
1606940277139630336,pose_received,1606940277139069714,-1.570,0.035,1.378,-1.570,-0.192,-0.297
1606940277159985920,pose_received,1606940277159072701,-1.570,0.035,1.378,-1.570,-0.192,-0.297
1606940277180047616,pose_received,1606940277179084187,-1.570,0.035,1.378,-1.570,-0.192,-0.297
1606940277199916544,pose_received,1606940277199071273,-1.570,0.035,1.378,-1.570,-0.192,-0.297
1606940277220015872,pose_received,1606940277219072259,-1.570,0.035,1.378,-1.570,-0.192,-0.297
1606940277240081664,pose_received,1606940277239435143,-1.570,0.035,1.378,-1.570,-0.192,-0.297
1606940277259853056,pose_received,1606940277259070932,-1.570,0.035,1.378,-1.570,-0.192,-0.297
1606940277279866880,pose_received,1606940277279069618,-1.570,0.035,1.378,-1.570,-0.192,-0.297
1606940277299778304,pose_received,1606940277299068804,-1.570,0.035,1.378,-1.570,-0.192,-0.297
1606940277319716096,pose_received,1606940277319072490,-1.570,0.035,1.378,-1.570,-0.192,-0.297
1606940277339564800,pose_received,1606940277339070176,-1.570,0.035,1.378,-1.570,-0.192,-0.297
1606940277360030464,pose_received,1606940277359071963,-1.570,0.035,1.378,-1.570,-0.192,-0.297
1606940277379856640,pose_received,1606940277379070349,-1.570,0.035,1.378,-1.570,-0.192,-0.297
1606940277400117504,pose_received,1606940277399057135,-1.570,0.035,1.378,-1.570,-0.192,-0.297
1606940277420243456,pose_received,1606940277419071621,-1.570,0.035,1.378,-1.570,-0.192,-0.297
1606940277440088576,pose_received,1606940277439067707,-1.570,0.035,1.378,-1.570,-0.192,-0.297
1606940277459999232,pose_received,1606940277459070994,-1.570,0.035,1.378,-1.570,-0.192,-0.297
1606940277480216320,pose_received,1606940277479114379,-1.570,0.035,1.378,-1.570,-0.192,-0.297
1606940277499628544,pose_received,1606940277499071766,-1.570,0.035,1.378,-1.570,-0.192,-0.297
1606940277520103424,pose_received,1606940277519073152,-1.570,0.035,1.378,-1.570,-0.192,-0.297
1606940277539578112,pose_received,1606940277539070038,-1.570,0.035,1.378,-1.570,-0.192,-0.297
1606940277560126464,pose_received,1606940277559068225,-1.570,0.035,1.378,-1.570,-0.192,-0.297
1606940277579894016,pose_received,1606940277579071411,-1.570,0.035,1.378,-1.570,-0.192,-0.297
1606940277599684096,pose_received,1606940277599077997,-1.570,0.035,1.378,-1.570,-0.192,-0.297
1606940277619935232,pose_received,1606940277619073883,-1.570,0.035,1.378,-1.570,-0.192,-0.297
1606940277639947264,pose_received,1606940277639070069,-1.570,0.035,1.378,-1.570,-0.192,-0.297
1606940277659992064,pose_received,1606940277659070355,-1.570,0.035,1.378,-1.570,-0.192,-0.297
1606940277690052864,pose_received,1606940277689070785,-1.570,0.035,1.378,-1.570,-0.192,-0.297
1606940277700000512,pose_received,1606940277699069528,-1.570,0.035,1.378,-1.570,-0.192,-0.297
1606940277720329216,pose_received,1606940277719160314,-1.570,0.035,1.378,-1.570,-0.192,-0.297
1606940277739763968,pose_received,1606940277739072700,-1.570,0.035,1.378,-1.570,-0.192,-0.297
1606940277771187456,pose_received,1606940277769077429,-1.570,0.035,1.378,-1.570,-0.192,-0.297
1606940277780726272,pose_received,1606940277779063773,-1.570,0.035,1.378,-1.570,-0.192,-0.297
1606940277799664896,pose_received,1606940277799071459,-1.570,0.035,1.378,-1.570,-0.192,-0.297
1606940277819777536,pose_received,1606940277819071145,-1.570,0.035,1.378,-1.570,-0.192,-0.297
1606940277839676928,pose_received,1606940277839069331,-1.570,0.035,1.378,-1.570,-0.192,-0.297
1606940277859669504,pose_received,1606940277859069717,-1.570,0.035,1.378,-1.570,-0.192,-0.297
1606940277879723520,pose_received,1606940277879073804,-1.570,0.035,1.378,-1.570,-0.192,-0.297
1606940277899792128,pose_received,1606940277899159589,-1.570,0.035,1.378,-1.570,-0.192,-0.297
1606940277919855104,pose_received,1606940277919070676,-1.570,0.035,1.378,-1.570,-0.192,-0.297
1606940277939818240,pose_received,1606940277939080462,-1.570,0.035,1.378,-1.570,-0.192,-0.297
1606940277960152832,pose_received,1606940277959070748,-1.570,0.035,1.378,-1.570,-0.192,-0.297
1606940277979710720,pose_received,1606940277979073935,-1.570,0.035,1.378,-1.570,-0.192,-0.297
1606940277999932416,pose_received,1606940277999072821,-1.570,0.035,1.378,-1.570,-0.192,-0.297
1606940278020030720,pose_received,1606940278019113507,-1.570,0.035,1.378,-1.570,-0.192,-0.297
1606940278039749888,pose_received,1606940278039075293,-1.570,0.035,1.378,-1.570,-0.192,-0.297
1606940278060000000,pose_received,1606940278059069080,-1.570,0.035,1.378,-1.570,-0.192,-0.297
1606940278079661568,pose_received,1606940278079067566,-1.570,0.035,1.378,-1.570,-0.192,-0.297
1606940278099901440,pose_received,1606940278099069452,-1.570,0.035,1.378,-1.570,-0.192,-0.297
1606940278119719168,pose_received,1606940278119069639,-1.570,0.035,1.378,-1.570,-0.192,-0.297
1606940278139821312,pose_received,1606940278139072625,-1.570,0.035,1.378,-1.570,-0.192,-0.297
1606940278159870208,pose_received,1606940278159068511,-1.570,0.035,1.378,-1.570,-0.192,-0.297
1606940278179644672,pose_received,1606940278179067497,-1.570,0.035,1.378,-1.570,-0.192,-0.297
1606940278199671040,pose_received,1606940278199070484,-1.570,0.035,1.378,-1.570,-0.192,-0.297
1606940278219631872,pose_received,1606940278219073270,-1.570,0.035,1.378,-1.570,-0.192,-0.297
1606940278240081920,pose_received,1606940278239070356,-1.570,0.035,1.378,-1.570,-0.192,-0.297
1606940278260089088,pose_received,1606940278259084043,-1.570,0.035,1.378,-1.570,-0.192,-0.297
1606940278280056832,pose_received,1606940278279068829,-1.570,0.035,1.378,-1.570,-0.192,-0.297
1606940278299640320,pose_received,1606940278299114615,-1.570,0.035,1.378,-1.570,-0.192,-0.297
1606940278319760128,pose_received,1606940278319071502,-1.570,0.035,1.378,-1.570,-0.192,-0.297
1606940278339715840,pose_received,1606940278339071288,-1.570,0.035,1.378,-1.570,-0.192,-0.297
1606940278359991040,pose_received,1606940278359070374,-1.570,0.035,1.378,-1.570,-0.192,-0.297
1606940278389982208,pose_received,1606940278389071504,-1.570,0.035,1.378,-1.570,-0.192,-0.297
1606940278399792896,pose_received,1606940278399073947,-1.570,0.035,1.378,-1.570,-0.192,-0.297
1606940278419579904,pose_received,1606940278419071333,-1.570,0.035,1.378,-1.570,-0.192,-0.297
1606940278439743488,pose_received,1606940278439070519,-1.570,0.035,1.378,-1.570,-0.192,-0.297
1606940278470086144,pose_received,1606940278469079949,-1.570,0.035,1.378,-1.570,-0.192,-0.297
1606940278479733504,pose_received,1606940278479070792,-1.570,0.035,1.378,-1.570,-0.192,-0.297
1606940278499960064,pose_received,1606940278499070078,-1.570,0.035,1.378,-1.570,-0.192,-0.297
1606940278520106240,pose_received,1606940278519070765,-1.570,0.035,1.378,-1.570,-0.192,-0.297
1606940278540055808,pose_received,1606940278539070351,-1.570,0.035,1.378,-1.570,-0.192,-0.297
1606940278560498688,pose_received,1606940278559231336,-1.570,0.035,1.378,-1.570,-0.192,-0.297
1606940278589928704,pose_received,1606940278589068467,-1.570,0.035,1.378,-1.570,-0.192,-0.297
1606940278600196608,pose_received,1606940278599093810,-1.570,0.035,1.378,-1.570,-0.192,-0.297
1606940278620545280,pose_received,1606940278619723992,-1.570,0.035,1.378,-1.570,-0.192,-0.297
1606940278639940352,pose_received,1606940278639068582,-1.570,0.035,1.378,-1.570,-0.192,-0.297
1606940278660231680,pose_received,1606940278659070469,-1.570,0.035,1.378,-1.570,-0.192,-0.297
1606940278682090752,pose_received,1606940278681430342,-1.570,0.034,1.338,-1.570,-0.232,-0.297
1606940278700703488,pose_received,1606940278699889637,-1.570,0.000,0.000,-1.570,-1.570,-0.297
1606940278719685888,pose_received,1606940278719088128,-1.570,0.000,0.000,-1.570,-1.570,-0.297
1606940278739598848,pose_received,1606940278739072914,-1.570,0.000,0.000,-1.570,-1.570,-0.297
1606940278760156416,pose_received,1606940278759068900,-1.570,0.000,0.000,-1.570,-1.570,-0.297
1606940278779839488,pose_received,1606940278779071987,-1.570,0.000,0.000,-1.570,-1.570,-0.297
1606940278800271872,pose_received,1606940278799180072,-1.570,0.000,0.000,-1.570,-1.570,-0.297
1606940278819981056,pose_received,1606940278819087859,-1.570,0.000,0.000,-1.570,-1.570,-0.297
1606940278849936128,pose_received,1606940278849069789,-1.570,0.000,0.000,-1.570,-1.570,-0.297
1606940278859808256,pose_received,1606940278859075932,-1.570,0.000,0.000,-1.570,-1.570,-0.297
1606940278879957760,pose_received,1606940278879081218,-1.570,0.000,0.000,-1.570,-1.570,-0.297
1606940278900047872,pose_received,1606940278899397603,-1.570,0.000,0.000,-1.570,-1.570,-0.297
1606940278920170496,pose_received,1606940278919079791,-1.570,0.000,0.000,-1.570,-1.570,-0.297
1606940278939888384,pose_received,1606940278939071677,-1.570,0.000,0.000,-1.570,-1.570,-0.297
1606940278960058624,pose_received,1606940278959068463,-1.570,0.000,0.000,-1.570,-1.570,-0.297
1606940278979808000,pose_received,1606940278979072350,-1.570,0.000,0.000,-1.570,-1.570,-0.297
1606940278999972864,pose_received,1606940278999068836,-1.570,0.000,0.000,-1.570,-1.570,-0.297
1606940279020034048,pose_received,1606940279019072122,-1.570,0.000,0.000,-1.570,-1.570,-0.297
1606940279039798528,pose_received,1606940279039078209,-1.570,0.000,0.000,-1.570,-1.570,-0.297
1606940279069610240,pose_received,1606940279069070038,-1.570,0.000,0.000,-1.570,-1.570,-0.297
1606940279079702016,pose_received,1606940279079076181,-1.570,0.000,0.000,-1.570,-1.570,-0.297
1606940279100080128,pose_received,1606940279099073968,-1.570,0.000,0.000,-1.570,-1.570,-0.297
1606940279119714560,pose_received,1606940279119071354,-1.570,0.000,0.000,-1.570,-1.570,-0.297
1606940279139557632,pose_received,1606940279139073041,-1.570,0.000,0.000,-1.570,-1.570,-0.297
1606940279159819520,pose_received,1606940279159070427,-1.570,0.000,0.000,-1.570,-1.570,-0.297
1606940279180062208,pose_received,1606940279179073814,-1.570,0.000,0.000,-1.570,-1.570,-0.297
1606940279199729408,pose_received,1606940279199071800,-1.570,0.000,0.000,-1.570,-1.570,-0.297
1606940279220186368,pose_received,1606940279219071786,-1.570,0.000,0.000,-1.570,-1.570,-0.297
1606940279239898368,pose_received,1606940279239101173,-1.570,0.000,0.000,-1.570,-1.570,-0.297
1606940279259690496,pose_received,1606940279259087559,-1.570,0.000,0.000,-1.570,-1.570,-0.297
1606940279279682560,pose_received,1606940279279079446,-1.570,0.000,0.000,-1.570,-1.570,-0.297
1606940279299697152,pose_received,1606940279299072532,-1.570,0.000,0.000,-1.570,-1.570,-0.297
1606940279329620224,pose_received,1606940279329072162,-1.570,0.000,0.000,-1.570,-1.570,-0.297
1606940279340496128,pose_received,1606940279339220604,-1.570,0.000,0.000,-1.570,-1.570,-0.297
1606940279360065280,pose_received,1606940279359071891,-1.570,0.000,0.000,-1.570,-1.570,-0.297
1606940279379968000,pose_received,1606940279379069878,-1.570,0.000,0.000,-1.570,-1.570,-0.297
1606940279399911424,pose_received,1606940279399164864,-1.570,0.000,0.000,-1.570,-1.570,-0.297
1606940279419683840,pose_received,1606940279419071350,-1.570,0.000,0.000,-1.570,-1.570,-0.297
1606940279439944704,pose_received,1606940279439069637,-1.570,0.000,0.000,-1.570,-1.570,-0.297
1606940279460008960,pose_received,1606940279459069223,-1.570,0.000,0.000,-1.570,-1.570,-0.297
1606940279479596032,pose_received,1606940279479069010,-1.570,0.000,0.000,-1.570,-1.570,-0.297
1606940279499696640,pose_received,1606940279499071296,-1.570,0.000,0.000,-1.570,-1.570,-0.297
1606940279520102400,pose_received,1606940279519066883,-1.570,0.000,0.000,-1.570,-1.570,-0.297
1606940279539773184,pose_received,1606940279539072169,-1.570,0.000,0.000,-1.570,-1.570,-0.297
1606940279560019456,pose_received,1606940279559071155,-1.570,0.000,0.000,-1.570,-1.570,-0.297
1606940279580073216,pose_received,1606940279579121341,-1.570,0.000,0.000,-1.570,-1.570,-0.297
1606940279599804928,pose_received,1606940279599083228,-1.570,0.000,0.000,-1.570,-1.570,-0.297
1606940279620054272,pose_received,1606940279619115214,-1.570,0.000,0.000,-1.570,-1.570,-0.297
1606940279639899648,pose_received,1606940279639069501,-1.570,0.000,0.000,-1.570,-1.570,-0.297
1606940279660077056,pose_received,1606940279659065787,-1.570,0.000,0.000,-1.570,-1.570,-0.297
1606940279679780352,pose_received,1606940279679070774,-1.570,0.000,0.000,-1.570,-1.570,-0.297
1606940279699912448,pose_received,1606940279699073160,-1.570,0.000,0.000,-1.570,-1.570,-0.297
1606940279719770624,pose_received,1606940279719070147,-1.570,0.000,0.000,-1.570,-1.570,-0.297
1606940279740077568,pose_received,1606940279739052433,-1.570,0.000,0.000,-1.570,-1.570,-0.297
1606940279760214016,pose_received,1606940279759071919,-1.570,0.000,0.000,-1.570,-1.570,-0.297
1606940279779685376,pose_received,1606940279779069806,-1.570,0.000,0.000,-1.570,-1.570,-0.297
1606940279799917824,pose_received,1606940279799071092,-1.570,0.000,0.000,-1.570,-1.570,-0.297
1606940279819849728,pose_received,1606940279819073679,-1.570,0.000,0.000,-1.570,-1.570,-0.297
1606940279840042496,pose_received,1606940279839069265,-1.570,0.000,0.000,-1.570,-1.570,-0.297
1606940279859963392,pose_received,1606940279859070352,-1.570,0.000,0.000,-1.570,-1.570,-0.297
1606940279879907072,pose_received,1606940279879071238,-1.570,0.000,0.000,-1.570,-1.570,-0.297
1606940279899915776,pose_received,1606940279899434922,-1.570,0.000,0.000,-1.570,-1.570,-0.297
1606940279921144320,pose_received,1606940279919072211,-1.570,0.070,0.070,-1.570,-1.500,-0.297
1606940279940058624,pose_received,1606940279939069297,-1.570,0.060,0.080,-1.570,-1.490,-0.297
1606940279960401664,pose_received,1606940279959077184,-1.570,0.052,0.087,-1.570,-1.483,-0.297
1606940279979903232,pose_received,1606940279979070870,-1.570,0.052,0.087,-1.570,-1.483,-0.297
1606940279999965952,pose_received,1606940279999074656,-1.570,0.052,0.088,-1.570,-1.482,-0.297
1606940280020326912,pose_received,1606940280019666740,-1.570,0.035,0.105,-1.570,-1.465,-0.297
1606940280040069120,pose_received,1606940280039068329,-1.570,0.035,0.105,-1.570,-1.465,-0.297
1606940280059706624,pose_received,1606940280059075416,-1.570,0.035,0.105,-1.570,-1.465,-0.297
1606940280079719936,pose_received,1606940280079073502,-1.570,0.019,0.186,-1.570,-1.384,-0.297
1606940280099736064,pose_received,1606940280099071789,-1.570,0.017,0.192,-1.570,-1.378,-0.297
1606940280119793408,pose_received,1606940280119074175,-1.570,0.017,0.192,-1.570,-1.378,-0.297
1606940280149740800,pose_received,1606940280149070305,-1.570,-0.017,0.227,-1.570,-1.343,-0.297
1606940280159650560,pose_received,1606940280159071149,-1.570,-0.017,0.227,-1.570,-1.343,-0.297
1606940280179859968,pose_received,1606940280179072335,-1.570,-0.017,0.227,-1.570,-1.343,-0.297
1606940280200008192,pose_received,1606940280199070722,-1.570,-0.035,0.279,-1.570,-1.291,-0.297
1606940280219844096,pose_received,1606940280219074008,-1.570,-0.035,0.279,-1.570,-1.291,-0.297
1606940280239666176,pose_received,1606940280239074395,-1.570,-0.035,0.289,-1.570,-1.281,-0.297
1606940280260001792,pose_received,1606940280259072681,-1.570,-0.035,0.297,-1.570,-1.273,-0.297
1606940280280052480,pose_received,1606940280279070668,-1.570,-0.035,0.297,-1.570,-1.273,-0.297
1606940280299980544,pose_received,1606940280299281753,-1.570,-0.035,0.297,-1.570,-1.273,-0.297
1606940280319812352,pose_received,1606940280319070541,-1.570,-0.070,0.349,-1.570,-1.221,-0.297
1606940280339823360,pose_received,1606940280339072627,-1.570,-0.070,0.349,-1.570,-1.221,-0.297
1606940280360078592,pose_received,1606940280359081314,-1.570,-0.082,0.374,-1.570,-1.196,-0.297
1606940280380205568,pose_received,1606940280379074200,-1.570,-0.087,0.384,-1.570,-1.186,-0.297
1606940280400112128,pose_received,1606940280399077187,-1.570,-0.087,0.384,-1.570,-1.186,-0.297
1606940280419962624,pose_received,1606940280419069373,-1.570,-0.105,0.436,-1.570,-1.134,-0.297
1606940280439936000,pose_received,1606940280439071660,-1.570,-0.105,0.436,-1.570,-1.134,-0.297
1606940280459840512,pose_received,1606940280459071146,-1.570,-0.116,0.460,-1.570,-1.110,-0.297
1606940280479923712,pose_received,1606940280479200432,-1.570,-0.122,0.471,-1.570,-1.099,-0.297
1606940280499865344,pose_received,1606940280499080019,-1.570,-0.122,0.471,-1.570,-1.099,-0.297
1606940280519733504,pose_received,1606940280519070206,-1.570,-0.122,0.523,-1.570,-1.047,-0.297
1606940280539811072,pose_received,1606940280539070792,-1.570,-0.122,0.523,-1.570,-1.047,-0.297
1606940280559747072,pose_received,1606940280559071179,-1.570,-0.122,0.523,-1.570,-1.047,-0.297
1606940280579826688,pose_received,1606940280579070665,-1.570,-0.122,0.540,-1.570,-1.030,-0.297
1606940280600123136,pose_received,1606940280599519249,-1.570,-0.122,0.541,-1.570,-1.029,-0.297
1606940280620100352,pose_received,1606940280619543736,-1.570,-0.122,0.541,-1.570,-1.029,-0.297
1606940280639881216,pose_received,1606940280639072525,-1.570,-0.140,0.576,-1.570,-0.994,-0.297
1606940280659832576,pose_received,1606940280659122711,-1.570,-0.140,0.576,-1.570,-0.994,-0.297
1606940280683652096,pose_received,1606940280681537884,-1.570,-0.140,0.576,-1.570,-0.994,-0.297
1606940280699757568,pose_received,1606940280699071284,-1.570,-0.140,0.611,-1.570,-0.959,-0.297
1606940280719623936,pose_received,1606940280719076771,-1.570,-0.140,0.611,-1.570,-0.959,-0.297
1606940280740192512,pose_received,1606940280739069558,-1.570,-0.130,0.620,-1.570,-0.950,-0.297
1606940280759586816,pose_received,1606940280759073644,-1.570,-0.122,0.628,-1.570,-0.942,-0.297
1606940280780607744,pose_received,1606940280779929526,-1.570,-0.122,0.628,-1.570,-0.942,-0.297
1606940280799928320,pose_received,1606940280799070317,-1.570,-0.122,0.680,-1.570,-0.890,-0.297
1606940280819863552,pose_received,1606940280819068704,-1.570,-0.122,0.680,-1.570,-0.890,-0.297
1606940280839827968,pose_received,1606940280839074290,-1.570,-0.132,0.690,-1.570,-0.880,-0.297
1606940280869629184,pose_received,1606940280869070820,-1.570,-0.140,0.698,-1.570,-0.872,-0.297
1606940280879794688,pose_received,1606940280879068963,-1.570,-0.140,0.698,-1.570,-0.872,-0.297
1606940280900187904,pose_received,1606940280899183749,-1.570,-0.140,0.698,-1.570,-0.872,-0.297
1606940280919774976,pose_received,1606940280919072436,-1.570,-0.140,0.733,-1.570,-0.837,-0.297
1606940280939868416,pose_received,1606940280939068523,-1.570,-0.140,0.733,-1.570,-0.837,-0.297
1606940280959607040,pose_received,1606940280959071009,-1.570,-0.152,0.757,-1.570,-0.813,-0.297
1606940280980133376,pose_received,1606940280979071796,-1.570,-0.157,0.768,-1.570,-0.802,-0.297
1606940280999932928,pose_received,1606940280999080882,-1.570,-0.157,0.768,-1.570,-0.802,-0.297
1606940281020143360,pose_received,1606940281019072669,-1.570,-0.157,0.768,-1.570,-0.802,-0.297
1606940281040002816,pose_received,1606940281039069555,-1.570,-0.140,0.785,-1.570,-0.785,-0.297
1606940281062020608,pose_received,1606940281059075742,-1.570,-0.140,0.785,-1.570,-0.785,-0.297
1606940281080056576,pose_received,1606940281079073029,-1.570,-0.125,0.815,-1.570,-0.755,-0.297
1606940281099919872,pose_received,1606940281099072115,-1.570,-0.122,0.820,-1.570,-0.750,-0.297
1606940281119812352,pose_received,1606940281119084902,-1.570,-0.122,0.820,-1.570,-0.750,-0.297
1606940281150693376,pose_received,1606940281149072032,-1.570,-0.122,0.820,-1.570,-0.750,-0.297
1606940281159948544,pose_received,1606940281159073775,-1.570,-0.135,0.845,-1.570,-0.725,-0.297
1606940281179649536,pose_received,1606940281179071062,-1.570,-0.140,0.855,-1.570,-0.715,-0.297
1606940281199982336,pose_received,1606940281199405747,-1.570,-0.140,0.855,-1.570,-0.715,-0.297
1606940281220102912,pose_received,1606940281219071135,-1.570,-0.140,0.890,-1.570,-0.680,-0.297
1606940281240074240,pose_received,1606940281239067822,-1.570,-0.140,0.890,-1.570,-0.680,-0.297
