milangroshev/niryo-one-datasets/digital-twin-remote-control/movement3-20-times.csv
timestamp,event,hw_timestamp,joint_1,joint_2,joint_3,joint_4,joint_5,joint_6
1606940421006005760,pose_received,1606940421004797112,-1.570,-0.017,0.035,-1.570,-1.535,-0.297
1606940421025641216,pose_received,1606940421024796110,-1.570,-0.017,0.035,-1.570,-1.535,-0.297
1606940421045902080,pose_received,1606940421044787108,-1.570,-0.017,0.035,-1.570,-1.535,-0.297
1606940421065983488,pose_received,1606940421064783406,-1.570,-0.017,0.035,-1.570,-1.535,-0.297
1606940421086005760,pose_received,1606940421085018203,-1.570,-0.017,0.035,-1.570,-1.535,-0.297
1606940421105369600,pose_received,1606940421104797902,-1.570,-0.017,0.035,-1.570,-1.535,-0.297
1606940421125493760,pose_received,1606940421124797701,-1.570,-0.017,0.035,-1.570,-1.535,-0.297
1606940421145924608,pose_received,1606940421144796599,-1.570,-0.017,0.035,-1.570,-1.535,-0.297
1606940421165918976,pose_received,1606940421164792097,-1.570,-0.017,0.035,-1.570,-1.535,-0.297
1606940421185912320,pose_received,1606940421184836795,-1.570,-0.017,0.035,-1.570,-1.535,-0.297
1606940421206073344,pose_received,1606940421204796893,-1.570,-0.017,0.035,-1.570,-1.535,-0.297
1606940421225710080,pose_received,1606940421224799991,-1.570,-0.017,0.035,-1.570,-1.535,-0.297
1606940421245490176,pose_received,1606940421244796989,-1.570,-0.017,0.035,-1.570,-1.535,-0.297
1606940421265922304,pose_received,1606940421264792487,-1.570,-0.017,0.035,-1.570,-1.535,-0.297
1606940421286517504,pose_received,1606940421285408882,-1.570,-0.017,0.035,-1.570,-1.535,-0.297
1606940421305768192,pose_received,1606940421304859583,-1.570,-0.017,0.035,-1.570,-1.535,-0.297
1606940421325859328,pose_received,1606940421324805082,-1.570,-0.017,0.035,-1.570,-1.535,-0.297
1606940421345862144,pose_received,1606940421344811780,-1.570,-0.017,0.035,-1.570,-1.535,-0.297
1606940421365906944,pose_received,1606940421364805078,-1.570,-0.017,0.035,-1.570,-1.535,-0.297
1606940421385479680,pose_received,1606940421384794676,-1.570,-0.017,0.035,-1.570,-1.535,-0.297
1606940421405868800,pose_received,1606940421404760074,-1.570,-0.017,0.035,-1.570,-1.535,-0.297
1606940421425520896,pose_received,1606940421424797972,-1.570,-0.017,0.035,-1.570,-1.535,-0.297
1606940421445462272,pose_received,1606940421444795570,-1.570,-0.017,0.035,-1.570,-1.535,-0.297
1606940421465692672,pose_received,1606940421464792369,-1.570,-0.017,0.035,-1.570,-1.535,-0.297
1606940421485800448,pose_received,1606940421484795667,-1.570,-0.017,0.035,-1.570,-1.535,-0.297
1606940421505477376,pose_received,1606940421504795765,-1.570,-0.017,0.035,-1.570,-1.535,-0.297
1606940421525938432,pose_received,1606940421524797063,-1.570,-0.017,0.035,-1.570,-1.535,-0.297
1606940421545855232,pose_received,1606940421544843561,-1.570,-0.017,0.035,-1.570,-1.535,-0.297
1606940421565937408,pose_received,1606940421564793359,-1.570,-0.017,0.035,-1.570,-1.535,-0.297
1606940421585970176,pose_received,1606940421584808157,-1.570,-0.017,0.035,-1.570,-1.535,-0.297
1606940421605430528,pose_received,1606940421604800555,-1.570,-0.017,0.035,-1.570,-1.535,-0.297
1606940421625502208,pose_received,1606940421624794153,-1.570,-0.017,0.035,-1.570,-1.535,-0.297
1606940421645902080,pose_received,1606940421644781752,-1.570,-0.017,0.035,-1.570,-1.535,-0.297
1606940421665444096,pose_received,1606940421664800150,-1.570,-0.017,0.035,-1.570,-1.535,-0.297
1606940421685980928,pose_received,1606940421684766948,-1.570,-0.017,0.035,-1.570,-1.535,-0.297
1606940421705620480,pose_received,1606940421704812246,-1.570,-0.017,0.035,-1.570,-1.535,-0.297
1606940421725854976,pose_received,1606940421724870244,-1.570,-0.017,0.035,-1.570,-1.535,-0.297
1606940421745772800,pose_received,1606940421744845842,-1.570,-0.017,0.035,-1.570,-1.535,-0.297
1606940421765701888,pose_received,1606940421764788440,-1.570,-0.017,0.035,-1.570,-1.535,-0.297
1606940421785878784,pose_received,1606940421784796338,-1.570,-0.017,0.035,-1.570,-1.535,-0.297
1606940421806296064,pose_received,1606940421805204734,-1.570,-0.017,0.035,-1.570,-1.535,-0.297
1606940421825896448,pose_received,1606940421824805035,-1.570,-0.017,0.035,-1.570,-1.535,-0.297
1606940421845762304,pose_received,1606940421844867232,-1.570,-0.017,0.035,-1.570,-1.535,-0.297
1606940421865916160,pose_received,1606940421864793631,-1.570,-0.017,0.035,-1.570,-1.535,-0.297
1606940421885508352,pose_received,1606940421885012528,-1.570,-0.017,0.035,-1.570,-1.535,-0.297
1606940421905787648,pose_received,1606940421904812227,-1.570,-0.017,0.035,-1.570,-1.535,-0.297
1606940421925550848,pose_received,1606940421924795025,-1.570,-0.017,0.035,-1.570,-1.535,-0.297
1606940421945658624,pose_received,1606940421944834423,-1.570,-0.017,0.035,-1.570,-1.535,-0.297
1606940421965340416,pose_received,1606940421964803521,-1.570,-0.017,0.035,-1.570,-1.535,-0.297
1606940421985603072,pose_received,1606940421984794920,-1.570,-0.017,0.035,-1.570,-1.535,-0.297
1606940422005533696,pose_received,1606940422004844217,-1.570,-0.017,0.035,-1.570,-1.535,-0.297
1606940422025282304,pose_received,1606940422024795416,-1.570,-0.017,0.035,-1.570,-1.535,-0.297
1606940422045518592,pose_received,1606940422044797214,-1.570,-0.017,0.035,-1.570,-1.535,-0.297
1606940422065529088,pose_received,1606940422064794012,-1.570,-0.017,0.035,-1.570,-1.535,-0.297
1606940422085371648,pose_received,1606940422084797610,-1.570,-0.017,0.035,-1.570,-1.535,-0.297
1606940422106289920,pose_received,1606940422104800709,-1.570,-0.017,0.035,-1.570,-1.535,-0.297
1606940422125889536,pose_received,1606940422124780207,-1.570,-0.017,0.035,-1.570,-1.535,-0.297
1606940422145889024,pose_received,1606940422144861505,-1.570,-0.017,0.035,-1.570,-1.535,-0.297
1606940422165559040,pose_received,1606940422164796203,-1.570,-0.017,0.035,-1.570,-1.535,-0.297
1606940422185397504,pose_received,1606940422184794801,-1.570,-0.017,0.035,-1.570,-1.535,-0.297
1606940422206317568,pose_received,1606940422204803299,-1.570,-0.017,0.035,-1.570,-1.535,-0.297
1606940422225611520,pose_received,1606940422224795398,-1.570,-0.017,0.035,-1.570,-1.535,-0.297
1606940422245334272,pose_received,1606940422244797596,-1.570,-0.017,0.035,-1.570,-1.535,-0.297
1606940422265760000,pose_received,1606940422264792694,-1.570,-0.017,0.035,-1.570,-1.535,-0.297
1606940422285385216,pose_received,1606940422284793592,-1.570,-0.017,0.035,-1.570,-1.535,-0.297
1606940422305700864,pose_received,1606940422304795790,-1.570,-0.017,0.035,-1.570,-1.535,-0.297
1606940422326022400,pose_received,1606940422324935288,-1.570,-0.017,0.035,-1.570,-1.535,-0.297
1606940422345813760,pose_received,1606940422344842986,-1.570,-0.017,0.035,-1.570,-1.535,-0.297
1606940422366039296,pose_received,1606940422364833185,-1.570,-0.017,0.035,-1.570,-1.535,-0.297
1606940422385544192,pose_received,1606940422384795683,-1.570,-0.017,0.035,-1.570,-1.535,-0.297
1606940422405502720,pose_received,1606940422404794781,-1.570,-0.017,0.035,-1.570,-1.535,-0.297
1606940422425350400,pose_received,1606940422424797579,-1.570,-0.017,0.035,-1.570,-1.535,-0.297
1606940422445700096,pose_received,1606940422445102576,-1.570,-0.017,0.035,-1.570,-1.535,-0.297
1606940422465763072,pose_received,1606940422464795676,-1.570,-0.017,0.035,-1.570,-1.535,-0.297
1606940422485557248,pose_received,1606940422484795874,-1.570,-0.017,0.035,-1.570,-1.535,-0.297
1606940422505685248,pose_received,1606940422504796272,-1.570,-0.017,0.035,-1.570,-1.535,-0.297
1606940422525614592,pose_received,1606940422524796970,-1.570,-0.017,0.035,-1.570,-1.535,-0.297
1606940422545549568,pose_received,1606940422544796969,-1.570,-0.017,0.035,-1.570,-1.535,-0.297
1606940422565417728,pose_received,1606940422564796367,-1.570,-0.017,0.035,-1.570,-1.535,-0.297
1606940422585850368,pose_received,1606940422584765065,-1.570,-0.017,0.035,-1.570,-1.535,-0.297
1606940422605641472,pose_received,1606940422604796663,-1.570,-0.017,0.035,-1.570,-1.535,-0.297
1606940422626329600,pose_received,1606940422624793861,-1.570,-0.017,0.035,-1.570,-1.535,-0.297
1606940422645492736,pose_received,1606940422644796959,-1.570,-0.017,0.035,-1.570,-1.535,-0.297
1606940422665510656,pose_received,1606940422664799458,-1.570,-0.017,0.035,-1.570,-1.535,-0.297
1606940422686130176,pose_received,1606940422684930355,-1.570,-0.017,0.035,-1.570,-1.535,-0.297
1606940422705555968,pose_received,1606940422704796654,-1.570,-0.017,0.035,-1.570,-1.535,-0.297
1606940422725852160,pose_received,1606940422724797552,-1.570,-0.017,0.035,-1.570,-1.535,-0.297
1606940422745327104,pose_received,1606940422744843950,-1.570,-0.017,0.035,-1.570,-1.535,-0.297
1606940422765666048,pose_received,1606940422764792148,-1.570,-0.017,0.035,-1.570,-1.535,-0.297
1606940422785534208,pose_received,1606940422784795147,-1.570,-0.017,0.035,-1.570,-1.535,-0.297
1606940422805814016,pose_received,1606940422804794045,-1.570,-0.017,0.035,-1.570,-1.535,-0.297
1606940422825749248,pose_received,1606940422824796443,-1.570,-0.017,0.035,-1.570,-1.535,-0.297
1606940422845536256,pose_received,1606940422844795341,-1.570,-0.017,0.035,-1.570,-1.535,-0.297
1606940422865579520,pose_received,1606940422864792939,-1.570,-0.017,0.035,-1.570,-1.535,-0.297
1606940422886052608,pose_received,1606940422884793738,-1.570,-0.017,0.035,-1.570,-1.535,-0.297
1606940422905378560,pose_received,1606940422904795936,-1.570,-0.017,0.035,-1.570,-1.535,-0.297
1606940422925878528,pose_received,1606940422924790934,-1.570,-0.017,0.035,-1.570,-1.535,-0.297
1606940422946492672,pose_received,1606940422944831132,-1.570,-0.017,0.035,-1.570,-1.535,-0.297
1606940422965346560,pose_received,1606940422964796130,-1.570,-0.017,0.035,-1.570,-1.535,-0.297
1606940422986390528,pose_received,1606940422984803628,-1.570,-0.017,0.035,-1.570,-1.535,-0.297
1606940423005642240,pose_received,1606940423004805127,-1.570,-0.017,0.035,-1.570,-1.535,-0.297
1606940423025473280,pose_received,1606940423024793725,-1.570,-0.017,0.035,-1.570,-1.535,-0.297
1606940423045891328,pose_received,1606940423044795723,-1.570,-0.017,0.035,-1.570,-1.535,-0.297
1606940423065300736,pose_received,1606940423064776121,-1.570,-0.017,0.035,-1.570,-1.535,-0.297
1606940423086205440,pose_received,1606940423084796020,-1.570,-0.017,0.035,-1.570,-1.535,-0.297
1606940423105701120,pose_received,1606940423104808718,-1.570,-0.017,0.035,-1.570,-1.535,-0.297
1606940423125680896,pose_received,1606940423124772516,-1.570,-0.017,0.035,-1.570,-1.535,-0.297
1606940423145628160,pose_received,1606940423144885114,-1.570,-0.017,0.035,-1.570,-1.535,-0.297
1606940423165778176,pose_received,1606940423165147611,-1.570,-0.017,0.035,-1.570,-1.535,-0.297
1606940423185346048,pose_received,1606940423184795811,-1.570,-0.017,0.035,-1.570,-1.535,-0.297
1606940423206010880,pose_received,1606940423204837009,-1.570,-0.017,0.035,-1.570,-1.535,-0.297
1606940423225510912,pose_received,1606940423224797007,-1.570,-0.017,0.035,-1.570,-1.535,-0.297
1606940423245635584,pose_received,1606940423244799105,-1.570,-0.017,0.035,-1.570,-1.535,-0.297
1606940423265686272,pose_received,1606940423264796704,-1.570,-0.017,0.035,-1.570,-1.535,-0.297
1606940423285676800,pose_received,1606940423285146500,-1.570,-0.017,0.035,-1.570,-1.535,-0.297
1606940423305825280,pose_received,1606940423304803900,-1.570,-0.017,0.035,-1.570,-1.535,-0.297
1606940423325495040,pose_received,1606940423324795898,-1.570,-0.017,0.035,-1.570,-1.535,-0.297
1606940423345860864,pose_received,1606940423344832097,-1.570,-0.017,0.035,-1.570,-1.535,-0.297
1606940423365611264,pose_received,1606940423364797395,-1.570,-0.017,0.035,-1.570,-1.535,-0.297
1606940423385906688,pose_received,1606940423384801393,-1.570,-0.017,0.035,-1.570,-1.535,-0.297
1606940423405988096,pose_received,1606940423404799091,-1.570,-0.017,0.035,-1.570,-1.535,-0.297
1606940423425858304,pose_received,1606940423424759990,-1.570,-0.017,0.035,-1.570,-1.535,-0.297
1606940423445350400,pose_received,1606940423444798088,-1.570,-0.017,0.035,-1.570,-1.535,-0.297
1606940423465573632,pose_received,1606940423464794186,-1.570,-0.017,0.035,-1.570,-1.535,-0.297
1606940423487079168,pose_received,1606940423484795584,-1.570,-0.017,0.035,-1.570,-1.535,-0.297
1606940423505839104,pose_received,1606940423504799383,-1.570,-0.017,0.035,-1.570,-1.535,-0.297
1606940423525691392,pose_received,1606940423524795781,-1.570,-0.017,0.035,-1.570,-1.535,-0.297
1606940423545285632,pose_received,1606940423544841079,-1.570,-0.017,0.035,-1.570,-1.535,-0.297
1606940423565585408,pose_received,1606940423564796077,-1.570,-0.017,0.035,-1.570,-1.535,-0.297
1606940423585544704,pose_received,1606940423584793176,-1.570,-0.017,0.035,-1.570,-1.535,-0.297
1606940423605559552,pose_received,1606940423604796374,-1.570,-0.017,0.035,-1.570,-1.535,-0.297
1606940423625438464,pose_received,1606940423624797072,-1.570,-0.017,0.035,-1.570,-1.535,-0.297
1606940423645677056,pose_received,1606940423644795170,-1.570,-0.017,0.035,-1.570,-1.535,-0.297
1606940423665932544,pose_received,1606940423664788569,-1.570,-0.017,0.035,-1.570,-1.535,-0.297
1606940423685655040,pose_received,1606940423684796867,-1.570,-0.017,0.035,-1.570,-1.535,-0.297
1606940423705508352,pose_received,1606940423704797265,-1.570,-0.017,0.035,-1.570,-1.535,-0.297
1606940423725624832,pose_received,1606940423724795563,-1.570,-0.017,0.035,-1.570,-1.535,-0.297
1606940423745825536,pose_received,1606940423744854761,-1.570,-0.017,0.035,-1.570,-1.535,-0.297
1606940423765714432,pose_received,1606940423764793760,-1.570,-0.017,0.035,-1.570,-1.535,-0.297
1606940423785525504,pose_received,1606940423784794058,-1.570,-0.017,0.035,-1.570,-1.535,-0.297
1606940423805831936,pose_received,1606940423804791656,-1.570,-0.017,0.035,-1.570,-1.535,-0.297
1606940423825528320,pose_received,1606940423824796454,-1.570,-0.017,0.035,-1.570,-1.535,-0.297
1606940423845536000,pose_received,1606940423844794853,-1.570,-0.017,0.035,-1.570,-1.535,-0.297
1606940423865659136,pose_received,1606940423864762851,-1.570,-0.017,0.035,-1.570,-1.535,-0.297
1606940423885320960,pose_received,1606940423884796249,-1.570,-0.017,0.035,-1.570,-1.535,-0.297
1606940423905607424,pose_received,1606940423904795147,-1.570,-0.017,0.035,-1.570,-1.535,-0.297
1606940423926006528,pose_received,1606940423924808346,-1.570,-0.017,0.035,-1.570,-1.535,-0.297
1606940423945885952,pose_received,1606940423944843644,-1.570,-0.017,0.035,-1.570,-1.535,-0.297
1606940423965745408,pose_received,1606940423964748742,-1.570,-0.017,0.035,-1.570,-1.535,-0.297
1606940423985885440,pose_received,1606940423984770440,-1.570,-0.017,0.035,-1.570,-1.535,-0.297
1606940424005538560,pose_received,1606940424004794139,-1.570,-0.017,0.035,-1.570,-1.535,-0.297
1606940424025859072,pose_received,1606940424024800237,-1.570,-0.017,0.035,-1.570,-1.535,-0.297
1606940424045634304,pose_received,1606940424044833235,-1.570,-0.017,0.035,-1.570,-1.535,-0.297
1606940424065409536,pose_received,1606940424064791934,-1.570,-0.017,0.035,-1.570,-1.535,-0.297
1606940424085933568,pose_received,1606940424084796032,-1.570,-0.017,0.035,-1.570,-1.535,-0.297
1606940424105513472,pose_received,1606940424104796530,-1.570,-0.017,0.035,-1.570,-1.535,-0.297
1606940424125786368,pose_received,1606940424124796428,-1.570,-0.017,0.035,-1.570,-1.535,-0.297
1606940424145566208,pose_received,1606940424144877726,-1.570,-0.017,0.035,-1.570,-1.535,-0.297
1606940424165377792,pose_received,1606940424164794125,-1.570,-0.017,0.035,-1.570,-1.535,-0.297
1606940424185918208,pose_received,1606940424184809923,-1.570,-0.017,0.035,-1.570,-1.535,-0.297
1606940424205558528,pose_received,1606940424205009821,-1.570,-0.017,0.035,-1.570,-1.535,-0.297
1606940424225617152,pose_received,1606940424224796820,-1.570,-0.017,0.035,-1.570,-1.535,-0.297
1606940424245787392,pose_received,1606940424244794918,-1.570,0.035,0.087,-1.570,-1.483,-0.297
1606940424265742080,pose_received,1606940424264791417,-1.570,0.035,0.087,-1.570,-1.483,-0.297
1606940424285819136,pose_received,1606940424284797515,-1.570,0.035,0.087,-1.570,-1.483,-0.297
1606940424305894912,pose_received,1606940424304784213,-1.570,0.035,0.087,-1.570,-1.483,-0.297
1606940424325517312,pose_received,1606940424324793811,-1.570,0.035,0.087,-1.570,-1.483,-0.297
1606940424345366784,pose_received,1606940424344798010,-1.570,0.035,0.087,-1.570,-1.483,-0.297
1606940424367234816,pose_received,1606940424364983607,-1.570,0.035,0.087,-1.570,-1.483,-0.297
1606940424385684224,pose_received,1606940424384794306,-1.570,0.035,0.087,-1.570,-1.483,-0.297
1606940424405761280,pose_received,1606940424405153703,-1.570,0.035,0.087,-1.570,-1.483,-0.297
1606940424425463552,pose_received,1606940424424799103,-1.570,0.035,0.087,-1.570,-1.483,-0.297
1606940424445697536,pose_received,1606940424444809101,-1.570,0.000,0.070,-1.570,-1.500,-0.297
1606940424465378560,pose_received,1606940424464800199,-1.570,0.000,0.070,-1.570,-1.500,-0.297
1606940424485771520,pose_received,1606940424484795898,-1.570,-0.087,0.035,-1.570,-1.535,-0.297
1606940424505831168,pose_received,1606940424504802496,-1.570,-0.087,0.035,-1.570,-1.535,-0.297
1606940424525344512,pose_received,1606940424524794494,-1.570,-0.087,0.035,-1.570,-1.535,-0.297
1606940424545924608,pose_received,1606940424545062791,-1.570,-0.119,0.035,-1.570,-1.535,-0.297
1606940424565560320,pose_received,1606940424564794991,-1.570,-0.140,0.035,-1.570,-1.535,-0.297
1606940424585737216,pose_received,1606940424584794389,-1.570,-0.140,0.035,-1.570,-1.535,-0.297
1606940424605808640,pose_received,1606940424604834387,-1.570,-0.140,0.035,-1.570,-1.535,-0.297
1606940424625746432,pose_received,1606940424624792986,-1.570,-0.174,0.017,-1.570,-1.553,-0.297
1606940424645546752,pose_received,1606940424644796784,-1.570,-0.174,0.017,-1.570,-1.553,-0.297
1606940424666448640,pose_received,1606940424664915382,-1.570,-0.174,0.017,-1.570,-1.553,-0.297
1606940424686793472,pose_received,1606940424684874680,-1.570,-0.174,0.017,-1.570,-1.553,-0.297
1606940424706149120,pose_received,1606940424704803479,-1.570,-0.262,0.017,-1.570,-1.553,-0.297
1606940424726091264,pose_received,1606940424724993776,-1.570,-0.262,0.017,-1.570,-1.553,-0.297
1606940424745534976,pose_received,1606940424744854375,-1.570,-0.262,0.017,-1.570,-1.553,-0.297
1606940424765564160,pose_received,1606940424764856874,-1.570,-0.330,0.017,-1.570,-1.553,-0.297
1606940424785735168,pose_received,1606940424784995071,-1.570,-0.349,0.017,-1.570,-1.553,-0.297
1606940424805977344,pose_received,1606940424804799171,-1.570,-0.349,0.017,-1.570,-1.553,-0.297
1606940424825676288,pose_received,1606940424824917368,-1.570,-0.351,0.018,-1.570,-1.552,-0.297
1606940424845824000,pose_received,1606940424844774667,-1.570,-0.436,0.052,-1.570,-1.518,-0.297
1606940424865383424,pose_received,1606940424864772766,-1.570,-0.436,0.052,-1.570,-1.518,-0.297
1606940424885522432,pose_received,1606940424884887363,-1.570,-0.437,0.053,-1.570,-1.517,-0.297
1606940424905684736,pose_received,1606940424905069961,-1.570,-0.541,0.105,-1.570,-1.465,-0.297
1606940424925889024,pose_received,1606940424924798160,-1.570,-0.541,0.105,-1.570,-1.465,-0.297
1606940424945859840,pose_received,1606940424944851858,-1.570,-0.541,0.105,-1.570,-1.465,-0.297
1606940424966221312,pose_received,1606940424964979156,-1.570,-0.541,0.105,-1.570,-1.465,-0.297
1606940424985723904,pose_received,1606940424984823355,-1.570,-0.654,0.137,-1.570,-1.433,-0.297
1606940425005356288,pose_received,1606940425004792554,-1.570,-0.663,0.140,-1.570,-1.430,-0.297
1606940425025663744,pose_received,1606940425024797552,-1.570,-0.697,0.151,-1.570,-1.419,-0.297
1606940425045613056,pose_received,1606940425044795950,-1.570,-0.715,0.157,-1.570,-1.413,-0.297
1606940425065675776,pose_received,1606940425064796349,-1.570,-0.715,0.157,-1.570,-1.413,-0.297
1606940425085803776,pose_received,1606940425084797247,-1.570,-0.798,0.190,-1.570,-1.380,-0.297
1606940425105481216,pose_received,1606940425104816945,-1.570,-0.802,0.192,-1.570,-1.378,-0.297
1606940425125836544,pose_received,1606940425124848444,-1.570,-0.802,0.192,-1.570,-1.378,-0.297
1606940425145781760,pose_received,1606940425144861642,-1.570,-0.856,0.213,-1.570,-1.357,-0.297
1606940425165494528,pose_received,1606940425164794941,-1.570,-0.890,0.227,-1.570,-1.343,-0.297
1606940425187128320,pose_received,1606940425184797839,-1.570,-0.890,0.227,-1.570,-1.343,-0.297
1606940425205820928,pose_received,1606940425204796737,-1.570,-0.959,0.244,-1.570,-1.326,-0.297
1606940425226123264,pose_received,1606940425224801136,-1.570,-0.959,0.244,-1.570,-1.326,-0.297
1606940425245936128,pose_received,1606940425244780434,-1.570,-0.959,0.244,-1.570,-1.326,-0.297
1606940425265361664,pose_received,1606940425264944132,-1.570,-1.011,0.257,-1.570,-1.313,-0.297
1606940425285792000,pose_received,1606940425284794131,-1.570,-1.029,0.262,-1.570,-1.308,-0.297
1606940425305495040,pose_received,1606940425304796529,-1.570,-1.029,0.262,-1.570,-1.308,-0.297
1606940425325722112,pose_received,1606940425324816927,-1.570,-1.064,0.250,-1.570,-1.320,-0.297
1606940425345837312,pose_received,1606940425344837126,-1.570,-1.082,0.244,-1.570,-1.326,-0.297
1606940425365615104,pose_received,1606940425364840824,-1.570,-1.082,0.244,-1.570,-1.326,-0.297
1606940425385705216,pose_received,1606940425384797522,-1.570,-1.099,0.244,-1.570,-1.326,-0.297
1606940425405744128,pose_received,1606940425404848521,-1.570,-1.099,0.244,-1.570,-1.326,-0.297
1606940425425583872,pose_received,1606940425424830919,-1.570,-1.099,0.244,-1.570,-1.326,-0.297
1606940425445723648,pose_received,1606940425444795318,-1.570,-1.134,0.244,-1.570,-1.326,-0.297
1606940425465571840,pose_received,1606940425464794516,-1.570,-1.134,0.244,-1.570,-1.326,-0.297
1606940425485865728,pose_received,1606940425484829514,-1.570,-1.134,0.244,-1.570,-1.326,-0.297
1606940425505479936,pose_received,1606940425504807313,-1.570,-1.169,0.227,-1.570,-1.343,-0.297
1606940425525319168,pose_received,1606940425524796511,-1.570,-1.169,0.227,-1.570,-1.343,-0.297
1606940425545293312,pose_received,1606940425544838009,-1.570,-1.169,0.227,-1.570,-1.343,-0.297
1606940425565783296,pose_received,1606940425564764908,-1.570,-1.169,0.227,-1.570,-1.343,-0.297
1606940425586327040,pose_received,1606940425585584002,-1.570,-1.169,0.227,-1.570,-1.343,-0.297
1606940425605736192,pose_received,1606940425604810604,-1.570,-1.204,0.227,-1.570,-1.343,-0.297
1606940425626138368,pose_received,1606940425624793603,-1.570,-1.204,0.227,-1.570,-1.343,-0.297
1606940425645548800,pose_received,1606940425644795701,-1.570,-1.204,0.227,-1.570,-1.343,-0.297
1606940425665779456,pose_received,1606940425664797600,-1.570,-1.204,0.227,-1.570,-1.343,-0.297
1606940425685648384,pose_received,1606940425684795398,-1.570,-1.204,0.227,-1.570,-1.343,-0.297
1606940425705911552,pose_received,1606940425704800796,-1.570,-1.204,0.227,-1.570,-1.343,-0.297
1606940425725736704,pose_received,1606940425724794195,-1.570,-1.204,0.227,-1.570,-1.343,-0.297
1606940425745987584,pose_received,1606940425744891492,-1.570,-1.204,0.227,-1.570,-1.343,-0.297
1606940425765458944,pose_received,1606940425764793691,-1.570,-1.204,0.227,-1.570,-1.343,-0.297
1606940425785726464,pose_received,1606940425784792290,-1.570,-1.204,0.227,-1.570,-1.343,-0.297
1606940425805715968,pose_received,1606940425804809188,-1.570,-1.204,0.227,-1.570,-1.343,-0.297
1606940425825523968,pose_received,1606940425824794486,-1.570,-1.204,0.227,-1.570,-1.343,-0.297
1606940425845715968,pose_received,1606940425844802785,-1.570,-1.204,0.227,-1.570,-1.343,-0.297
1606940425865762048,pose_received,1606940425864797183,-1.570,-1.204,0.227,-1.570,-1.343,-0.297
1606940425885558528,pose_received,1606940425884795982,-1.570,-1.204,0.227,-1.570,-1.343,-0.297
1606940425905767424,pose_received,1606940425904762980,-1.570,-1.204,0.227,-1.570,-1.343,-0.297
1606940425925540096,pose_received,1606940425924797978,-1.570,-1.204,0.227,-1.570,-1.343,-0.297
1606940425945326080,pose_received,1606940425944796377,-1.570,-1.204,0.227,-1.570,-1.343,-0.297
1606940425965664512,pose_received,1606940425964795775,-1.570,-1.204,0.227,-1.570,-1.343,-0.297
1606940425985752064,pose_received,1606940425984795273,-1.570,-1.204,0.227,-1.570,-1.343,-0.297
1606940426005765632,pose_received,1606940426004801272,-1.570,-1.204,0.227,-1.570,-1.343,-0.297
1606940426025893376,pose_received,1606940426024778870,-1.570,-1.204,0.227,-1.570,-1.343,-0.297
1606940426046550016,pose_received,1606940426044796969,-1.570,-1.204,0.227,-1.570,-1.343,-0.297
1606940426065310720,pose_received,1606940426064786467,-1.570,-1.204,0.227,-1.570,-1.343,-0.297
1606940426085409792,pose_received,1606940426084787865,-1.570,-1.204,0.227,-1.570,-1.343,-0.297
1606940426105540864,pose_received,1606940426104800364,-1.570,-1.204,0.227,-1.570,-1.343,-0.297
1606940426125409792,pose_received,1606940426124794662,-1.570,-1.204,0.227,-1.570,-1.343,-0.297
1606940426145776128,pose_received,1606940426144844860,-1.570,-1.204,0.227,-1.570,-1.343,-0.297
1606940426165486592,pose_received,1606940426164795559,-1.570,-1.204,0.227,-1.570,-1.343,-0.297
1606940426185837312,pose_received,1606940426184777058,-1.570,-1.204,0.227,-1.570,-1.343,-0.297
1606940426205463552,pose_received,1606940426204795856,-1.570,-1.204,0.227,-1.570,-1.343,-0.297
1606940426225857792,pose_received,1606940426224776554,-1.570,-1.204,0.227,-1.570,-1.343,-0.297
1606940426245482752,pose_received,1606940426244794453,-1.570,-1.204,0.227,-1.570,-1.343,-0.297
1606940426265977344,pose_received,1606940426264796951,-1.570,-1.204,0.227,-1.570,-1.343,-0.297
1606940426285319424,pose_received,1606940426284794750,-1.570,-1.204,0.227,-1.570,-1.343,-0.297
1606940426305580032,pose_received,1606940426304794448,-1.570,-1.204,0.227,-1.570,-1.343,-0.297
1606940426325485568,pose_received,1606940426324795146,-1.570,-1.204,0.227,-1.570,-1.343,-0.297
1606940426345354240,pose_received,1606940426344798945,-1.570,-1.204,0.227,-1.570,-1.343,-0.297
1606940426365461760,pose_received,1606940426364796543,-1.570,-1.204,0.227,-1.570,-1.343,-0.297
1606940426385431808,pose_received,1606940426384797342,-1.570,-1.204,0.227,-1.570,-1.343,-0.297
1606940426406027520,pose_received,1606940426404803040,-1.570,-1.204,0.227,-1.570,-1.343,-0.297
1606940426425325312,pose_received,1606940426424798939,-1.570,-1.204,0.227,-1.570,-1.343,-0.297
1606940426445756416,pose_received,1606940426444795537,-1.570,-1.204,0.227,-1.570,-1.343,-0.297
1606940426465766400,pose_received,1606940426464798935,-1.570,-1.204,0.227,-1.570,-1.343,-0.297
1606940426485473024,pose_received,1606940426484797934,-1.570,-1.204,0.227,-1.570,-1.343,-0.297
1606940426505435904,pose_received,1606940426504795432,-1.570,-1.204,0.227,-1.570,-1.343,-0.297
1606940426525868800,pose_received,1606940426524800231,-1.570,-1.204,0.227,-1.570,-1.343,-0.297
1606940426545375232,pose_received,1606940426544840629,-1.570,-1.204,0.227,-1.570,-1.343,-0.297
1606940426565622016,pose_received,1606940426564796127,-1.570,-1.204,0.227,-1.570,-1.343,-0.297
1606940426585731328,pose_received,1606940426584796026,-1.570,-1.204,0.227,-1.570,-1.343,-0.297
1606940426605411840,pose_received,1606940426604794824,-1.570,-1.204,0.227,-1.570,-1.343,-0.297
1606940426625694720,pose_received,1606940426624796923,-1.570,-1.204,0.227,-1.570,-1.343,-0.297
1606940426645596416,pose_received,1606940426644795521,-1.570,-1.204,0.227,-1.570,-1.343,-0.297
1606940426665723392,pose_received,1606940426664776120,-1.570,-1.204,0.227,-1.570,-1.343,-0.297
1606940426685788928,pose_received,1606940426684803018,-1.570,-1.204,0.227,-1.570,-1.343,-0.297
1606940426705429248,pose_received,1606940426704796216,-1.570,-1.204,0.227,-1.570,-1.343,-0.297
1606940426725775616,pose_received,1606940426724784415,-1.570,-1.204,0.227,-1.570,-1.343,-0.297
1606940426745779200,pose_received,1606940426744822813,-1.570,-1.204,0.227,-1.570,-1.343,-0.297
1606940426765572096,pose_received,1606940426765177010,-1.570,-1.204,0.227,-1.570,-1.343,-0.297
1606940426785873664,pose_received,1606940426784808210,-1.570,-1.204,0.227,-1.570,-1.343,-0.297
1606940426805474304,pose_received,1606940426804795609,-1.570,-1.204,0.227,-1.570,-1.343,-0.297
1606940426825502464,pose_received,1606940426824778907,-1.570,-1.204,0.227,-1.570,-1.343,-0.297
1606940426845939712,pose_received,1606940426844795705,-1.570,-1.204,0.227,-1.570,-1.343,-0.297
1606940426865757440,pose_received,1606940426864796004,-1.570,-1.204,0.227,-1.570,-1.343,-0.297
1606940426885811200,pose_received,1606940426884801102,-1.570,-1.204,0.227,-1.570,-1.343,-0.297
1606940426905743360,pose_received,1606940426904809201,-1.570,-1.204,0.227,-1.570,-1.343,-0.297
1606940426925732608,pose_received,1606940426924798899,-1.570,-1.204,0.227,-1.570,-1.343,-0.297
1606940426945427712,pose_received,1606940426944791298,-1.570,-1.204,0.227,-1.570,-1.343,-0.297
1606940426965902080,pose_received,1606940426964891995,-1.570,-1.204,0.227,-1.570,-1.343,-0.297
1606940426986017024,pose_received,1606940426984798894,-1.570,-1.204,0.227,-1.570,-1.343,-0.297
1606940427005886720,pose_received,1606940427004811693,-1.570,-1.204,0.227,-1.570,-1.343,-0.297
1606940427025599232,pose_received,1606940427024795291,-1.570,-1.204,0.227,-1.570,-1.343,-0.297
1606940427045966848,pose_received,1606940427044804390,-1.570,-1.204,0.227,-1.570,-1.343,-0.297
1606940427065502976,pose_received,1606940427064798288,-1.570,-1.204,0.227,-1.570,-1.343,-0.297
1606940427085806336,pose_received,1606940427084794587,-1.570,-1.204,0.227,-1.570,-1.343,-0.297
1606940427105767424,pose_received,1606940427104812385,-1.570,-1.204,0.227,-1.570,-1.343,-0.297
1606940427125795584,pose_received,1606940427124794384,-1.570,-1.204,0.227,-1.570,-1.343,-0.297
1606940427145467904,pose_received,1606940427144799982,-1.570,-1.204,0.227,-1.570,-1.343,-0.297
1606940427165776896,pose_received,1606940427164796281,-1.570,-1.204,0.227,-1.570,-1.343,-0.297
1606940427186019584,pose_received,1606940427184911179,-1.570,-1.204,0.227,-1.570,-1.343,-0.297
1606940427205583360,pose_received,1606940427204807778,-1.570,-1.204,0.227,-1.570,-1.343,-0.297
1606940427225495808,pose_received,1606940427224795076,-1.570,-1.204,0.227,-1.570,-1.343,-0.297
1606940427245479424,pose_received,1606940427244795875,-1.570,-1.204,0.227,-1.570,-1.343,-0.297
1606940427265661952,pose_received,1606940427264792273,-1.570,-1.204,0.227,-1.570,-1.343,-0.297
1606940427285518336,pose_received,1606940427284795172,-1.570,-1.204,0.227,-1.570,-1.343,-0.297
1606940427305763584,pose_received,1606940427304817870,-1.570,-1.204,0.227,-1.570,-1.343,-0.297
1606940427325416448,pose_received,1606940427324807868,-1.570,-1.204,0.227,-1.570,-1.343,-0.297
1606940427345960448,pose_received,1606940427344812467,-1.570,-1.204,0.227,-1.570,-1.343,-0.297
1606940427365989888,pose_received,1606940427364792765,-1.570,-1.204,0.227,-1.570,-1.343,-0.297
1606940427385630464,pose_received,1606940427384795164,-1.570,-1.204,0.227,-1.570,-1.343,-0.297
1606940427406235904,pose_received,1606940427405530759,-1.570,-1.202,0.226,-1.570,-1.344,-0.297
1606940427426477568,pose_received,1606940427425445958,-1.570,0.000,0.000,-1.570,-1.570,-0.297
1606940427445400064,pose_received,1606940427444795659,-1.570,0.000,0.000,-1.570,-1.570,-0.297
1606940427465614080,pose_received,1606940427464793758,-1.570,0.000,0.000,-1.570,-1.570,-0.297
1606940427485660160,pose_received,1606940427484795756,-1.570,0.000,0.000,-1.570,-1.570,-0.297
1606940427505492224,pose_received,1606940427504795555,-1.570,0.000,0.000,-1.570,-1.570,-0.297
1606940427525799936,pose_received,1606940427524795153,-1.570,0.000,0.000,-1.570,-1.570,-0.297
1606940427546137088,pose_received,1606940427545136350,-1.570,0.000,0.000,-1.570,-1.570,-0.297
1606940427565567488,pose_received,1606940427564891550,-1.570,0.000,0.000,-1.570,-1.570,-0.297
1606940427585334784,pose_received,1606940427584798349,-1.570,0.000,0.000,-1.570,-1.570,-0.297
1606940427605652736,pose_received,1606940427605141545,-1.570,0.000,0.000,-1.570,-1.570,-0.297
1606940427625747712,pose_received,1606940427624796146,-1.570,0.000,0.000,-1.570,-1.570,-0.297
1606940427645384192,pose_received,1606940427644796044,-1.570,0.000,0.000,-1.570,-1.570,-0.297
1606940427665672192,pose_received,1606940427664798443,-1.570,0.000,0.000,-1.570,-1.570,-0.297
1606940427685752832,pose_received,1606940427684793941,-1.570,0.000,0.000,-1.570,-1.570,-0.297
1606940427705597440,pose_received,1606940427704794940,-1.570,0.000,0.000,-1.570,-1.570,-0.297
1606940427725753856,pose_received,1606940427724797438,-1.570,0.000,0.000,-1.570,-1.570,-0.297
1606940427746034432,pose_received,1606940427745039235,-1.570,0.000,0.000,-1.570,-1.570,-0.297
1606940427765648896,pose_received,1606940427764791435,-1.570,0.000,0.000,-1.570,-1.570,-0.297
1606940427785778432,pose_received,1606940427784795534,-1.570,0.000,0.000,-1.570,-1.570,-0.297
1606940427805600000,pose_received,1606940427804796032,-1.570,0.000,0.000,-1.570,-1.570,-0.297
1606940427825887488,pose_received,1606940427824813230,-1.570,0.000,0.000,-1.570,-1.570,-0.297
1606940427845602048,pose_received,1606940427844828729,-1.570,0.000,0.000,-1.570,-1.570,-0.297
1606940427865788160,pose_received,1606940427864791728,-1.570,0.000,0.000,-1.570,-1.570,-0.297
1606940427885809408,pose_received,1606940427884760626,-1.570,0.000,0.000,-1.570,-1.570,-0.297
1606940427905635584,pose_received,1606940427904793624,-1.570,0.000,0.000,-1.570,-1.570,-0.297
1606940427925524480,pose_received,1606940427924798123,-1.570,0.000,0.000,-1.570,-1.570,-0.297
1606940427945297408,pose_received,1606940427944846021,-1.570,0.000,0.000,-1.570,-1.570,-0.297
1606940427965475840,pose_received,1606940427964793020,-1.570,0.000,0.000,-1.570,-1.570,-0.297
1606940427985651712,pose_received,1606940427984796418,-1.570,0.000,0.000,-1.570,-1.570,-0.297
1606940428005508864,pose_received,1606940428004798717,-1.570,0.000,0.000,-1.570,-1.570,-0.297
1606940428025612288,pose_received,1606940428024802015,-1.570,0.000,0.000,-1.570,-1.570,-0.297
1606940428045565184,pose_received,1606940428044797114,-1.570,0.000,0.000,-1.570,-1.570,-0.297
1606940428065737728,pose_received,1606940428064775513,-1.570,0.000,0.000,-1.570,-1.570,-0.297
1606940428085880064,pose_received,1606940428084800511,-1.570,0.000,0.000,-1.570,-1.570,-0.297
1606940428105771008,pose_received,1606940428105102108,-1.570,0.000,0.000,-1.570,-1.570,-0.297
1606940428125483520,pose_received,1606940428124798008,-1.570,0.000,0.000,-1.570,-1.570,-0.297
1606940428145676544,pose_received,1606940428145196705,-1.570,0.000,0.000,-1.570,-1.570,-0.297
1606940428165783808,pose_received,1606940428164874205,-1.570,0.000,0.000,-1.570,-1.570,-0.297
1606940428186066176,pose_received,1606940428184798904,-1.570,0.000,0.000,-1.570,-1.570,-0.297
1606940428205895680,pose_received,1606940428204810802,-1.570,0.000,0.000,-1.570,-1.570,-0.297
1606940428225346304,pose_received,1606940428224797101,-1.570,0.000,0.000,-1.570,-1.570,-0.297
1606940428245407488,pose_received,1606940428244799199,-1.570,0.000,0.000,-1.570,-1.570,-0.297
1606940428265715712,pose_received,1606940428265105196,-1.570,0.000,0.000,-1.570,-1.570,-0.297
1606940428285931776,pose_received,1606940428284843596,-1.570,0.000,0.000,-1.570,-1.570,-0.297
1606940428305632768,pose_received,1606940428304804595,-1.570,0.000,0.000,-1.570,-1.570,-0.297
1606940428325649408,pose_received,1606940428324794794,-1.570,0.000,0.000,-1.570,-1.570,-0.297
1606940428345964800,pose_received,1606940428344800792,-1.570,0.000,0.000,-1.570,-1.570,-0.297
1606940428365582336,pose_received,1606940428364795291,-1.570,0.000,0.000,-1.570,-1.570,-0.297
1606940428385678592,pose_received,1606940428384796689,-1.570,0.000,0.000,-1.570,-1.570,-0.297
1606940428405947904,pose_received,1606940428404812688,-1.570,0.000,0.000,-1.570,-1.570,-0.297
1606940428425360384,pose_received,1606940428424797786,-1.570,0.000,0.000,-1.570,-1.570,-0.297
1606940428446110208,pose_received,1606940428444774585,-1.570,0.000,0.000,-1.570,-1.570,-0.297
1606940428465520384,pose_received,1606940428464780683,-1.570,0.000,0.000,-1.570,-1.570,-0.297
1606940428485833728,pose_received,1606940428484792982,-1.570,0.000,0.000,-1.570,-1.570,-0.297
1606940428505954048,pose_received,1606940428504810380,-1.570,0.000,0.000,-1.570,-1.570,-0.297
1606940428525617408,pose_received,1606940428524795679,-1.570,0.000,0.000,-1.570,-1.570,-0.297
1606940428545503232,pose_received,1606940428544798678,-1.570,0.000,0.000,-1.570,-1.570,-0.297
1606940428565788416,pose_received,1606940428564765076,-1.570,0.000,0.000,-1.570,-1.570,-0.297
1606940428585656064,pose_received,1606940428584792675,-1.570,0.000,0.000,-1.570,-1.570,-0.297
1606940428605609472,pose_received,1606940428604803173,-1.570,0.000,0.000,-1.570,-1.570,-0.297
1606940428625349120,pose_received,1606940428624796472,-1.570,0.000,0.000,-1.570,-1.570,-0.297
1606940428645632768,pose_received,1606940428644797070,-1.570,0.000,0.000,-1.570,-1.570,-0.297
1606940428665797632,pose_received,1606940428664796869,-1.570,0.000,0.000,-1.570,-1.570,-0.297
1606940428685584640,pose_received,1606940428684795367,-1.570,0.000,0.000,-1.570,-1.570,-0.297
1606940428705840128,pose_received,1606940428704797966,-1.570,0.000,0.000,-1.570,-1.570,-0.297
1606940428725466880,pose_received,1606940428724795164,-1.570,0.000,0.000,-1.570,-1.570,-0.297
1606940428745894656,pose_received,1606940428744858363,-1.570,0.000,0.000,-1.570,-1.570,-0.297
1606940428765320960,pose_received,1606940428764794462,-1.570,0.000,0.000,-1.570,-1.570,-0.297
1606940428785454848,pose_received,1606940428784796660,-1.570,0.000,0.000,-1.570,-1.570,-0.297
1606940428805827840,pose_received,1606940428804796959,-1.570,0.000,0.000,-1.570,-1.570,-0.297
1606940428825324032,pose_received,1606940428824793757,-1.570,0.000,0.000,-1.570,-1.570,-0.297
1606940428845874688,pose_received,1606940428844870055,-1.570,0.000,0.000,-1.570,-1.570,-0.297
1606940428866297856,pose_received,1606940428865560450,-1.570,0.000,0.000,-1.570,-1.570,-0.297
1606940428885353728,pose_received,1606940428884794853,-1.570,0.070,0.035,-1.570,-1.535,-0.297
1606940428905585152,pose_received,1606940428904792151,-1.570,0.070,0.035,-1.570,-1.535,-0.297
1606940428925717248,pose_received,1606940428924794250,-1.570,0.070,0.035,-1.570,-1.535,-0.297
1606940428945838336,pose_received,1606940428944834648,-1.570,0.070,0.035,-1.570,-1.535,-0.297
1606940428965564672,pose_received,1606940428964796947,-1.570,0.070,0.035,-1.570,-1.535,-0.297
1606940428985841664,pose_received,1606940428984761846,-1.570,0.070,0.035,-1.570,-1.535,-0.297
1606940429005539584,pose_received,1606940429004794744,-1.570,0.070,0.035,-1.570,-1.535,-0.297
1606940429026055936,pose_received,1606940429025498539,-1.570,0.070,0.035,-1.570,-1.535,-0.297
1606940429045880320,pose_received,1606940429044790741,-1.570,0.070,0.017,-1.570,-1.553,-0.297
1606940429066020608,pose_received,1606940429064789840,-1.570,0.070,0.017,-1.570,-1.553,-0.297
1606940429085732352,pose_received,1606940429084796638,-1.570,0.070,0.017,-1.570,-1.553,-0.297
1606940429105694464,pose_received,1606940429104797037,-1.570,0.047,0.017,-1.570,-1.553,-0.297
1606940429126046976,pose_received,1606940429124803836,-1.570,0.035,0.017,-1.570,-1.553,-0.297
1606940429145588224,pose_received,1606940429144839034,-1.570,0.035,0.017,-1.570,-1.553,-0.297
1606940429165335040,pose_received,1606940429164806133,-1.570,0.035,0.017,-1.570,-1.553,-0.297
1606940429185419264,pose_received,1606940429184800131,-1.570,0.015,0.017,-1.570,-1.553,-0.297
1606940429205782272,pose_received,1606940429204794530,-1.570,0.000,0.017,-1.570,-1.553,-0.297
1606940429225715200,pose_received,1606940429224833028,-1.570,0.000,0.017,-1.570,-1.553,-0.297
1606940429246424832,pose_received,1606940429245027026,-1.570,-0.035,0.017,-1.570,-1.553,-0.297
1606940429265496576,pose_received,1606940429264791526,-1.570,-0.035,0.017,-1.570,-1.553,-0.297
1606940429285362432,pose_received,1606940429284798224,-1.570,-0.035,0.017,-1.570,-1.553,-0.297
1606940429305652224,pose_received,1606940429304795623,-1.570,-0.035,0.017,-1.570,-1.553,-0.297
1606940429325825792,pose_received,1606940429324799222,-1.570,-0.035,0.017,-1.570,-1.553,-0.297
1606940429345338368,pose_received,1606940429344863620,-1.570,-0.037,0.017,-1.570,-1.553,-0.297
1606940429365345280,pose_received,1606940429364795519,-1.570,-0.087,0.017,-1.570,-1.553,-0.297
1606940429385960192,pose_received,1606940429384802517,-1.570,-0.087,0.017,-1.570,-1.553,-0.297
1606940429405924864,pose_received,1606940429404873216,-1.570,-0.110,0.017,-1.570,-1.553,-0.297
1606940429425532416,pose_received,1606940429424796015,-1.570,-0.122,0.017,-1.570,-1.553,-0.297
1606940429445355008,pose_received,1606940429444798213,-1.570,-0.122,0.017,-1.570,-1.553,-0.297
1606940429465568512,pose_received,1606940429464809712,-1.570,-0.122,0.017,-1.570,-1.553,-0.297
1606940429485898496,pose_received,1606940429484797810,-1.570,-0.158,0.029,-1.570,-1.541,-0.297
1606940429505824000,pose_received,1606940429504803009,-1.570,-0.174,0.035,-1.570,-1.535,-0.297
1606940429525780736,pose_received,1606940429524798808,-1.570,-0.174,0.035,-1.570,-1.535,-0.297
1606940429545417472,pose_received,1606940429544831906,-1.570,-0.209,0.017,-1.570,-1.553,-0.297
1606940429565720320,pose_received,1606940429564947904,-1.570,-0.209,0.017,-1.570,-1.553,-0.297
1606940429586133248,pose_received,1606940429585048202,-1.570,-0.209,0.017,-1.570,-1.553,-0.297
1606940429605505280,pose_received,1606940429604804402,-1.570,-0.209,0.017,-1.570,-1.553,-0.297
1606940429625637376,pose_received,1606940429624835600,-1.570,-0.253,0.032,-1.570,-1.538,-0.297
1606940429645928960,pose_received,1606940429644840499,-1.570,-0.262,0.035,-1.570,-1.535,-0.297
1606940429665668352,pose_received,1606940429664774998,-1.570,-0.262,0.035,-1.570,-1.535,-0.297
1606940429685782528,pose_received,1606940429684795096,-1.570,-0.286,0.023,-1.570,-1.547,-0.297
1606940429706498560,pose_received,1606940429705402092,-1.570,-0.297,0.017,-1.570,-1.553,-0.297
1606940429725626368,pose_received,1606940429724796294,-1.570,-0.297,0.017,-1.570,-1.553,-0.297
1606940429745964288,pose_received,1606940429744985891,-1.570,-0.349,0.017,-1.570,-1.553,-0.297
1606940429765298944,pose_received,1606940429764796091,-1.570,-0.349,0.017,-1.570,-1.553,-0.297
1606940429785536512,pose_received,1606940429784796489,-1.570,-0.358,0.017,-1.570,-1.553,-0.297
1606940429805595648,pose_received,1606940429804818788,-1.570,-0.366,0.017,-1.570,-1.553,-0.297
1606940429825961728,pose_received,1606940429824796587,-1.570,-0.366,0.017,-1.570,-1.553,-0.297
1606940429845363968,pose_received,1606940429844798185,-1.570,-0.419,0.035,-1.570,-1.535,-0.297
1606940429865435648,pose_received,1606940429864765284,-1.570,-0.419,0.035,-1.570,-1.535,-0.297
1606940429885739776,pose_received,1606940429884794983,-1.570,-0.419,0.035,-1.570,-1.535,-0.297
1606940429908987136,pose_received,1606940429904878181,-1.570,-0.454,0.035,-1.570,-1.535,-0.297
1606940429925745152,pose_received,1606940429924798580,-1.570,-0.471,0.035,-1.570,-1.535,-0.297
1606940429946424576,pose_received,1606940429945083477,-1.570,-0.471,0.035,-1.570,-1.535,-0.297
1606940429965487360,pose_received,1606940429964805177,-1.570,-0.471,0.035,-1.570,-1.535,-0.297
1606940429985738496,pose_received,1606940429984796176,-1.570,-0.490,0.044,-1.570,-1.526,-0.297
1606940430005853952,pose_received,1606940430004913974,-1.570,-0.506,0.052,-1.570,-1.518,-0.297
1606940430025778176,pose_received,1606940430024795473,-1.570,-0.506,0.052,-1.570,-1.518,-0.297
1606940430046023168,pose_received,1606940430045369869,-1.570,-0.506,0.052,-1.570,-1.518,-0.297
1606940430065505792,pose_received,1606940430064798670,-1.570,-0.523,0.052,-1.570,-1.518,-0.297
1606940430085461504,pose_received,1606940430084794669,-1.570,-0.523,0.052,-1.570,-1.518,-0.297
1606940430105867008,pose_received,1606940430104785267,-1.570,-0.523,0.052,-1.570,-1.518,-0.297
1606940430126089984,pose_received,1606940430125023265,-1.570,-0.566,0.052,-1.570,-1.518,-0.297
1606940430146606848,pose_received,1606940430144867864,-1.570,-0.576,0.052,-1.570,-1.518,-0.297
1606940430166187776,pose_received,1606940430164796463,-1.570,-0.576,0.052,-1.570,-1.518,-0.297
1606940430185866752,pose_received,1606940430184795862,-1.570,-0.611,0.070,-1.570,-1.500,-0.297
1606940430205344256,pose_received,1606940430204797361,-1.570,-0.611,0.070,-1.570,-1.500,-0.297
1606940430226655488,pose_received,1606940430224797459,-1.570,-0.639,0.070,-1.570,-1.500,-0.297
1606940430245975040,pose_received,1606940430244853258,-1.570,-0.645,0.070,-1.570,-1.500,-0.297
1606940430265458432,pose_received,1606940430264826257,-1.570,-0.645,0.070,-1.570,-1.500,-0.297
1606940430285859840,pose_received,1606940430284767856,-1.570,-0.645,0.070,-1.570,-1.500,-0.297
1606940430305635328,pose_received,1606940430304795754,-1.570,-0.680,0.087,-1.570,-1.483,-0.297
1606940430325755648,pose_received,1606940430324799853,-1.570,-0.680,0.087,-1.570,-1.483,-0.297
1606940430345488384,pose_received,1606940430344913351,-1.570,-0.680,0.087,-1.570,-1.483,-0.297
1606940430365581056,pose_received,1606940430364796350,-1.570,-0.733,0.087,-1.570,-1.483,-0.297
1606940430385452032,pose_received,1606940430384795649,-1.570,-0.733,0.087,-1.570,-1.483,-0.297
1606940430405762816,pose_received,1606940430404814747,-1.570,-0.733,0.087,-1.570,-1.483,-0.297
1606940430425614848,pose_received,1606940430424825746,-1.570,-0.761,0.087,-1.570,-1.483,-0.297
1606940430445584896,pose_received,1606940430444795745,-1.570,-0.768,0.087,-1.570,-1.483,-0.297
1606940430465817344,pose_received,1606940430464801943,-1.570,-0.768,0.087,-1.570,-1.483,-0.297
1606940430485615360,pose_received,1606940430484797342,-1.570,-0.779,0.099,-1.570,-1.471,-0.297
1606940430505352960,pose_received,1606940430504797941,-1.570,-0.785,0.105,-1.570,-1.465,-0.297
1606940430525852928,pose_received,1606940430524799639,-1.570,-0.785,0.105,-1.570,-1.465,-0.297
1606940430545332480,pose_received,1606940430544850538,-1.570,-0.785,0.105,-1.570,-1.465,-0.297
1606940430565821696,pose_received,1606940430564793637,-1.570,-0.785,0.105,-1.570,-1.465,-0.297
1606940430585700096,pose_received,1606940430584796835,-1.570,-0.837,0.122,-1.570,-1.448,-0.297
1606940430605866240,pose_received,1606940430604781434,-1.570,-0.837,0.122,-1.570,-1.448,-0.297
1606940430625983744,pose_received,1606940430624797733,-1.570,-0.837,0.122,-1.570,-1.448,-0.297
1606940430645363200,pose_received,1606940430644800631,-1.570,-0.890,0.140,-1.570,-1.430,-0.297
1606940430665511680,pose_received,1606940430664794330,-1.570,-0.890,0.140,-1.570,-1.430,-0.297
1606940430685745408,pose_received,1606940430684799529,-1.570,-0.890,0.140,-1.570,-1.430,-0.297
1606940430705756928,pose_received,1606940430704794227,-1.570,-0.890,0.140,-1.570,-1.430,-0.297
1606940430725324800,pose_received,1606940430724798426,-1.570,-0.933,0.154,-1.570,-1.416,-0.297
1606940430745379328,pose_received,1606940430744847124,-1.570,-0.942,0.157,-1.570,-1.413,-0.297
1606940430765495808,pose_received,1606940430764794423,-1.570,-0.942,0.157,-1.570,-1.413,-0.297
1606940430786032896,pose_received,1606940430784916321,-1.570,-0.959,0.157,-1.570,-1.413,-0.297
1606940430806259968,pose_received,1606940430804766821,-1.570,-0.959,0.157,-1.570,-1.413,-0.297
1606940430825783296,pose_received,1606940430824795419,-1.570,-0.959,0.157,-1.570,-1.413,-0.297
1606940430845992960,pose_received,1606940430845199516,-1.570,-0.959,0.157,-1.570,-1.413,-0.297
1606940430865686784,pose_received,1606940430864795017,-1.570,-1.029,0.174,-1.570,-1.396,-0.297
1606940430885547264,pose_received,1606940430884796915,-1.570,-1.029,0.174,-1.570,-1.396,-0.297
1606940430905635072,pose_received,1606940430904815314,-1.570,-1.029,0.174,-1.570,-1.396,-0.297
1606940430926023424,pose_received,1606940430924797313,-1.570,-1.029,0.174,-1.570,-1.396,-0.297
1606940430946217216,pose_received,1606940430944905011,-1.570,-1.064,0.192,-1.570,-1.378,-0.297
1606940430965310464,pose_received,1606940430964795510,-1.570,-1.064,0.192,-1.570,-1.378,-0.297
1606940430986125312,pose_received,1606940430984855008,-1.570,-1.074,0.201,-1.570,-1.369,-0.297
1606940431005637120,pose_received,1606940431004809907,-1.570,-1.082,0.209,-1.570,-1.361,-0.297
1606940431025926656,pose_received,1606940431024796406,-1.570,-1.082,0.209,-1.570,-1.361,-0.297
1606940431045658624,pose_received,1606940431044847404,-1.570,-1.082,0.209,-1.570,-1.361,-0.297
1606940431065331456,pose_received,1606940431064796903,-1.570,-1.082,0.209,-1.570,-1.361,-0.297
1606940431085694976,pose_received,1606940431084868502,-1.570,-1.082,0.209,-1.570,-1.361,-0.297
1606940431105620992,pose_received,1606940431104808601,-1.570,-1.082,0.209,-1.570,-1.361,-0.297
1606940431125718784,pose_received,1606940431124795500,-1.570,-1.095,0.209,-1.570,-1.361,-0.297
1606940431145846016,pose_received,1606940431144888598,-1.570,-1.099,0.209,-1.570,-1.361,-0.297
1606940431165234688,pose_received,1606940431164795597,-1.570,-1.099,0.209,-1.570,-1.361,-0.297
1606940431185307648,pose_received,1606940431184796396,-1.570,-1.099,0.209,-1.570,-1.361,-0.297
1606940431205579008,pose_received,1606940431204833194,-1.570,-1.099,0.209,-1.570,-1.361,-0.297
1606940431225647616,pose_received,1606940431224797093,-1.570,-1.099,0.209,-1.570,-1.361,-0.297
1606940431245908224,pose_received,1606940431244796192,-1.570,-1.099,0.209,-1.570,-1.361,-0.297
1606940431265351424,pose_received,1606940431264781891,-1.570,-1.099,0.209,-1.570,-1.361,-0.297
1606940431285794048,pose_received,1606940431284794389,-1.570,-1.099,0.209,-1.570,-1.361,-0.297
1606940431306000896,pose_received,1606940431305246686,-1.570,-1.099,0.209,-1.570,-1.361,-0.297
1606940431325572864,pose_received,1606940431324799987,-1.570,-1.099,0.209,-1.570,-1.361,-0.297
1606940431345797888,pose_received,1606940431344859485,-1.570,-1.099,0.209,-1.570,-1.361,-0.297
1606940431365486592,pose_received,1606940431364796184,-1.570,-1.132,0.226,-1.570,-1.344,-0.297
1606940431385680896,pose_received,1606940431384794083,-1.570,-1.134,0.227,-1.570,-1.343,-0.297
1606940431405346560,pose_received,1606940431404797682,-1.570,-1.134,0.227,-1.570,-1.343,-0.297
1606940431426476288,pose_received,1606940431424796780,-1.570,-1.145,0.227,-1.570,-1.343,-0.297
1606940431445560320,pose_received,1606940431444796279,-1.570,-1.151,0.227,-1.570,-1.343,-0.297
1606940431465977856,pose_received,1606940431464808378,-1.570,-1.151,0.227,-1.570,-1.343,-0.297
1606940431485528320,pose_received,1606940431484795577,-1.570,-1.151,0.227,-1.570,-1.343,-0.297
1606940431505357568,pose_received,1606940431504795075,-1.570,-1.151,0.227,-1.570,-1.343,-0.297
1606940431525868800,pose_received,1606940431524798974,-1.570,-1.151,0.227,-1.570,-1.343,-0.297
1606940431545867520,pose_received,1606940431544886972,-1.570,-1.151,0.227,-1.570,-1.343,-0.297
1606940431565883136,pose_received,1606940431564798571,-1.570,-1.151,0.227,-1.570,-1.343,-0.297
1606940431585610240,pose_received,1606940431584795270,-1.570,-1.151,0.227,-1.570,-1.343,-0.297
1606940431605669376,pose_received,1606940431604794069,-1.570,-1.186,0.244,-1.570,-1.326,-0.297
1606940431625727488,pose_received,1606940431624795368,-1.570,-1.186,0.244,-1.570,-1.326,-0.297
1606940431645378304,pose_received,1606940431644795666,-1.570,-1.186,0.244,-1.570,-1.326,-0.297
1606940431665965312,pose_received,1606940431664796065,-1.570,-1.186,0.244,-1.570,-1.326,-0.297
1606940431685951232,pose_received,1606940431684880863,-1.570,-1.186,0.244,-1.570,-1.326,-0.297
1606940431705492480,pose_received,1606940431704793262,-1.570,-1.186,0.244,-1.570,-1.326,-0.297
1606940431725745152,pose_received,1606940431724811161,-1.570,-1.186,0.254,-1.570,-1.316,-0.297
1606940431746157568,pose_received,1606940431744858160,-1.570,-1.186,0.262,-1.570,-1.308,-0.297
1606940431765718016,pose_received,1606940431764792459,-1.570,-1.186,0.262,-1.570,-1.308,-0.297
1606940431785426176,pose_received,1606940431784796057,-1.570,-1.186,0.262,-1.570,-1.308,-0.297
1606940431805565184,pose_received,1606940431804874556,-1.570,-1.186,0.262,-1.570,-1.308,-0.297
1606940431825614848,pose_received,1606940431824797455,-1.570,-1.186,0.262,-1.570,-1.308,-0.297
1606940431845882624,pose_received,1606940431844796253,-1.570,-1.186,0.262,-1.570,-1.308,-0.297
1606940431865887488,pose_received,1606940431864793952,-1.570,-1.186,0.262,-1.570,-1.308,-0.297
1606940431885343232,pose_received,1606940431884795051,-1.570,-1.186,0.262,-1.570,-1.308,-0.297
1606940431905623808,pose_received,1606940431904793750,-1.570,-1.186,0.262,-1.570,-1.308,-0.297
1606940431925325056,pose_received,1606940431924800648,-1.570,-1.186,0.262,-1.570,-1.308,-0.297
1606940431945767680,pose_received,1606940431944833247,-1.570,-1.186,0.262,-1.570,-1.308,-0.297
1606940431966408704,pose_received,1606940431964788546,-1.570,-1.186,0.262,-1.570,-1.308,-0.297
1606940431985931776,pose_received,1606940431984808644,-1.570,-1.186,0.262,-1.570,-1.308,-0.297
1606940432005854464,pose_received,1606940432004760643,-1.570,-1.186,0.262,-1.570,-1.308,-0.297
1606940432026048512,pose_received,1606940432024791642,-1.570,-1.186,0.262,-1.570,-1.308,-0.297
1606940432045611008,pose_received,1606940432045059339,-1.570,-1.186,0.262,-1.570,-1.308,-0.297
1606940432065695488,pose_received,1606940432064801940,-1.570,-1.186,0.262,-1.570,-1.308,-0.297
1606940432085606400,pose_received,1606940432084798438,-1.570,-1.186,0.262,-1.570,-1.308,-0.297
1606940432106101248,pose_received,1606940432104803037,-1.570,-1.186,0.262,-1.570,-1.308,-0.297
1606940432125545728,pose_received,1606940432124795836,-1.570,-1.186,0.262,-1.570,-1.308,-0.297
1606940432145310976,pose_received,1606940432144837235,-1.570,-1.186,0.262,-1.570,-1.308,-0.297
1606940432166338560,pose_received,1606940432165119732,-1.570,-1.186,0.262,-1.570,-1.308,-0.297
1606940432185613568,pose_received,1606940432184796632,-1.570,-1.186,0.262,-1.570,-1.308,-0.297
1606940432205869824,pose_received,1606940432204772431,-1.570,-1.186,0.262,-1.570,-1.308,-0.297
1606940432226138368,pose_received,1606940432225059329,-1.570,-1.186,0.262,-1.570,-1.308,-0.297
1606940432245713920,pose_received,1606940432244816729,-1.570,-1.186,0.262,-1.570,-1.308,-0.297
1606940432265350144,pose_received,1606940432264794227,-1.570,-1.186,0.262,-1.570,-1.308,-0.297
1606940432285605120,pose_received,1606940432284789926,-1.570,-1.186,0.262,-1.570,-1.308,-0.297
1606940432305701632,pose_received,1606940432304803425,-1.570,-1.186,0.262,-1.570,-1.308,-0.297
1606940432325525504,pose_received,1606940432324792124,-1.570,-1.186,0.262,-1.570,-1.308,-0.297
1606940432345691904,pose_received,1606940432344848022,-1.570,-1.186,0.262,-1.570,-1.308,-0.297
1606940432365520640,pose_received,1606940432364796321,-1.570,-1.186,0.262,-1.570,-1.308,-0.297
1606940432385554688,pose_received,1606940432384797220,-1.570,-1.186,0.262,-1.570,-1.308,-0.297
1606940432405975296,pose_received,1606940432404809919,-1.570,-1.186,0.262,-1.570,-1.308,-0.297
1606940432425494528,pose_received,1606940432424795018,-1.570,-1.186,0.262,-1.570,-1.308,-0.297
1606940432445801728,pose_received,1606940432444797316,-1.570,-1.186,0.262,-1.570,-1.308,-0.297
1606940432465776384,pose_received,1606940432464796015,-1.570,-1.186,0.262,-1.570,-1.308,-0.297
1606940432485797632,pose_received,1606940432484794614,-1.570,-1.186,0.262,-1.570,-1.308,-0.297
1606940432505794816,pose_received,1606940432504812513,-1.570,-1.186,0.262,-1.570,-1.308,-0.297
1606940432525843712,pose_received,1606940432524796212,-1.570,-1.186,0.262,-1.570,-1.308,-0.297
1606940432545566464,pose_received,1606940432544839110,-1.570,-1.186,0.262,-1.570,-1.308,-0.297
1606940432565827328,pose_received,1606940432564795809,-1.570,-1.186,0.262,-1.570,-1.308,-0.297
1606940432585624576,pose_received,1606940432585067507,-1.570,-1.186,0.262,-1.570,-1.308,-0.297
1606940432605861376,pose_received,1606940432604798707,-1.570,-1.186,0.262,-1.570,-1.308,-0.297
1606940432625483520,pose_received,1606940432624798305,-1.570,-1.186,0.262,-1.570,-1.308,-0.297
1606940432645903104,pose_received,1606940432645115003,-1.570,-1.186,0.262,-1.570,-1.308,-0.297
1606940432665534720,pose_received,1606940432664777803,-1.570,-1.186,0.262,-1.570,-1.308,-0.297
1606940432685330688,pose_received,1606940432684796202,-1.570,-1.186,0.262,-1.570,-1.308,-0.297
1606940432705857024,pose_received,1606940432704795901,-1.570,-1.186,0.262,-1.570,-1.308,-0.297
1606940432725902848,pose_received,1606940432724797699,-1.570,-1.186,0.262,-1.570,-1.308,-0.297
1606940432746419712,pose_received,1606940432745607694,-1.570,-1.186,0.262,-1.570,-1.308,-0.297
1606940432765775616,pose_received,1606940432765180895,-1.570,-1.186,0.262,-1.570,-1.308,-0.297
1606940432785498112,pose_received,1606940432784795296,-1.570,-1.186,0.262,-1.570,-1.308,-0.297
1606940432805939200,pose_received,1606940432804785895,-1.570,-1.186,0.262,-1.570,-1.308,-0.297
1606940432825363200,pose_received,1606940432824801093,-1.570,-1.186,0.262,-1.570,-1.308,-0.297
1606940432845789696,pose_received,1606940432844796092,-1.570,-1.186,0.262,-1.570,-1.308,-0.297
1606940432865548800,pose_received,1606940432864800191,-1.570,-1.186,0.262,-1.570,-1.308,-0.297
1606940432885647616,pose_received,1606940432885095488,-1.570,-1.186,0.262,-1.570,-1.308,-0.297
1606940432905486848,pose_received,1606940432904794388,-1.570,-1.186,0.262,-1.570,-1.308,-0.297
1606940432925694720,pose_received,1606940432924797287,-1.570,-1.186,0.262,-1.570,-1.308,-0.297
1606940432945490432,pose_received,1606940432944797686,-1.570,-1.186,0.262,-1.570,-1.308,-0.297
1606940432965608704,pose_received,1606940432964794885,-1.570,-1.186,0.262,-1.570,-1.308,-0.297
1606940432985770752,pose_received,1606940432984795184,-1.570,-1.186,0.262,-1.570,-1.308,-0.297
1606940433005594880,pose_received,1606940433004794482,-1.570,-1.186,0.262,-1.570,-1.308,-0.297
1606940433025720320,pose_received,1606940433024807181,-1.570,-1.186,0.262,-1.570,-1.308,-0.297
1606940433045542400,pose_received,1606940433044795680,-1.570,-1.186,0.262,-1.570,-1.308,-0.297
1606940433065594880,pose_received,1606940433064793379,-1.570,-1.186,0.262,-1.570,-1.308,-0.297
1606940433085745664,pose_received,1606940433084794578,-1.570,-1.186,0.262,-1.570,-1.308,-0.297
1606940433105620736,pose_received,1606940433104793376,-1.570,-1.186,0.262,-1.570,-1.308,-0.297
1606940433125828864,pose_received,1606940433124757576,-1.570,-1.186,0.262,-1.570,-1.308,-0.297
1606940433145520384,pose_received,1606940433144861574,-1.570,-1.186,0.262,-1.570,-1.308,-0.297
1606940433165689344,pose_received,1606940433164792973,-1.570,-1.186,0.262,-1.570,-1.308,-0.297
1606940433185667584,pose_received,1606940433184795872,-1.570,-1.186,0.262,-1.570,-1.308,-0.297
1606940433205805056,pose_received,1606940433204792371,-1.570,-1.186,0.262,-1.570,-1.308,-0.297
1606940433225600256,pose_received,1606940433224796270,-1.570,-1.186,0.262,-1.570,-1.308,-0.297
1606940433245605888,pose_received,1606940433244796268,-1.570,-1.186,0.262,-1.570,-1.308,-0.297
1606940433265497856,pose_received,1606940433264777067,-1.570,-1.186,0.262,-1.570,-1.308,-0.297
1606940433285742080,pose_received,1606940433284815866,-1.570,-1.186,0.262,-1.570,-1.308,-0.297
1606940433305365760,pose_received,1606940433304794465,-1.570,-1.186,0.262,-1.570,-1.308,-0.297
1606940433325609472,pose_received,1606940433324795464,-1.570,-1.186,0.262,-1.570,-1.308,-0.297
1606940433345291776,pose_received,1606940433344845162,-1.570,-1.186,0.262,-1.570,-1.308,-0.297
1606940433365695488,pose_received,1606940433364795361,-1.570,-1.186,0.262,-1.570,-1.308,-0.297
1606940433385565696,pose_received,1606940433384795560,-1.570,-1.186,0.262,-1.570,-1.308,-0.297
1606940433405646080,pose_received,1606940433404956558,-1.570,-1.186,0.262,-1.570,-1.308,-0.297
1606940433425423360,pose_received,1606940433424796558,-1.570,-1.186,0.262,-1.570,-1.308,-0.297
1606940433445216000,pose_received,1606940433444776257,-1.570,-1.186,0.262,-1.570,-1.308,-0.297
1606940433466512128,pose_received,1606940433464772256,-1.570,-0.537,0.118,-1.570,-1.452,-0.297
1606940433485912576,pose_received,1606940433484801554,-1.570,0.000,0.000,-1.570,-1.570,-0.297
1606940433506210304,pose_received,1606940433504797853,-1.570,0.000,0.000,-1.570,-1.570,-0.297
1606940433525446656,pose_received,1606940433524800552,-1.570,0.000,0.000,-1.570,-1.570,-0.297
1606940433546200832,pose_received,1606940433544906850,-1.570,0.000,0.000,-1.570,-1.570,-0.297
1606940433565368064,pose_received,1606940433564795150,-1.570,0.000,0.000,-1.570,-1.570,-0.297
1606940433586002688,pose_received,1606940433584795449,-1.570,0.000,0.000,-1.570,-1.570,-0.297
1606940433606183424,pose_received,1606940433604854547,-1.570,0.000,0.000,-1.570,-1.570,-0.297
1606940433625835520,pose_received,1606940433624794646,-1.570,0.000,0.000,-1.570,-1.570,-0.297
1606940433645897984,pose_received,1606940433644799645,-1.570,0.000,0.000,-1.570,-1.570,-0.297
1606940433665775872,pose_received,1606940433664798144,-1.570,0.000,0.000,-1.570,-1.570,-0.297
1606940433685756160,pose_received,1606940433684794743,-1.570,0.000,0.000,-1.570,-1.570,-0.297
1606940433705831424,pose_received,1606940433704800942,-1.570,0.000,0.000,-1.570,-1.570,-0.297
1606940433725876736,pose_received,1606940433724795940,-1.570,0.000,0.000,-1.570,-1.570,-0.297
1606940433745894656,pose_received,1606940433744871539,-1.570,0.000,0.000,-1.570,-1.570,-0.297
1606940433765422592,pose_received,1606940433764794738,-1.570,0.000,0.000,-1.570,-1.570,-0.297
1606940433785726208,pose_received,1606940433784794337,-1.570,0.000,0.000,-1.570,-1.570,-0.297
1606940433805849344,pose_received,1606940433804796236,-1.570,0.000,0.000,-1.570,-1.570,-0.297
1606940433825843712,pose_received,1606940433824796935,-1.570,0.000,0.000,-1.570,-1.570,-0.297
1606940433845760512,pose_received,1606940433844793934,-1.570,0.000,0.000,-1.570,-1.570,-0.297
1606940433865769216,pose_received,1606940433864794732,-1.570,0.000,0.000,-1.570,-1.570,-0.297
1606940433885635584,pose_received,1606940433884798631,-1.570,0.000,0.000,-1.570,-1.570,-0.297
1606940433905553920,pose_received,1606940433904793430,-1.570,0.000,0.000,-1.570,-1.570,-0.297
1606940433925492992,pose_received,1606940433924795029,-1.570,0.000,0.000,-1.570,-1.570,-0.297
1606940433945357824,pose_received,1606940433944797128,-1.570,0.000,0.000,-1.570,-1.570,-0.297
1606940433965775616,pose_received,1606940433964810126,-1.570,0.000,0.000,-1.570,-1.570,-0.297
1606940433985361408,pose_received,1606940433984793525,-1.570,0.000,0.000,-1.570,-1.570,-0.297
1606940434005723136,pose_received,1606940434004790424,-1.570,0.000,0.000,-1.570,-1.570,-0.297
1606940434025591296,pose_received,1606940434024800123,-1.570,0.000,0.000,-1.570,-1.570,-0.297
1606940434045630720,pose_received,1606940434044797122,-1.570,0.000,0.000,-1.570,-1.570,-0.297
1606940434065904896,pose_received,1606940434064792021,-1.570,0.000,0.000,-1.570,-1.570,-0.297
1606940434085605888,pose_received,1606940434085052119,-1.570,0.000,0.000,-1.570,-1.570,-0.297
1606940434105357312,pose_received,1606940434104796619,-1.570,0.000,0.000,-1.570,-1.570,-0.297
1606940434125765888,pose_received,1606940434124797718,-1.570,0.000,0.000,-1.570,-1.570,-0.297
1606940434145889024,pose_received,1606940434144927816,-1.570,0.000,0.000,-1.570,-1.570,-0.297
1606940434165563904,pose_received,1606940434164864615,-1.570,0.000,0.000,-1.570,-1.570,-0.297
1606940434185776384,pose_received,1606940434184795814,-1.570,0.000,0.000,-1.570,-1.570,-0.297
1606940434205718784,pose_received,1606940434204792813,-1.570,0.000,0.000,-1.570,-1.570,-0.297
1606940434225875200,pose_received,1606940434224791112,-1.570,0.000,0.000,-1.570,-1.570,-0.297
1606940434245730304,pose_received,1606940434244911010,-1.570,0.000,0.000,-1.570,-1.570,-0.297
1606940434265490432,pose_received,1606940434265028009,-1.570,0.000,0.000,-1.570,-1.570,-0.297
1606940434285792768,pose_received,1606940434284793509,-1.570,0.000,0.000,-1.570,-1.570,-0.297
1606940434305320192,pose_received,1606940434304799008,-1.570,0.000,0.000,-1.570,-1.570,-0.297
1606940434325763840,pose_received,1606940434324834106,-1.570,0.000,0.000,-1.570,-1.570,-0.297
1606940434345766912,pose_received,1606940434344854705,-1.570,0.000,0.000,-1.570,-1.570,-0.297
1606940434365818624,pose_received,1606940434364765005,-1.570,0.000,0.000,-1.570,-1.570,-0.297
1606940434386173696,pose_received,1606940434385085202,-1.570,0.000,0.000,-1.570,-1.570,-0.297
1606940434405678080,pose_received,1606940434404796402,-1.570,0.000,0.000,-1.570,-1.570,-0.297
1606940434425703680,pose_received,1606940434424804101,-1.570,0.000,0.000,-1.570,-1.570,-0.297
1606940434445551360,pose_received,1606940434444796900,-1.570,0.000,0.000,-1.570,-1.570,-0.297
1606940434465720320,pose_received,1606940434464765799,-1.570,0.000,0.000,-1.570,-1.570,-0.297
1606940434485699584,pose_received,1606940434484798998,-1.570,0.000,0.000,-1.570,-1.570,-0.297
1606940434505418752,pose_received,1606940434504794997,-1.570,0.000,0.000,-1.570,-1.570,-0.297
1606940434525914880,pose_received,1606940434524801296,-1.570,0.000,0.000,-1.570,-1.570,-0.297
1606940434546155008,pose_received,1606940434544814294,-1.570,0.000,0.000,-1.570,-1.570,-0.297
1606940434565357568,pose_received,1606940434564796593,-1.570,0.000,0.000,-1.570,-1.570,-0.297
1606940434585898240,pose_received,1606940434584810192,-1.570,0.000,0.000,-1.570,-1.570,-0.297
1606940434605709312,pose_received,1606940434604802191,-1.570,0.000,0.000,-1.570,-1.570,-0.297
1606940434625569280,pose_received,1606940434624830590,-1.570,0.000,0.000,-1.570,-1.570,-0.297
1606940434645970432,pose_received,1606940434644800789,-1.570,0.000,0.000,-1.570,-1.570,-0.297
1606940434665654272,pose_received,1606940434664785888,-1.570,0.000,0.000,-1.570,-1.570,-0.297
1606940434686013952,pose_received,1606940434684799987,-1.570,0.000,0.000,-1.570,-1.570,-0.297
1606940434705817600,pose_received,1606940434704897985,-1.570,0.000,0.000,-1.570,-1.570,-0.297
1606940434725458944,pose_received,1606940434724887284,-1.570,0.000,0.000,-1.570,-1.570,-0.297
1606940434745618432,pose_received,1606940434745124382,-1.570,0.000,0.000,-1.570,-1.570,-0.297
1606940434765554688,pose_received,1606940434764794682,-1.570,0.000,0.000,-1.570,-1.570,-0.297
1606940434785788928,pose_received,1606940434784795581,-1.570,0.000,0.000,-1.570,-1.570,-0.297
1606940434805687552,pose_received,1606940434804827080,-1.570,0.000,0.000,-1.570,-1.570,-0.297
1606940434825409536,pose_received,1606940434824794479,-1.570,0.000,0.000,-1.570,-1.570,-0.297
1606940434845801728,pose_received,1606940434844814478,-1.570,0.000,0.000,-1.570,-1.570,-0.297
1606940434871185152,pose_received,1606940434867847961,-1.570,0.000,0.000,-1.570,-1.570,-0.297
1606940434888899840,pose_received,1606940434884803476,-1.570,0.000,0.000,-1.570,-1.570,-0.297
1606940434905729536,pose_received,1606940434904804275,-1.570,0.000,0.000,-1.570,-1.570,-0.297
1606940434925824768,pose_received,1606940434924798674,-1.570,0.000,0.000,-1.570,-1.570,-0.297
1606940434945778176,pose_received,1606940434944937472,-1.570,0.000,0.000,-1.570,-1.570,-0.297
1606940434965754880,pose_received,1606940434964795771,-1.570,0.000,0.000,-1.570,-1.570,-0.297
1606940434985500160,pose_received,1606940434984796870,-1.570,0.023,0.058,-1.570,-1.512,-0.297
1606940435005665792,pose_received,1606940435004810769,-1.570,0.035,0.087,-1.570,-1.483,-0.297
1606940435025853440,pose_received,1606940435024794868,-1.570,0.035,0.087,-1.570,-1.483,-0.297
1606940435045538560,pose_received,1606940435044796267,-1.570,0.035,0.087,-1.570,-1.483,-0.297
1606940435066505728,pose_received,1606940435064877566,-1.570,0.035,0.087,-1.570,-1.483,-0.297
1606940435085713664,pose_received,1606940435084794865,-1.570,0.035,0.087,-1.570,-1.483,-0.297
1606940435105745664,pose_received,1606940435104821864,-1.570,0.035,0.087,-1.570,-1.483,-0.297
1606940435125737472,pose_received,1606940435125214261,-1.570,0.035,0.087,-1.570,-1.483,-0.297
1606940435145506048,pose_received,1606940435144798062,-1.570,0.035,0.087,-1.570,-1.483,-0.297
1606940435165360640,pose_received,1606940435164795161,-1.570,0.017,0.070,-1.570,-1.500,-0.297
1606940435185502976,pose_received,1606940435184795260,-1.570,0.017,0.070,-1.570,-1.500,-0.297
1606940435205675008,pose_received,1606940435205004158,-1.570,0.017,0.070,-1.570,-1.500,-0.297
1606940435225519104,pose_received,1606940435224796458,-1.570,-0.017,0.070,-1.570,-1.500,-0.297
1606940435245758208,pose_received,1606940435244792557,-1.570,-0.017,0.070,-1.570,-1.500,-0.297
1606940435265346560,pose_received,1606940435264974155,-1.570,-0.037,0.060,-1.570,-1.510,-0.297
1606940435285648128,pose_received,1606940435284793655,-1.570,-0.052,0.052,-1.570,-1.518,-0.297
1606940435305734144,pose_received,1606940435304792654,-1.570,-0.052,0.052,-1.570,-1.518,-0.297
1606940435326174464,pose_received,1606940435324973852,-1.570,-0.052,0.052,-1.570,-1.518,-0.297
1606940435346402816,pose_received,1606940435345605547,-1.570,-0.052,0.052,-1.570,-1.518,-0.297
1606940435365540864,pose_received,1606940435364885150,-1.570,-0.105,0.070,-1.570,-1.500,-0.297
1606940435385861632,pose_received,1606940435384798149,-1.570,-0.105,0.070,-1.570,-1.500,-0.297
1606940435405672704,pose_received,1606940435404803548,-1.570,-0.105,0.070,-1.570,-1.500,-0.297
1606940435425784576,pose_received,1606940435424812547,-1.570,-0.157,0.052,-1.570,-1.518,-0.297
1606940435445330944,pose_received,1606940435444796346,-1.570,-0.157,0.052,-1.570,-1.518,-0.297
1606940435466005504,pose_received,1606940435464779745,-1.570,-0.177,0.062,-1.570,-1.508,-0.297
1606940435485508352,pose_received,1606940435484795044,-1.570,-0.192,0.070,-1.570,-1.500,-0.297
1606940435505634304,pose_received,1606940435504795543,-1.570,-0.192,0.070,-1.570,-1.500,-0.297
1606940435526551296,pose_received,1606940435525414639,-1.570,-0.192,0.070,-1.570,-1.500,-0.297
1606940435545796608,pose_received,1606940435544855841,-1.570,-0.192,0.070,-1.570,-1.500,-0.297
1606940435565265152,pose_received,1606940435564797040,-1.570,-0.209,0.070,-1.570,-1.500,-0.297
1606940435586159616,pose_received,1606940435584966438,-1.570,-0.209,0.070,-1.570,-1.500,-0.297
1606940435606741248,pose_received,1606940435605556434,-1.570,-0.209,0.070,-1.570,-1.500,-0.297
1606940435626074368,pose_received,1606940435624896736,-1.570,-0.244,0.070,-1.570,-1.500,-0.297
1606940435645571072,pose_received,1606940435644796536,-1.570,-0.244,0.070,-1.570,-1.500,-0.297
1606940435665512704,pose_received,1606940435664796235,-1.570,-0.264,0.070,-1.570,-1.500,-0.297
1606940435685545472,pose_received,1606940435684800334,-1.570,-0.279,0.070,-1.570,-1.500,-0.297
1606940435706077184,pose_received,1606940435704806033,-1.570,-0.279,0.070,-1.570,-1.500,-0.297
1606940435725574144,pose_received,1606940435724798732,-1.570,-0.297,0.070,-1.570,-1.500,-0.297
1606940435745278976,pose_received,1606940435744809730,-1.570,-0.297,0.070,-1.570,-1.500,-0.297
1606940435765660672,pose_received,1606940435764791630,-1.570,-0.326,0.070,-1.570,-1.500,-0.297
1606940435785643008,pose_received,1606940435784767729,-1.570,-0.349,0.070,-1.570,-1.500,-0.297
1606940435805706752,pose_received,1606940435804796827,-1.570,-0.349,0.070,-1.570,-1.500,-0.297
1606940435825418496,pose_received,1606940435824827626,-1.570,-0.349,0.070,-1.570,-1.500,-0.297
1606940435845897216,pose_received,1606940435844774725,-1.570,-0.401,0.052,-1.570,-1.518,-0.297
1606940435865297920,pose_received,1606940435864795824,-1.570,-0.401,0.052,-1.570,-1.518,-0.297
1606940435885668352,pose_received,1606940435884807323,-1.570,-0.439,0.065,-1.570,-1.505,-0.297
1606940435905776896,pose_received,1606940435904808822,-1.570,-0.454,0.070,-1.570,-1.500,-0.297
1606940435925898752,pose_received,1606940435925213819,-1.570,-0.454,0.070,-1.570,-1.500,-0.297
1606940435945770496,pose_received,1606940435944860820,-1.570,-0.488,0.070,-1.570,-1.500,-0.297
1606940435965614336,pose_received,1606940435965191917,-1.570,-0.488,0.070,-1.570,-1.500,-0.297
1606940435985665792,pose_received,1606940435984801418,-1.570,-0.526,0.070,-1.570,-1.500,-0.297
1606940436006595328,pose_received,1606940436005373314,-1.570,-0.541,0.070,-1.570,-1.500,-0.297
1606940436026479616,pose_received,1606940436025293313,-1.570,-0.541,0.070,-1.570,-1.500,-0.297
1606940436045553408,pose_received,1606940436044798715,-1.570,-0.611,0.087,-1.570,-1.483,-0.297
1606940436065674496,pose_received,1606940436064804314,-1.570,-0.611,0.087,-1.570,-1.483,-0.297
1606940436085504512,pose_received,1606940436084796013,-1.570,-0.611,0.087,-1.570,-1.483,-0.297
1606940436105959168,pose_received,1606940436104805212,-1.570,-0.625,0.087,-1.570,-1.483,-0.297
1606940436125493248,pose_received,1606940436124786411,-1.570,-0.628,0.087,-1.570,-1.483,-0.297
1606940436146044928,pose_received,1606940436144961109,-1.570,-0.628,0.087,-1.570,-1.483,-0.297
1606940436165600000,pose_received,1606940436164793709,-1.570,-0.628,0.087,-1.570,-1.483,-0.297
1606940436185717760,pose_received,1606940436184797408,-1.570,-0.652,0.087,-1.570,-1.483,-0.297
1606940436205795840,pose_received,1606940436204809507,-1.570,-0.663,0.087,-1.570,-1.483,-0.297
1606940436225368832,pose_received,1606940436224831806,-1.570,-0.663,0.087,-1.570,-1.483,-0.297
1606940436245574400,pose_received,1606940436244798305,-1.570,-0.680,0.087,-1.570,-1.483,-0.297
1606940436265334528,pose_received,1606940436264797504,-1.570,-0.680,0.087,-1.570,-1.483,-0.297
1606940436285377024,pose_received,1606940436284794103,-1.570,-0.680,0.087,-1.570,-1.483,-0.297
1606940436305703424,pose_received,1606940436304812702,-1.570,-0.727,0.103,-1.570,-1.467,-0.297
1606940436325492480,pose_received,1606940436324795801,-1.570,-0.733,0.105,-1.570,-1.465,-0.297
1606940436345336576,pose_received,1606940436344796800,-1.570,-0.733,0.105,-1.570,-1.465,-0.297
1606940436365544704,pose_received,1606940436364796099,-1.570,-0.755,0.105,-1.570,-1.465,-0.297
1606940436385544704,pose_received,1606940436384792998,-1.570,-0.768,0.105,-1.570,-1.465,-0.297
1606940436405934080,pose_received,1606940436404806197,-1.570,-0.768,0.105,-1.570,-1.465,-0.297
1606940436425630208,pose_received,1606940436425043895,-1.570,-0.768,0.105,-1.570,-1.465,-0.297
1606940436445316608,pose_received,1606940436444796995,-1.570,-0.802,0.122,-1.570,-1.448,-0.297
1606940436465905408,pose_received,1606940436464767594,-1.570,-0.802,0.122,-1.570,-1.448,-0.297
1606940436485640192,pose_received,1606940436484836093,-1.570,-0.839,0.122,-1.570,-1.448,-0.297
1606940436505566464,pose_received,1606940436504796092,-1.570,-0.855,0.122,-1.570,-1.448,-0.297
1606940436525853440,pose_received,1606940436524794591,-1.570,-0.855,0.122,-1.570,-1.448,-0.297
1606940436545721088,pose_received,1606940436544824990,-1.570,-0.855,0.122,-1.570,-1.448,-0.297
1606940436565587200,pose_received,1606940436564795789,-1.570,-0.880,0.135,-1.570,-1.435,-0.297
1606940436585641984,pose_received,1606940436584794488,-1.570,-0.890,0.140,-1.570,-1.430,-0.297
1606940436605822208,pose_received,1606940436604798587,-1.570,-0.890,0.140,-1.570,-1.430,-0.297
1606940436625803008,pose_received,1606940436624794986,-1.570,-0.890,0.140,-1.570,-1.430,-0.297
1606940436645549824,pose_received,1606940436644794085,-1.570,-0.890,0.140,-1.570,-1.430,-0.297
1606940436665764096,pose_received,1606940436664842084,-1.570,-0.915,0.140,-1.570,-1.430,-0.297
1606940436685462016,pose_received,1606940436684795083,-1.570,-0.925,0.140,-1.570,-1.430,-0.297
1606940436705663744,pose_received,1606940436704795782,-1.570,-0.925,0.140,-1.570,-1.430,-0.297
1606940436725668352,pose_received,1606940436724864081,-1.570,-0.925,0.140,-1.570,-1.430,-0.297
1606940436745656320,pose_received,1606940436744882880,-1.570,-0.942,0.157,-1.570,-1.413,-0.297
1606940436765810176,pose_received,1606940436764842379,-1.570,-0.942,0.157,-1.570,-1.413,-0.297
1606940436785922560,pose_received,1606940436784855278,-1.570,-0.942,0.157,-1.570,-1.413,-0.297
1606940436806167808,pose_received,1606940436804799378,-1.570,-0.956,0.157,-1.570,-1.413,-0.297
1606940436825691392,pose_received,1606940436825119275,-1.570,-0.959,0.157,-1.570,-1.413,-0.297
1606940436845355008,pose_received,1606940436844799776,-1.570,-0.959,0.157,-1.570,-1.413,-0.297
1606940436867472128,pose_received,1606940436864785375,-1.570,-0.994,0.174,-1.570,-1.396,-0.297
1606940436885352960,pose_received,1606940436884800174,-1.570,-0.994,0.174,-1.570,-1.396,-0.297
1606940436906555904,pose_received,1606940436905551769,-1.570,-0.994,0.174,-1.570,-1.396,-0.297
1606940436926250240,pose_received,1606940436924798172,-1.570,-1.012,0.174,-1.570,-1.396,-0.297
1606940436945250304,pose_received,1606940436944819271,-1.570,-1.012,0.174,-1.570,-1.396,-0.297
1606940436965265920,pose_received,1606940436964796170,-1.570,-1.021,0.174,-1.570,-1.396,-0.297
1606940436985334784,pose_received,1606940436984798469,-1.570,-1.029,0.174,-1.570,-1.396,-0.297
1606940437005719808,pose_received,1606940437004795668,-1.570,-1.029,0.174,-1.570,-1.396,-0.297
1606940437025998080,pose_received,1606940437025023266,-1.570,-1.029,0.174,-1.570,-1.396,-0.297
1606940437045351424,pose_received,1606940437044795866,-1.570,-1.064,0.192,-1.570,-1.378,-0.297
1606940437066094848,pose_received,1606940437064959964,-1.570,-1.064,0.192,-1.570,-1.378,-0.297
1606940437085769728,pose_received,1606940437084798164,-1.570,-1.077,0.204,-1.570,-1.366,-0.297
1606940437105677824,pose_received,1606940437104795463,-1.570,-1.082,0.209,-1.570,-1.361,-0.297
1606940437125656576,pose_received,1606940437124795662,-1.570,-1.082,0.209,-1.570,-1.361,-0.297
1606940437145844224,pose_received,1606940437145042260,-1.570,-1.082,0.209,-1.570,-1.361,-0.297
1606940437165715456,pose_received,1606940437164792560,-1.570,-1.082,0.209,-1.570,-1.361,-0.297
1606940437185890560,pose_received,1606940437184807659,-1.570,-1.105,0.221,-1.570,-1.349,-0.297
1606940437205472512,pose_received,1606940437204797558,-1.570,-1.116,0.227,-1.570,-1.343,-0.297
1606940437225748992,pose_received,1606940437224794058,-1.570,-1.116,0.227,-1.570,-1.343,-0.297
1606940437245682176,pose_received,1606940437244810856,-1.570,-1.116,0.227,-1.570,-1.343,-0.297
1606940437265243648,pose_received,1606940437264771356,-1.570,-1.116,0.227,-1.570,-1.343,-0.297
1606940437285654528,pose_received,1606940437284795755,-1.570,-1.129,0.239,-1.570,-1.331,-0.297
1606940437305820160,pose_received,1606940437304803254,-1.570,-1.134,0.244,-1.570,-1.326,-0.297
1606940437325703424,pose_received,1606940437324794453,-1.570,-1.134,0.244,-1.570,-1.326,-0.297
1606940437345375488,pose_received,1606940437344872652,-1.570,-1.134,0.244,-1.570,-1.326,-0.297
1606940437365640448,pose_received,1606940437364795851,-1.570,-1.134,0.244,-1.570,-1.326,-0.297
1606940437385918720,pose_received,1606940437384767350,-1.570,-1.134,0.244,-1.570,-1.326,-0.297
1606940437405783040,pose_received,1606940437404839449,-1.570,-1.134,0.244,-1.570,-1.326,-0.297
1606940437425720320,pose_received,1606940437424805248,-1.570,-1.134,0.244,-1.570,-1.326,-0.297
1606940437445719296,pose_received,1606940437444811247,-1.570,-1.134,0.244,-1.570,-1.326,-0.297
1606940437465330944,pose_received,1606940437464809346,-1.570,-1.144,0.244,-1.570,-1.326,-0.297
1606940437485731328,pose_received,1606940437484794145,-1.570,-1.151,0.244,-1.570,-1.326,-0.297
1606940437505875456,pose_received,1606940437505292542,-1.570,-1.151,0.244,-1.570,-1.326,-0.297
1606940437525929472,pose_received,1606940437524916843,-1.570,-1.151,0.244,-1.570,-1.326,-0.297
1606940437545806336,pose_received,1606940437544843042,-1.570,-1.169,0.262,-1.570,-1.308,-0.297
1606940437565594624,pose_received,1606940437564794142,-1.570,-1.169,0.262,-1.570,-1.308,-0.297
1606940437586363904,pose_received,1606940437584794841,-1.570,-1.169,0.262,-1.570,-1.308,-0.297
1606940437605764608,pose_received,1606940437605204838,-1.570,-1.183,0.262,-1.570,-1.308,-0.297
1606940437625861888,pose_received,1606940437624753839,-1.570,-1.186,0.262,-1.570,-1.308,-0.297
1606940437645583104,pose_received,1606940437644794938,-1.570,-1.186,0.262,-1.570,-1.308,-0.297
1606940437665906176,pose_received,1606940437664794837,-1.570,-1.199,0.274,-1.570,-1.296,-0.297
1606940437685722112,pose_received,1606940437684794536,-1.570,-1.204,0.279,-1.570,-1.291,-0.297
1606940437705687552,pose_received,1606940437704805635,-1.570,-1.204,0.279,-1.570,-1.291,-0.297
1606940437725722624,pose_received,1606940437724795334,-1.570,-1.204,0.279,-1.570,-1.291,-0.297
1606940437745533696,pose_received,1606940437744946533,-1.570,-1.204,0.279,-1.570,-1.291,-0.297
1606940437765621504,pose_received,1606940437764790432,-1.570,-1.204,0.279,-1.570,-1.291,-0.297
1606940437785431552,pose_received,1606940437784792032,-1.570,-1.204,0.279,-1.570,-1.291,-0.297
1606940437806294528,pose_received,1606940437805233228,-1.570,-1.204,0.279,-1.570,-1.291,-0.297
1606940437825487616,pose_received,1606940437824796130,-1.570,-1.204,0.279,-1.570,-1.291,-0.297
1606940437845616128,pose_received,1606940437844796729,-1.570,-1.204,0.279,-1.570,-1.291,-0.297
1606940437865855744,pose_received,1606940437864774028,-1.570,-1.204,0.279,-1.570,-1.291,-0.297
1606940437885970688,pose_received,1606940437884757327,-1.570,-1.204,0.279,-1.570,-1.291,-0.297
1606940437906039296,pose_received,1606940437904936425,-1.570,-1.204,0.279,-1.570,-1.291,-0.297
1606940437925888512,pose_received,1606940437924777925,-1.570,-1.204,0.279,-1.570,-1.291,-0.297
1606940437945481216,pose_received,1606940437944834024,-1.570,-1.204,0.279,-1.570,-1.291,-0.297
1606940437965530880,pose_received,1606940437964796923,-1.570,-1.204,0.279,-1.570,-1.291,-0.297
1606940437985584640,pose_received,1606940437984796022,-1.570,-1.204,0.279,-1.570,-1.291,-0.297
1606940438005825536,pose_received,1606940438004794721,-1.570,-1.204,0.279,-1.570,-1.291,-0.297
1606940438025554944,pose_received,1606940438024796420,-1.570,-1.204,0.279,-1.570,-1.291,-0.297
1606940438045344000,pose_received,1606940438044796620,-1.570,-1.204,0.279,-1.570,-1.291,-0.297
1606940438065870336,pose_received,1606940438064798419,-1.570,-1.204,0.279,-1.570,-1.291,-0.297
1606940438085721600,pose_received,1606940438084794018,-1.570,-1.204,0.279,-1.570,-1.291,-0.297
1606940438105832192,pose_received,1606940438105071816,-1.570,-1.204,0.279,-1.570,-1.291,-0.297
1606940438125445632,pose_received,1606940438124795916,-1.570,-1.204,0.279,-1.570,-1.291,-0.297
1606940438145306624,pose_received,1606940438144847915,-1.570,-1.204,0.279,-1.570,-1.291,-0.297
1606940438165867776,pose_received,1606940438164853014,-1.570,-1.204,0.279,-1.570,-1.291,-0.297
1606940438185804544,pose_received,1606940438184794514,-1.570,-1.204,0.279,-1.570,-1.291,-0.297
1606940438205590016,pose_received,1606940438204801513,-1.570,-1.204,0.279,-1.570,-1.291,-0.297
1606940438225923072,pose_received,1606940438224808412,-1.570,-1.204,0.279,-1.570,-1.291,-0.297
1606940438245365504,pose_received,1606940438244795911,-1.570,-1.204,0.279,-1.570,-1.291,-0.297
1606940438265616640,pose_received,1606940438264791610,-1.570,-1.204,0.279,-1.570,-1.291,-0.297
1606940438285466112,pose_received,1606940438284795909,-1.570,-1.204,0.279,-1.570,-1.291,-0.297
1606940438305658880,pose_received,1606940438304794608,-1.570,-1.204,0.279,-1.570,-1.291,-0.297
1606940438325923072,pose_received,1606940438324766008,-1.570,-1.204,0.279,-1.570,-1.291,-0.297
1606940438345499904,pose_received,1606940438344796307,-1.570,-1.204,0.279,-1.570,-1.291,-0.297
1606940438365520384,pose_received,1606940438364792806,-1.570,-1.204,0.279,-1.570,-1.291,-0.297
1606940438385372928,pose_received,1606940438384796605,-1.570,-1.204,0.279,-1.570,-1.291,-0.297
1606940438405568512,pose_received,1606940438404798704,-1.570,-1.204,0.279,-1.570,-1.291,-0.297
1606940438425801728,pose_received,1606940438424785903,-1.570,-1.204,0.279,-1.570,-1.291,-0.297
1606940438445413632,pose_received,1606940438444795102,-1.570,-1.204,0.279,-1.570,-1.291,-0.297
1606940438466130944,pose_received,1606940438465044600,-1.570,-1.204,0.279,-1.570,-1.291,-0.297
1606940438485793792,pose_received,1606940438484809200,-1.570,-1.204,0.279,-1.570,-1.291,-0.297
1606940438505423616,pose_received,1606940438504797200,-1.570,-1.204,0.279,-1.570,-1.291,-0.297
1606940438525353984,pose_received,1606940438524796599,-1.570,-1.204,0.279,-1.570,-1.291,-0.297
1606940438545544704,pose_received,1606940438544886197,-1.570,-1.204,0.279,-1.570,-1.291,-0.297
1606940438565848576,pose_received,1606940438564780697,-1.570,-1.204,0.279,-1.570,-1.291,-0.297
1606940438585553408,pose_received,1606940438584803296,-1.570,-1.204,0.279,-1.570,-1.291,-0.297
1606940438607088896,pose_received,1606940438604795895,-1.570,-1.204,0.279,-1.570,-1.291,-0.297
1606940438625798144,pose_received,1606940438624798794,-1.570,-1.204,0.279,-1.570,-1.291,-0.297
1606940438645407744,pose_received,1606940438644796194,-1.570,-1.204,0.279,-1.570,-1.291,-0.297
1606940438665524480,pose_received,1606940438664791293,-1.570,-1.204,0.279,-1.570,-1.291,-0.297
1606940438686092288,pose_received,1606940438684796292,-1.570,-1.204,0.279,-1.570,-1.291,-0.297
1606940438705822464,pose_received,1606940438704805291,-1.570,-1.204,0.279,-1.570,-1.291,-0.297
1606940438725932544,pose_received,1606940438724795190,-1.570,-1.204,0.279,-1.570,-1.291,-0.297
1606940438745737472,pose_received,1606940438744846589,-1.570,-1.204,0.279,-1.570,-1.291,-0.297
1606940438765630976,pose_received,1606940438764793488,-1.570,-1.204,0.279,-1.570,-1.291,-0.297
1606940438785629952,pose_received,1606940438784796387,-1.570,-1.204,0.279,-1.570,-1.291,-0.297
1606940438805662208,pose_received,1606940438804809186,-1.570,-1.204,0.279,-1.570,-1.291,-0.297
1606940438825467392,pose_received,1606940438824796186,-1.570,-1.204,0.279,-1.570,-1.291,-0.297
1606940438845946880,pose_received,1606940438844798585,-1.570,-1.204,0.279,-1.570,-1.291,-0.297
1606940438865684224,pose_received,1606940438864796484,-1.570,-1.204,0.279,-1.570,-1.291,-0.297
1606940438885628672,pose_received,1606940438884796183,-1.570,-1.204,0.279,-1.570,-1.291,-0.297
1606940438905788160,pose_received,1606940438904804282,-1.570,-1.204,0.279,-1.570,-1.291,-0.297
1606940438925802240,pose_received,1606940438924795981,-1.570,-1.204,0.279,-1.570,-1.291,-0.297
1606940438945883648,pose_received,1606940438944819780,-1.570,-1.204,0.279,-1.570,-1.291,-0.297
1606940438965899520,pose_received,1606940438964770680,-1.570,-1.204,0.279,-1.570,-1.291,-0.297
1606940438985627904,pose_received,1606940438984798279,-1.570,-1.204,0.279,-1.570,-1.291,-0.297
1606940439005747456,pose_received,1606940439004839578,-1.570,-1.204,0.279,-1.570,-1.291,-0.297
1606940439025876736,pose_received,1606940439024805677,-1.570,-1.204,0.279,-1.570,-1.291,-0.297
1606940439045952512,pose_received,1606940439044791676,-1.570,-1.204,0.279,-1.570,-1.291,-0.297
1606940439066290944,pose_received,1606940439064788975,-1.570,-1.204,0.279,-1.570,-1.291,-0.297
1606940439085505536,pose_received,1606940439084794675,-1.570,-1.204,0.279,-1.570,-1.291,-0.297
1606940439105793280,pose_received,1606940439104798874,-1.570,-1.204,0.279,-1.570,-1.291,-0.297
1606940439125621248,pose_received,1606940439124797373,-1.570,-1.204,0.279,-1.570,-1.291,-0.297
1606940439145671936,pose_received,1606940439144800572,-1.570,-1.204,0.279,-1.570,-1.291,-0.297
1606940439165496064,pose_received,1606940439164796171,-1.570,-1.204,0.279,-1.570,-1.291,-0.297
1606940439186145536,pose_received,1606940439185021369,-1.570,-1.204,0.279,-1.570,-1.291,-0.297
1606940439205355776,pose_received,1606940439204796570,-1.570,-1.204,0.279,-1.570,-1.291,-0.297
1606940439225678080,pose_received,1606940439224864869,-1.570,-1.204,0.279,-1.570,-1.291,-0.297
1606940439245408768,pose_received,1606940439244751968,-1.570,-1.204,0.279,-1.570,-1.291,-0.297
1606940439265597440,pose_received,1606940439264802667,-1.570,-1.204,0.279,-1.570,-1.291,-0.297
1606940439285590272,pose_received,1606940439284791767,-1.570,-1.204,0.279,-1.570,-1.291,-0.297
1606940439305383680,pose_received,1606940439304798166,-1.570,-1.204,0.279,-1.570,-1.291,-0.297
1606940439325761280,pose_received,1606940439324794465,-1.570,-1.204,0.279,-1.570,-1.291,-0.297
1606940439345322752,pose_received,1606940439344830864,-1.570,-1.204,0.279,-1.570,-1.291,-0.297
1606940439365763072,pose_received,1606940439364795763,-1.570,-1.204,0.279,-1.570,-1.291,-0.297
1606940439385565696,pose_received,1606940439384795862,-1.570,-1.204,0.279,-1.570,-1.291,-0.297
1606940439406421760,pose_received,1606940439405464258,-1.570,-1.204,0.279,-1.570,-1.291,-0.297
1606940439425808128,pose_received,1606940439424795961,-1.570,0.000,0.000,-1.570,-1.570,-0.297
1606940439445764864,pose_received,1606940439444793660,-1.570,0.000,0.000,-1.570,-1.570,-0.297
1606940439465645056,pose_received,1606940439464782059,-1.570,0.000,0.000,-1.570,-1.570,-0.297
1606940439485624832,pose_received,1606940439485067757,-1.570,0.000,0.000,-1.570,-1.570,-0.297
1606940439505589248,pose_received,1606940439504795158,-1.570,0.000,0.000,-1.570,-1.570,-0.297
1606940439526001664,pose_received,1606940439524800157,-1.570,0.000,0.000,-1.570,-1.570,-0.297
1606940439545927424,pose_received,1606940439545162154,-1.570,0.000,0.000,-1.570,-1.570,-0.297
1606940439565499904,pose_received,1606940439564794555,-1.570,0.000,0.000,-1.570,-1.570,-0.297
1606940439585330176,pose_received,1606940439584796954,-1.570,0.000,0.000,-1.570,-1.570,-0.297
1606940439606130688,pose_received,1606940439605057252,-1.570,0.000,0.000,-1.570,-1.570,-0.297
1606940439625530880,pose_received,1606940439624796153,-1.570,0.000,0.000,-1.570,-1.570,-0.297
1606940439645511168,pose_received,1606940439644795552,-1.570,0.000,0.000,-1.570,-1.570,-0.297
1606940439665741056,pose_received,1606940439664804551,-1.570,0.000,0.000,-1.570,-1.570,-0.297
1606940439685529600,pose_received,1606940439684795550,-1.570,0.000,0.000,-1.570,-1.570,-0.297
1606940439705643008,pose_received,1606940439704795249,-1.570,0.000,0.000,-1.570,-1.570,-0.297
1606940439725491456,pose_received,1606940439724796849,-1.570,0.000,0.000,-1.570,-1.570,-0.297
1606940439745692160,pose_received,1606940439744795048,-1.570,0.000,0.000,-1.570,-1.570,-0.297
1606940439765541376,pose_received,1606940439764792447,-1.570,0.000,0.000,-1.570,-1.570,-0.297
1606940439785826560,pose_received,1606940439784815146,-1.570,0.000,0.000,-1.570,-1.570,-0.297
1606940439805604608,pose_received,1606940439804797245,-1.570,0.000,0.000,-1.570,-1.570,-0.297
1606940439825361664,pose_received,1606940439824797245,-1.570,0.000,0.000,-1.570,-1.570,-0.297
1606940439845754368,pose_received,1606940439844794244,-1.570,0.000,0.000,-1.570,-1.570,-0.297
1606940439865611520,pose_received,1606940439864794743,-1.570,0.000,0.000,-1.570,-1.570,-0.297
1606940439885735680,pose_received,1606940439884799642,-1.570,0.000,0.000,-1.570,-1.570,-0.297
1606940439905783552,pose_received,1606940439904813941,-1.570,0.000,0.000,-1.570,-1.570,-0.297
1606940439925714432,pose_received,1606940439924796641,-1.570,0.000,0.000,-1.570,-1.570,-0.297
1606940439945456640,pose_received,1606940439944799440,-1.570,0.000,0.000,-1.570,-1.570,-0.297
1606940439965598720,pose_received,1606940439964796039,-1.570,0.000,0.000,-1.570,-1.570,-0.297
1606940439985633024,pose_received,1606940439984798138,-1.570,0.000,0.000,-1.570,-1.570,-0.297
1606940440005765632,pose_received,1606940440004814437,-1.570,0.000,0.000,-1.570,-1.570,-0.297
1606940440025737216,pose_received,1606940440024797337,-1.570,0.000,0.000,-1.570,-1.570,-0.297
1606940440045885440,pose_received,1606940440044802636,-1.570,0.000,0.000,-1.570,-1.570,-0.297
1606940440065780992,pose_received,1606940440064795035,-1.570,0.000,0.000,-1.570,-1.570,-0.297
1606940440085868032,pose_received,1606940440084795634,-1.570,0.000,0.000,-1.570,-1.570,-0.297
1606940440105786368,pose_received,1606940440104806033,-1.570,0.000,0.000,-1.570,-1.570,-0.297
1606940440125856256,pose_received,1606940440124762533,-1.570,0.000,0.000,-1.570,-1.570,-0.297
1606940440145513472,pose_received,1606940440144800132,-1.570,0.000,0.000,-1.570,-1.570,-0.297
1606940440165851648,pose_received,1606940440164762931,-1.570,0.000,0.000,-1.570,-1.570,-0.297
1606940440185291264,pose_received,1606940440184795130,-1.570,0.000,0.000,-1.570,-1.570,-0.297
1606940440205811712,pose_received,1606940440204816030,-1.570,0.000,0.000,-1.570,-1.570,-0.297
1606940440225493248,pose_received,1606940440224794829,-1.570,0.000,0.000,-1.570,-1.570,-0.297
1606940440245430272,pose_received,1606940440244796028,-1.570,0.000,0.000,-1.570,-1.570,-0.297
1606940440265355008,pose_received,1606940440264761228,-1.570,0.000,0.000,-1.570,-1.570,-0.297
1606940440285640192,pose_received,1606940440284793427,-1.570,0.000,0.000,-1.570,-1.570,-0.297
1606940440305816832,pose_received,1606940440304803926,-1.570,0.000,0.000,-1.570,-1.570,-0.297
1606940440325424640,pose_received,1606940440324798725,-1.570,0.000,0.000,-1.570,-1.570,-0.297
1606940440345350912,pose_received,1606940440344826724,-1.570,0.000,0.000,-1.570,-1.570,-0.297
1606940440365261824,pose_received,1606940440364797624,-1.570,0.000,0.000,-1.570,-1.570,-0.297
1606940440385654528,pose_received,1606940440384796623,-1.570,0.000,0.000,-1.570,-1.570,-0.297
1606940440405961216,pose_received,1606940440404771822,-1.570,0.000,0.000,-1.570,-1.570,-0.297
1606940440425480448,pose_received,1606940440424795821,-1.570,0.000,0.000,-1.570,-1.570,-0.297
1606940440445384448,pose_received,1606940440444795021,-1.570,0.000,0.000,-1.570,-1.570,-0.297
1606940440465871872,pose_received,1606940440464765420,-1.570,0.000,0.000,-1.570,-1.570,-0.297
1606940440485779456,pose_received,1606940440484794719,-1.570,0.000,0.000,-1.570,-1.570,-0.297
1606940440505610496,pose_received,1606940440504796718,-1.570,0.000,0.000,-1.570,-1.570,-0.297
1606940440525789696,pose_received,1606940440524795018,-1.570,0.000,0.000,-1.570,-1.570,-0.297
1606940440545401088,pose_received,1606940440544868417,-1.570,0.000,0.000,-1.570,-1.570,-0.297
1606940440565548800,pose_received,1606940440564851016,-1.570,0.000,0.000,-1.570,-1.570,-0.297
1606940440585772288,pose_received,1606940440584791515,-1.570,0.000,0.000,-1.570,-1.570,-0.297
1606940440605551616,pose_received,1606940440604793015,-1.570,0.000,0.000,-1.570,-1.570,-0.297
1606940440625715968,pose_received,1606940440624796514,-1.570,0.000,0.000,-1.570,-1.570,-0.297
1606940440645762560,pose_received,1606940440644794213,-1.570,0.000,0.000,-1.570,-1.570,-0.297
1606940440665755904,pose_received,1606940440664796712,-1.570,0.000,0.000,-1.570,-1.570,-0.297
1606940440685701376,pose_received,1606940440684791612,-1.570,0.000,0.000,-1.570,-1.570,-0.297
1606940440705345280,pose_received,1606940440704794311,-1.570,0.000,0.000,-1.570,-1.570,-0.297
1606940440725764608,pose_received,1606940440724796010,-1.570,0.000,0.000,-1.570,-1.570,-0.297
1606940440745416448,pose_received,1606940440744797609,-1.570,0.000,0.000,-1.570,-1.570,-0.297
1606940440765383936,pose_received,1606940440764793409,-1.570,0.000,0.000,-1.570,-1.570,-0.297
1606940440785781760,pose_received,1606940440784756008,-1.570,0.000,0.000,-1.570,-1.570,-0.297
1606940440805595136,pose_received,1606940440804794907,-1.570,0.000,0.000,-1.570,-1.570,-0.297
1606940440826057728,pose_received,1606940440824790606,-1.570,0.000,0.000,-1.570,-1.570,-0.297
1606940440845561600,pose_received,1606940440844794406,-1.570,0.000,0.000,-1.570,-1.570,-0.297
1606940440865503232,pose_received,1606940440864792705,-1.570,0.000,0.000,-1.570,-1.570,-0.297
1606940440885336320,pose_received,1606940440884797504,-1.570,0.000,0.000,-1.570,-1.570,-0.297
1606940440905373696,pose_received,1606940440904796103,-1.570,0.000,0.000,-1.570,-1.570,-0.297
1606940440925851904,pose_received,1606940440924797103,-1.570,0.000,0.000,-1.570,-1.570,-0.297
1606940440945345792,pose_received,1606940440944794402,-1.570,0.000,0.000,-1.570,-1.570,-0.297
1606940440965322496,pose_received,1606940440964795201,-1.570,0.051,0.000,-1.570,-1.570,-0.297
1606940440985809408,pose_received,1606940440984769600,-1.570,0.070,0.000,-1.570,-1.570,-0.297
1606940441005414912,pose_received,1606940441004795000,-1.570,0.070,0.000,-1.570,-1.570,-0.297
1606940441025753600,pose_received,1606940441024796299,-1.570,0.070,0.000,-1.570,-1.570,-0.297
1606940441045545216,pose_received,1606940441044796798,-1.570,0.070,0.000,-1.570,-1.570,-0.297
1606940441065433856,pose_received,1606940441064769098,-1.570,0.070,0.000,-1.570,-1.570,-0.297
1606940441085995008,pose_received,1606940441084814497,-1.570,0.070,0.000,-1.570,-1.570,-0.297
1606940441105827072,pose_received,1606940441104805696,-1.570,0.070,0.000,-1.570,-1.570,-0.297
1606940441125544704,pose_received,1606940441124796795,-1.570,0.070,0.000,-1.570,-1.570,-0.297
1606940441145421824,pose_received,1606940441144798395,-1.570,0.070,0.000,-1.570,-1.570,-0.297
1606940441165562880,pose_received,1606940441164798094,-1.570,0.070,0.000,-1.570,-1.570,-0.297
1606940441185869056,pose_received,1606940441184800693,-1.570,0.070,0.000,-1.570,-1.570,-0.297
1606940441205643008,pose_received,1606940441204916192,-1.570,0.070,0.000,-1.570,-1.570,-0.297
1606940441225530624,pose_received,1606940441224871891,-1.570,0.070,0.000,-1.570,-1.570,-0.297
1606940441245847552,pose_received,1606940441244795491,-1.570,0.052,0.017,-1.570,-1.553,-0.297
1606940441265579264,pose_received,1606940441264792790,-1.570,0.052,0.017,-1.570,-1.553,-0.297
1606940441285906688,pose_received,1606940441284770290,-1.570,0.052,0.017,-1.570,-1.553,-0.297
1606940441305926400,pose_received,1606940441304800289,-1.570,0.052,0.017,-1.570,-1.553,-0.297
1606940441325429760,pose_received,1606940441324799988,-1.570,0.041,0.017,-1.570,-1.553,-0.297
1606940441346049280,pose_received,1606940441344946987,-1.570,0.035,0.017,-1.570,-1.553,-0.297
1606940441365310976,pose_received,1606940441364794887,-1.570,0.035,0.017,-1.570,-1.553,-0.297
1606940441385553152,pose_received,1606940441384805586,-1.570,0.035,0.017,-1.570,-1.553,-0.297
1606940441405885440,pose_received,1606940441404803186,-1.570,0.017,0.017,-1.570,-1.553,-0.297
1606940441425367040,pose_received,1606940441424794685,-1.570,0.017,0.017,-1.570,-1.553,-0.297
1606940441445516288,pose_received,1606940441444796984,-1.570,0.017,0.017,-1.570,-1.553,-0.297
1606940441465315328,pose_received,1606940441464799283,-1.570,0.005,0.017,-1.570,-1.553,-0.297
1606940441485506560,pose_received,1606940441484794683,-1.570,0.000,0.017,-1.570,-1.553,-0.297
1606940441506359808,pose_received,1606940441504802582,-1.570,0.000,0.017,-1.570,-1.553,-0.297
1606940441526542848,pose_received,1606940441525448278,-1.570,-0.011,0.017,-1.570,-1.553,-0.297
1606940441545805312,pose_received,1606940441544871380,-1.570,-0.017,0.017,-1.570,-1.553,-0.297
1606940441566133248,pose_received,1606940441565452577,-1.570,-0.017,0.017,-1.570,-1.553,-0.297
1606940441585851392,pose_received,1606940441584760979,-1.570,-0.051,0.017,-1.570,-1.553,-0.297
1606940441605807616,pose_received,1606940441604976378,-1.570,-0.052,0.017,-1.570,-1.553,-0.297
1606940441625476352,pose_received,1606940441624891877,-1.570,-0.052,0.017,-1.570,-1.553,-0.297
1606940441646329088,pose_received,1606940441644798177,-1.570,-0.070,0.000,-1.570,-1.570,-0.297
1606940441665742080,pose_received,1606940441664797877,-1.570,-0.070,0.000,-1.570,-1.570,-0.297
1606940441685317376,pose_received,1606940441684795976,-1.570,-0.086,0.017,-1.570,-1.553,-0.297
1606940441705704192,pose_received,1606940441704995474,-1.570,-0.087,0.017,-1.570,-1.553,-0.297
1606940441725510144,pose_received,1606940441724796374,-1.570,-0.087,0.017,-1.570,-1.553,-0.297
1606940441745310720,pose_received,1606940441744839974,-1.570,-0.122,0.000,-1.570,-1.570,-0.297
1606940441765883392,pose_received,1606940441764801873,-1.570,-0.122,0.000,-1.570,-1.570,-0.297
1606940441785605888,pose_received,1606940441784794272,-1.570,-0.139,0.016,-1.570,-1.554,-0.297
1606940441805420800,pose_received,1606940441804798772,-1.570,-0.140,0.017,-1.570,-1.553,-0.297
1606940441825513984,pose_received,1606940441824795971,-1.570,-0.140,0.017,-1.570,-1.553,-0.297
1606940441847518464,pose_received,1606940441844796170,-1.570,-0.161,0.007,-1.570,-1.563,-0.297
