milangroshev/niryo-one-datasets/digital-twin-remote-control/movement4-20-times.csv
timestamp,event,hw_timestamp,joint_1,joint_2,joint_3,joint_4,joint_5,joint_6
1606940602725555968,pose_received,1606940602724795997,-1.570,0.000,0.000,-1.570,-1.570,-0.297
1606940602745346816,pose_received,1606940602744862703,-1.570,0.000,0.000,-1.570,-1.570,-0.297
1606940602765674752,pose_received,1606940602764792709,-1.570,0.000,0.000,-1.570,-1.570,-0.297
1606940602785870592,pose_received,1606940602784793215,-1.570,0.000,0.000,-1.570,-1.570,-0.297
1606940602806167296,pose_received,1606940602804911621,-1.570,0.000,0.000,-1.570,-1.570,-0.297
1606940602825661952,pose_received,1606940602824797727,-1.570,0.000,0.000,-1.570,-1.570,-0.297
1606940602845531904,pose_received,1606940602844798433,-1.570,0.000,0.000,-1.570,-1.570,-0.297
1606940602865581056,pose_received,1606940602864793340,-1.570,0.000,0.000,-1.570,-1.570,-0.297
1606940602885656832,pose_received,1606940602884795446,-1.570,0.000,0.000,-1.570,-1.570,-0.297
1606940602905520640,pose_received,1606940602904843652,-1.570,0.000,0.000,-1.570,-1.570,-0.297
1606940602925503232,pose_received,1606940602924796558,-1.570,0.000,0.000,-1.570,-1.570,-0.297
1606940602945802240,pose_received,1606940602944822764,-1.570,0.000,0.000,-1.570,-1.570,-0.297
1606940602965757440,pose_received,1606940602964795070,-1.570,0.000,0.000,-1.570,-1.570,-0.297
1606940602987786752,pose_received,1606940602987044766,-1.570,0.000,0.000,-1.570,-1.570,-0.297
1606940603005801984,pose_received,1606940603004804082,-1.570,0.000,0.000,-1.570,-1.570,-0.297
1606940603025706496,pose_received,1606940603024797788,-1.570,0.000,0.000,-1.570,-1.570,-0.297
1606940603045505536,pose_received,1606940603044796395,-1.570,0.000,0.000,-1.570,-1.570,-0.297
1606940603066647296,pose_received,1606940603064868700,-1.570,0.000,0.000,-1.570,-1.570,-0.297
1606940603086244608,pose_received,1606940603085560103,-1.570,0.000,0.000,-1.570,-1.570,-0.297
1606940603105658112,pose_received,1606940603104799313,-1.570,0.000,0.000,-1.570,-1.570,-0.297
1606940603125345792,pose_received,1606940603124798519,-1.570,0.000,0.000,-1.570,-1.570,-0.297
1606940603145837824,pose_received,1606940603144849625,-1.570,0.000,0.000,-1.570,-1.570,-0.297
1606940603165718272,pose_received,1606940603164813531,-1.570,0.000,0.000,-1.570,-1.570,-0.297
1606940603185787136,pose_received,1606940603184799138,-1.570,0.000,0.000,-1.570,-1.570,-0.297
1606940603205634048,pose_received,1606940603204796244,-1.570,0.000,0.000,-1.570,-1.570,-0.297
1606940603225774592,pose_received,1606940603224796850,-1.570,0.000,0.000,-1.570,-1.570,-0.297
1606940603245416960,pose_received,1606940603244795756,-1.570,0.000,0.000,-1.570,-1.570,-0.297
1606940603265518336,pose_received,1606940603264792762,-1.570,0.000,0.000,-1.570,-1.570,-0.297
1606940603285709056,pose_received,1606940603284817968,-1.570,0.000,0.000,-1.570,-1.570,-0.297
1606940603305694720,pose_received,1606940603304793774,-1.570,0.000,0.000,-1.570,-1.570,-0.297
1606940603327015424,pose_received,1606940603324916580,-1.570,0.000,0.000,-1.570,-1.570,-0.297
1606940603345822464,pose_received,1606940603344863786,-1.570,0.000,0.000,-1.570,-1.570,-0.297
1606940603365499648,pose_received,1606940603364795293,-1.570,0.000,0.000,-1.570,-1.570,-0.297
1606940603385528832,pose_received,1606940603384800099,-1.570,0.000,0.000,-1.570,-1.570,-0.297
1606940603405494528,pose_received,1606940603404795805,-1.570,0.000,0.000,-1.570,-1.570,-0.297
1606940603426078208,pose_received,1606940603424804511,-1.570,0.000,0.000,-1.570,-1.570,-0.297
1606940603445499648,pose_received,1606940603444797017,-1.570,0.000,0.000,-1.570,-1.570,-0.297
1606940603465700352,pose_received,1606940603464780524,-1.570,0.000,0.000,-1.570,-1.570,-0.297
1606940603485384704,pose_received,1606940603484797830,-1.570,0.000,0.000,-1.570,-1.570,-0.297
1606940603505374720,pose_received,1606940603504795036,-1.570,0.000,0.000,-1.570,-1.570,-0.297
1606940603525697536,pose_received,1606940603524798642,-1.570,0.000,0.000,-1.570,-1.570,-0.297
1606940603545660160,pose_received,1606940603544800548,-1.570,0.000,0.000,-1.570,-1.570,-0.297
1606940603565476864,pose_received,1606940603564796854,-1.570,0.000,0.000,-1.570,-1.570,-0.297
1606940603586226688,pose_received,1606940603584786160,-1.570,0.000,0.000,-1.570,-1.570,-0.297
1606940603605835008,pose_received,1606940603604801767,-1.570,0.000,0.000,-1.570,-1.570,-0.297
1606940603625969920,pose_received,1606940603624775673,-1.570,0.000,0.000,-1.570,-1.570,-0.297
1606940603645946112,pose_received,1606940603644796879,-1.570,0.000,0.000,-1.570,-1.570,-0.297
1606940603665427712,pose_received,1606940603664770285,-1.570,0.000,0.000,-1.570,-1.570,-0.297
1606940603685846272,pose_received,1606940603684799991,-1.570,0.000,0.000,-1.570,-1.570,-0.297
1606940603705620992,pose_received,1606940603704792697,-1.570,0.000,0.000,-1.570,-1.570,-0.297
1606940603725845248,pose_received,1606940603724760804,-1.570,0.000,0.000,-1.570,-1.570,-0.297
1606940603745812480,pose_received,1606940603744812010,-1.570,0.000,0.000,-1.570,-1.570,-0.297
1606940603765402112,pose_received,1606940603764794016,-1.570,0.000,0.000,-1.570,-1.570,-0.297
1606940603785510912,pose_received,1606940603784798022,-1.570,0.000,0.000,-1.570,-1.570,-0.297
1606940603805477120,pose_received,1606940603804854428,-1.570,0.000,0.000,-1.570,-1.570,-0.297
1606940603825827584,pose_received,1606940603824795934,-1.570,0.000,0.000,-1.570,-1.570,-0.297
1606940603847155200,pose_received,1606940603844823040,-1.570,0.000,0.000,-1.570,-1.570,-0.297
1606940603865629952,pose_received,1606940603864794846,-1.570,0.000,0.000,-1.570,-1.570,-0.297
1606940603886546432,pose_received,1606940603884758453,-1.570,0.000,0.000,-1.570,-1.570,-0.297
1606940603906915840,pose_received,1606940603904796959,-1.570,0.000,0.000,-1.570,-1.570,-0.297
1606940603925814272,pose_received,1606940603924795065,-1.570,0.000,0.000,-1.570,-1.570,-0.297
1606940603945550848,pose_received,1606940603944893271,-1.570,0.000,0.000,-1.570,-1.570,-0.297
1606940603965448192,pose_received,1606940603964793977,-1.570,0.000,0.000,-1.570,-1.570,-0.297
1606940603985599744,pose_received,1606940603984795783,-1.570,0.000,0.000,-1.570,-1.570,-0.297
1606940604005940736,pose_received,1606940604004795989,-1.570,0.000,0.000,-1.570,-1.570,-0.297
1606940604025795840,pose_received,1606940604024795696,-1.570,0.000,0.000,-1.570,-1.570,-0.297
1606940604045790208,pose_received,1606940604044798502,-1.570,0.000,0.000,-1.570,-1.570,-0.297
1606940604065741824,pose_received,1606940604064795608,-1.570,0.000,0.000,-1.570,-1.570,-0.297
1606940604085703424,pose_received,1606940604084796614,-1.570,0.000,0.000,-1.570,-1.570,-0.297
1606940604106174976,pose_received,1606940604104799920,-1.570,0.000,0.000,-1.570,-1.570,-0.297
1606940604125502720,pose_received,1606940604124796426,-1.570,0.000,0.000,-1.570,-1.570,-0.297
1606940604145496320,pose_received,1606940604144862232,-1.570,0.000,0.000,-1.570,-1.570,-0.297
1606940604165444352,pose_received,1606940604164794939,-1.570,0.000,0.000,-1.570,-1.570,-0.297
1606940604185773568,pose_received,1606940604184795645,-1.570,0.000,0.000,-1.570,-1.570,-0.297
1606940604206784768,pose_received,1606940604204931050,-1.570,0.000,0.000,-1.570,-1.570,-0.297
1606940604225810944,pose_received,1606940604224795257,-1.570,0.000,0.000,-1.570,-1.570,-0.297
1606940604245619968,pose_received,1606940604244795863,-1.570,0.000,0.000,-1.570,-1.570,-0.297
1606940604265639168,pose_received,1606940604264780770,-1.570,0.000,0.000,-1.570,-1.570,-0.297
1606940604289356544,pose_received,1606940604284804076,-1.570,0.000,0.000,-1.570,-1.570,-0.297
1606940604305573376,pose_received,1606940604304831182,-1.570,0.000,0.000,-1.570,-1.570,-0.297
1606940604325516288,pose_received,1606940604324810488,-1.570,0.000,0.000,-1.570,-1.570,-0.297
1606940604345370368,pose_received,1606940604344798794,-1.570,0.000,0.000,-1.570,-1.570,-0.297
1606940604365959680,pose_received,1606940604365050199,-1.570,0.000,0.000,-1.570,-1.570,-0.297
1606940604385785088,pose_received,1606940604384756207,-1.570,0.000,0.000,-1.570,-1.570,-0.297
1606940604406086400,pose_received,1606940604404756113,-1.570,0.000,0.000,-1.570,-1.570,-0.297
1606940604425551360,pose_received,1606940604424798419,-1.570,0.000,0.000,-1.570,-1.570,-0.297
1606940604445589504,pose_received,1606940604444808925,-1.570,0.000,0.000,-1.570,-1.570,-0.297
1606940604465946368,pose_received,1606940604464799431,-1.570,0.000,0.000,-1.570,-1.570,-0.297
1606940604485868544,pose_received,1606940604484795138,-1.570,0.000,0.000,-1.570,-1.570,-0.297
1606940604505784832,pose_received,1606940604504794744,-1.570,0.000,0.000,-1.570,-1.570,-0.297
1606940604525944064,pose_received,1606940604524794350,-1.570,0.000,0.000,-1.570,-1.570,-0.297
1606940604546457088,pose_received,1606940604544857256,-1.570,0.000,0.000,-1.570,-1.570,-0.297
1606940604565336832,pose_received,1606940604564811662,-1.570,0.000,0.000,-1.570,-1.570,-0.297
1606940604585423872,pose_received,1606940604584794568,-1.570,0.000,0.000,-1.570,-1.570,-0.297
1606940604605854208,pose_received,1606940604604841374,-1.570,0.000,0.000,-1.570,-1.570,-0.297
1606940604626118400,pose_received,1606940604624808581,-1.570,0.000,0.000,-1.570,-1.570,-0.297
1606940604645970688,pose_received,1606940604644795887,-1.570,0.000,0.000,-1.570,-1.570,-0.297
1606940604665920000,pose_received,1606940604664803393,-1.570,0.000,0.000,-1.570,-1.570,-0.297
1606940604685919232,pose_received,1606940604684795899,-1.570,0.000,0.000,-1.570,-1.570,-0.297
1606940604705554176,pose_received,1606940604704795305,-1.570,0.000,0.000,-1.570,-1.570,-0.297
1606940604725647360,pose_received,1606940604724802112,-1.570,0.000,0.000,-1.570,-1.570,-0.297
1606940604745840640,pose_received,1606940604744852017,-1.570,0.000,0.000,-1.570,-1.570,-0.297
1606940604765495808,pose_received,1606940604764792224,-1.570,0.000,0.000,-1.570,-1.570,-0.297
1606940604785368064,pose_received,1606940604784796430,-1.570,0.000,0.000,-1.570,-1.570,-0.297
1606940604805648128,pose_received,1606940604804794836,-1.570,0.000,0.000,-1.570,-1.570,-0.297
1606940604825610240,pose_received,1606940604824803342,-1.570,0.000,0.000,-1.570,-1.570,-0.297
1606940604845348096,pose_received,1606940604844798249,-1.570,0.000,0.000,-1.570,-1.570,-0.297
1606940604865616384,pose_received,1606940604864792355,-1.570,0.000,0.000,-1.570,-1.570,-0.297
1606940604886088192,pose_received,1606940604884813261,-1.570,0.000,0.000,-1.570,-1.570,-0.297
1606940604905310976,pose_received,1606940604904794367,-1.570,0.000,0.000,-1.570,-1.570,-0.297
1606940604925849344,pose_received,1606940604924796373,-1.570,0.000,0.000,-1.570,-1.570,-0.297
1606940604945775104,pose_received,1606940604944817179,-1.570,0.000,0.000,-1.570,-1.570,-0.297
1606940604965730304,pose_received,1606940604964791186,-1.570,0.000,0.000,-1.570,-1.570,-0.297
1606940604985769984,pose_received,1606940604984803292,-1.570,0.000,0.000,-1.570,-1.570,-0.297
1606940605005657088,pose_received,1606940605004794898,-1.570,0.000,0.000,-1.570,-1.570,-0.297
1606940605025689856,pose_received,1606940605024795504,-1.570,0.000,0.000,-1.570,-1.570,-0.297
1606940605045503744,pose_received,1606940605044795310,-1.570,0.000,0.000,-1.570,-1.570,-0.297
1606940605065741568,pose_received,1606940605064794517,-1.570,0.000,0.000,-1.570,-1.570,-0.297
1606940605085834496,pose_received,1606940605084796623,-1.570,0.000,0.000,-1.570,-1.570,-0.297
1606940605105335040,pose_received,1606940605104793229,-1.570,0.000,0.000,-1.570,-1.570,-0.297
1606940605125713920,pose_received,1606940605124794935,-1.570,0.000,0.000,-1.570,-1.570,-0.297
1606940605145755904,pose_received,1606940605144858441,-1.570,0.000,0.000,-1.570,-1.570,-0.297
1606940605165698560,pose_received,1606940605164793748,-1.570,0.000,0.000,-1.570,-1.570,-0.297
1606940605185590784,pose_received,1606940605184795254,-1.570,0.000,0.000,-1.570,-1.570,-0.297
1606940605206202880,pose_received,1606940605204795060,-1.570,0.000,0.000,-1.570,-1.570,-0.297
1606940605225892608,pose_received,1606940605224762966,-1.570,0.000,0.000,-1.570,-1.570,-0.297
1606940605245641984,pose_received,1606940605244799972,-1.570,0.000,0.000,-1.570,-1.570,-0.297
1606940605265627904,pose_received,1606940605264790479,-1.570,0.000,0.000,-1.570,-1.570,-0.297
1606940605285288704,pose_received,1606940605284792885,-1.570,0.000,0.000,-1.570,-1.570,-0.297
1606940605305417472,pose_received,1606940605304794791,-1.570,0.000,0.000,-1.570,-1.570,-0.297
1606940605325675776,pose_received,1606940605324794597,-1.570,0.000,0.000,-1.570,-1.570,-0.297
1606940605345473024,pose_received,1606940605344825503,-1.570,0.000,0.000,-1.570,-1.570,-0.297
1606940605365725184,pose_received,1606940605364792510,-1.570,0.000,0.000,-1.570,-1.570,-0.297
1606940605386340352,pose_received,1606940605384755316,-1.570,0.000,0.000,-1.570,-1.570,-0.297
1606940605405812224,pose_received,1606940605404814022,-1.570,0.000,0.000,-1.570,-1.570,-0.297
1606940605425569536,pose_received,1606940605424798628,-1.570,0.000,0.000,-1.570,-1.570,-0.297
1606940605445612032,pose_received,1606940605444795634,-1.570,0.000,0.000,-1.570,-1.570,-0.297
1606940605465731584,pose_received,1606940605464793441,-1.570,0.000,0.000,-1.570,-1.570,-0.297
1606940605485598720,pose_received,1606940605484793447,-1.570,0.000,0.000,-1.570,-1.570,-0.297
1606940605505505280,pose_received,1606940605504796653,-1.570,0.000,0.000,-1.570,-1.570,-0.297
1606940605525716480,pose_received,1606940605524797259,-1.570,0.000,0.000,-1.570,-1.570,-0.297
1606940605545718784,pose_received,1606940605545134964,-1.570,0.000,0.000,-1.570,-1.570,-0.297
1606940605565779456,pose_received,1606940605564794872,-1.570,0.000,0.000,-1.570,-1.570,-0.297
1606940605585448704,pose_received,1606940605584793878,-1.570,0.052,0.000,-1.570,-1.570,-0.297
1606940605605847808,pose_received,1606940605604796184,-1.570,0.052,0.000,-1.570,-1.570,-0.297
1606940605625571328,pose_received,1606940605624796190,-1.570,0.052,0.000,-1.570,-1.570,-0.297
1606940605645702400,pose_received,1606940605644791596,-1.570,0.052,0.000,-1.570,-1.570,-0.297
1606940605665739520,pose_received,1606940605664806003,-1.570,0.052,0.000,-1.570,-1.570,-0.297
1606940605685449472,pose_received,1606940605684797209,-1.570,0.052,0.000,-1.570,-1.570,-0.297
1606940605705519360,pose_received,1606940605704795615,-1.570,0.052,0.000,-1.570,-1.570,-0.297
1606940605725472000,pose_received,1606940605724796521,-1.570,0.052,0.000,-1.570,-1.570,-0.297
1606940605745842944,pose_received,1606940605744850727,-1.570,0.052,0.000,-1.570,-1.570,-0.297
1606940605765693952,pose_received,1606940605764883833,-1.570,0.052,0.000,-1.570,-1.570,-0.297
1606940605785570048,pose_received,1606940605784805640,-1.570,0.062,0.000,-1.570,-1.570,-0.297
1606940605805480704,pose_received,1606940605804797646,-1.570,0.070,0.000,-1.570,-1.570,-0.297
1606940605825616896,pose_received,1606940605824796852,-1.570,0.070,0.000,-1.570,-1.570,-0.297
1606940605845565184,pose_received,1606940605844804258,-1.570,0.070,0.000,-1.570,-1.570,-0.297
1606940605865693440,pose_received,1606940605864803565,-1.570,0.105,0.035,-1.570,-1.535,-0.297
1606940605885655552,pose_received,1606940605884795471,-1.570,0.105,0.035,-1.570,-1.535,-0.297
1606940605905344768,pose_received,1606940605904796177,-1.570,0.105,0.035,-1.570,-1.535,-0.297
1606940605925907456,pose_received,1606940605924802283,-1.570,0.105,0.035,-1.570,-1.535,-0.297
1606940605946287360,pose_received,1606940605945653885,-1.570,0.105,0.035,-1.570,-1.535,-0.297
1606940605965506560,pose_received,1606940605964795196,-1.570,0.105,0.035,-1.570,-1.535,-0.297
1606940605985781760,pose_received,1606940605984797002,-1.570,0.122,0.052,-1.570,-1.518,-0.297
1606940606005637888,pose_received,1606940606004796508,-1.570,0.122,0.052,-1.570,-1.518,-0.297
1606940606025778688,pose_received,1606940606024799714,-1.570,0.139,0.069,-1.570,-1.501,-0.297
1606940606045613056,pose_received,1606940606045003920,-1.570,0.140,0.070,-1.570,-1.500,-0.297
1606940606065859840,pose_received,1606940606064792427,-1.570,0.140,0.070,-1.570,-1.500,-0.297
1606940606085567232,pose_received,1606940606084795833,-1.570,0.192,0.070,-1.570,-1.500,-0.297
1606940606105298432,pose_received,1606940606104796639,-1.570,0.192,0.070,-1.570,-1.500,-0.297
1606940606125771008,pose_received,1606940606124795145,-1.570,0.227,0.087,-1.570,-1.483,-0.297
1606940606145798656,pose_received,1606940606144798252,-1.570,0.227,0.087,-1.570,-1.483,-0.297
1606940606165492480,pose_received,1606940606164794158,-1.570,0.227,0.087,-1.570,-1.483,-0.297
1606940606186124032,pose_received,1606940606184803164,-1.570,0.227,0.087,-1.570,-1.483,-0.297
1606940606205400576,pose_received,1606940606204795570,-1.570,0.239,0.087,-1.570,-1.483,-0.297
1606940606225583360,pose_received,1606940606224797677,-1.570,0.244,0.087,-1.570,-1.483,-0.297
1606940606245777664,pose_received,1606940606245211781,-1.570,0.244,0.087,-1.570,-1.483,-0.297
1606940606265172992,pose_received,1606940606264787089,-1.570,0.244,0.087,-1.570,-1.483,-0.297
1606940606285495552,pose_received,1606940606284795995,-1.570,0.297,0.105,-1.570,-1.465,-0.297
1606940606306287872,pose_received,1606940606304793202,-1.570,0.297,0.105,-1.570,-1.465,-0.297
1606940606325494272,pose_received,1606940606324811208,-1.570,0.297,0.105,-1.570,-1.465,-0.297
1606940606345904896,pose_received,1606940606344811814,-1.570,0.366,0.087,-1.570,-1.483,-0.297
1606940606365532928,pose_received,1606940606364795620,-1.570,0.366,0.087,-1.570,-1.483,-0.297
1606940606385899520,pose_received,1606940606384781127,-1.570,0.366,0.087,-1.570,-1.483,-0.297
1606940606406556672,pose_received,1606940606404794433,-1.570,0.390,0.099,-1.570,-1.471,-0.297
1606940606425578752,pose_received,1606940606424794639,-1.570,0.401,0.105,-1.570,-1.465,-0.297
1606940606446048256,pose_received,1606940606444857745,-1.570,0.401,0.105,-1.570,-1.465,-0.297
1606940606465411072,pose_received,1606940606464785651,-1.570,0.436,0.087,-1.570,-1.483,-0.297
1606940606485943040,pose_received,1606940606484792558,-1.570,0.436,0.087,-1.570,-1.483,-0.297
1606940606505689344,pose_received,1606940606504795564,-1.570,0.461,0.112,-1.570,-1.458,-0.297
1606940606525512192,pose_received,1606940606524795370,-1.570,0.471,0.122,-1.570,-1.448,-0.297
1606940606546036992,pose_received,1606940606545144975,-1.570,0.471,0.122,-1.570,-1.448,-0.297
1606940606565589504,pose_received,1606940606564793983,-1.570,0.471,0.122,-1.570,-1.448,-0.297
1606940606585565184,pose_received,1606940606584796489,-1.570,0.503,0.122,-1.570,-1.448,-0.297
1606940606605653760,pose_received,1606940606604797495,-1.570,0.523,0.122,-1.570,-1.448,-0.297
1606940606625399808,pose_received,1606940606624795601,-1.570,0.523,0.122,-1.570,-1.448,-0.297
1606940606645665792,pose_received,1606940606644796107,-1.570,0.523,0.122,-1.570,-1.448,-0.297
1606940606665876480,pose_received,1606940606664795314,-1.570,0.523,0.122,-1.570,-1.448,-0.297
1606940606685590016,pose_received,1606940606684794720,-1.570,0.523,0.122,-1.570,-1.448,-0.297
1606940606705990912,pose_received,1606940606704808426,-1.570,0.523,0.122,-1.570,-1.448,-0.297
1606940606726990336,pose_received,1606940606724782732,-1.570,0.523,0.122,-1.570,-1.448,-0.297
1606940606745502208,pose_received,1606940606744996138,-1.570,0.523,0.122,-1.570,-1.448,-0.297
1606940606765330688,pose_received,1606940606764794445,-1.570,0.523,0.122,-1.570,-1.448,-0.297
1606940606785559552,pose_received,1606940606784797451,-1.570,0.611,0.105,-1.570,-1.465,-0.297
1606940606806103296,pose_received,1606940606804802257,-1.570,0.611,0.105,-1.570,-1.465,-0.297
1606940606825528832,pose_received,1606940606824799564,-1.570,0.611,0.105,-1.570,-1.465,-0.297
1606940606845384192,pose_received,1606940606844795270,-1.570,0.628,0.122,-1.570,-1.448,-0.297
1606940606865587456,pose_received,1606940606864796176,-1.570,0.628,0.122,-1.570,-1.448,-0.297
1606940606885500672,pose_received,1606940606884797282,-1.570,0.628,0.122,-1.570,-1.448,-0.297
1606940606905946368,pose_received,1606940606904797888,-1.570,0.628,0.122,-1.570,-1.448,-0.297
1606940606926366976,pose_received,1606940606925036594,-1.570,0.628,0.139,-1.570,-1.431,-0.297
1606940606945727488,pose_received,1606940606945137699,-1.570,0.628,0.140,-1.570,-1.430,-0.297
1606940606965957376,pose_received,1606940606964857307,-1.570,0.628,0.140,-1.570,-1.430,-0.297
1606940606985590528,pose_received,1606940606984795813,-1.570,0.663,0.122,-1.570,-1.448,-0.297
1606940607005669632,pose_received,1606940607004795420,-1.570,0.663,0.122,-1.570,-1.448,-0.297
1606940607025675520,pose_received,1606940607024770626,-1.570,0.663,0.122,-1.570,-1.448,-0.297
1606940607045811968,pose_received,1606940607044797232,-1.570,0.663,0.122,-1.570,-1.448,-0.297
1606940607065571072,pose_received,1606940607064800438,-1.570,0.698,0.140,-1.570,-1.430,-0.297
1606940607085727232,pose_received,1606940607084794445,-1.570,0.698,0.140,-1.570,-1.430,-0.297
1606940607105584128,pose_received,1606940607104794551,-1.570,0.698,0.140,-1.570,-1.430,-0.297
1606940607125781760,pose_received,1606940607124796457,-1.570,0.698,0.140,-1.570,-1.430,-0.297
1606940607145368576,pose_received,1606940607144797163,-1.570,0.698,0.140,-1.570,-1.430,-0.297
1606940607165809920,pose_received,1606940607164769670,-1.570,0.698,0.140,-1.570,-1.430,-0.297
1606940607185657344,pose_received,1606940607184792576,-1.570,0.698,0.140,-1.570,-1.430,-0.297
1606940607205839104,pose_received,1606940607204771982,-1.570,0.698,0.140,-1.570,-1.430,-0.297
1606940607225844992,pose_received,1606940607224816188,-1.570,0.698,0.140,-1.570,-1.430,-0.297
1606940607245975296,pose_received,1606940607245408492,-1.570,0.698,0.140,-1.570,-1.430,-0.297
1606940607265304576,pose_received,1606940607264798101,-1.570,0.698,0.140,-1.570,-1.430,-0.297
1606940607285471232,pose_received,1606940607284793907,-1.570,0.698,0.140,-1.570,-1.430,-0.297
1606940607305593344,pose_received,1606940607304796414,-1.570,0.698,0.140,-1.570,-1.430,-0.297
1606940607326659328,pose_received,1606940607325629216,-1.570,0.698,0.140,-1.570,-1.430,-0.297
1606940607345362944,pose_received,1606940607344795826,-1.570,0.698,0.174,-1.570,-1.396,-0.297
1606940607365546240,pose_received,1606940607364793332,-1.570,0.698,0.174,-1.570,-1.396,-0.297
1606940607385457664,pose_received,1606940607384796639,-1.570,0.698,0.174,-1.570,-1.396,-0.297
1606940607405506304,pose_received,1606940607404798245,-1.570,0.698,0.174,-1.570,-1.396,-0.297
1606940607425890560,pose_received,1606940607424796051,-1.570,0.698,0.205,-1.570,-1.365,-0.297
1606940607446783232,pose_received,1606940607445441054,-1.570,0.698,0.209,-1.570,-1.361,-0.297
1606940607465323776,pose_received,1606940607464779964,-1.570,0.698,0.209,-1.570,-1.361,-0.297
1606940607485963008,pose_received,1606940607484803470,-1.570,0.698,0.227,-1.570,-1.343,-0.297
1606940607505565440,pose_received,1606940607504794076,-1.570,0.698,0.227,-1.570,-1.343,-0.297
1606940607526704384,pose_received,1606940607525534279,-1.570,0.698,0.227,-1.570,-1.343,-0.297
1606940607545338880,pose_received,1606940607544860188,-1.570,0.698,0.262,-1.570,-1.308,-0.297
1606940607565489920,pose_received,1606940607564793595,-1.570,0.698,0.262,-1.570,-1.308,-0.297
1606940607585596160,pose_received,1606940607584798301,-1.570,0.688,0.290,-1.570,-1.280,-0.297
1606940607605447680,pose_received,1606940607604793907,-1.570,0.680,0.314,-1.570,-1.256,-0.297
1606940607625655296,pose_received,1606940607624796914,-1.570,0.680,0.314,-1.570,-1.256,-0.297
1606940607645426176,pose_received,1606940607644860420,-1.570,0.680,0.314,-1.570,-1.256,-0.297
1606940607665723648,pose_received,1606940607664778126,-1.570,0.645,0.349,-1.570,-1.221,-0.297
1606940607685623808,pose_received,1606940607684795232,-1.570,0.645,0.349,-1.570,-1.221,-0.297
1606940607705581824,pose_received,1606940607704793939,-1.570,0.645,0.349,-1.570,-1.221,-0.297
1606940607725536512,pose_received,1606940607724796545,-1.570,0.631,0.379,-1.570,-1.191,-0.297
1606940607746675712,pose_received,1606940607745350049,-1.570,0.628,0.384,-1.570,-1.186,-0.297
1606940607765319424,pose_received,1606940607764814057,-1.570,0.628,0.384,-1.570,-1.186,-0.297
1606940607785986560,pose_received,1606940607784795464,-1.570,0.605,0.418,-1.570,-1.152,-0.297
1606940607806695680,pose_received,1606940607804797470,-1.570,0.593,0.436,-1.570,-1.134,-0.297
1606940607825364224,pose_received,1606940607824798376,-1.570,0.593,0.436,-1.570,-1.134,-0.297
1606940607845971456,pose_received,1606940607844805383,-1.570,0.558,0.471,-1.570,-1.099,-0.297
1606940607865426688,pose_received,1606940607864795589,-1.570,0.558,0.471,-1.570,-1.099,-0.297
1606940607886053632,pose_received,1606940607884794395,-1.570,0.558,0.471,-1.570,-1.099,-0.297
1606940607906100224,pose_received,1606940607904809301,-1.570,0.534,0.520,-1.570,-1.050,-0.297
1606940607925481216,pose_received,1606940607924797308,-1.570,0.523,0.541,-1.570,-1.029,-0.297
1606940607945937920,pose_received,1606940607945309811,-1.570,0.523,0.541,-1.570,-1.029,-0.297
1606940607965543680,pose_received,1606940607964803520,-1.570,0.523,0.541,-1.570,-1.029,-0.297
1606940607985704704,pose_received,1606940607984795626,-1.570,0.506,0.576,-1.570,-0.994,-0.297
1606940608005984000,pose_received,1606940608004809033,-1.570,0.506,0.576,-1.570,-0.994,-0.297
1606940608025524736,pose_received,1606940608024798039,-1.570,0.506,0.576,-1.570,-0.994,-0.297
1606940608045643264,pose_received,1606940608044889645,-1.570,0.471,0.611,-1.570,-0.959,-0.297
1606940608065499136,pose_received,1606940608064797652,-1.570,0.471,0.611,-1.570,-0.959,-0.297
1606940608085340160,pose_received,1606940608084799058,-1.570,0.461,0.641,-1.570,-0.929,-0.297
1606940608106534400,pose_received,1606940608104800964,-1.570,0.454,0.663,-1.570,-0.907,-0.297
1606940608126169088,pose_received,1606940608124802070,-1.570,0.454,0.663,-1.570,-0.907,-0.297
1606940608145314560,pose_received,1606940608144852476,-1.570,0.436,0.715,-1.570,-0.855,-0.297
1606940608165637888,pose_received,1606940608164794083,-1.570,0.436,0.715,-1.570,-0.855,-0.297
1606940608185319168,pose_received,1606940608184796789,-1.570,0.436,0.715,-1.570,-0.855,-0.297
1606940608205814784,pose_received,1606940608204796996,-1.570,0.411,0.765,-1.570,-0.805,-0.297
1606940608226052608,pose_received,1606940608224769902,-1.570,0.401,0.785,-1.570,-0.785,-0.297
1606940608245766912,pose_received,1606940608244794708,-1.570,0.401,0.785,-1.570,-0.785,-0.297
1606940608265636608,pose_received,1606940608264806114,-1.570,0.401,0.785,-1.570,-0.785,-0.297
1606940608285508608,pose_received,1606940608284795821,-1.570,0.401,0.785,-1.570,-0.785,-0.297
1606940608305376512,pose_received,1606940608304794827,-1.570,0.390,0.808,-1.570,-0.762,-0.297
1606940608325914624,pose_received,1606940608324794733,-1.570,0.384,0.820,-1.570,-0.750,-0.297
1606940608346158592,pose_received,1606940608345566536,-1.570,0.384,0.820,-1.570,-0.750,-0.297
1606940608365436160,pose_received,1606940608364798346,-1.570,0.384,0.820,-1.570,-0.750,-0.297
1606940608385714176,pose_received,1606940608384794752,-1.570,0.349,0.872,-1.570,-0.698,-0.297
1606940608405685504,pose_received,1606940608404794658,-1.570,0.349,0.872,-1.570,-0.698,-0.297
1606940608425889280,pose_received,1606940608424757265,-1.570,0.349,0.872,-1.570,-0.698,-0.297
1606940608445596160,pose_received,1606940608444799471,-1.570,0.349,0.873,-1.570,-0.697,-0.297
1606940608465514496,pose_received,1606940608464798077,-1.570,0.279,0.959,-1.570,-0.611,-0.297
1606940608486485760,pose_received,1606940608484758084,-1.570,0.279,0.959,-1.570,-0.611,-0.297
1606940608505704448,pose_received,1606940608504798490,-1.570,0.279,0.959,-1.570,-0.611,-0.297
1606940608525872896,pose_received,1606940608524798596,-1.570,0.235,1.033,-1.570,-0.537,-0.297
1606940608545794560,pose_received,1606940608544774903,-1.570,0.227,1.047,-1.570,-0.523,-0.297
1606940608565504768,pose_received,1606940608564794409,-1.570,0.227,1.047,-1.570,-0.523,-0.297
1606940608585703168,pose_received,1606940608584796815,-1.570,0.227,1.047,-1.570,-0.523,-0.297
1606940608605474048,pose_received,1606940608604800721,-1.570,0.203,1.082,-1.570,-0.488,-0.297
1606940608625530112,pose_received,1606940608624801728,-1.570,0.192,1.099,-1.570,-0.471,-0.297
1606940608645978880,pose_received,1606940608645428831,-1.570,0.192,1.099,-1.570,-0.471,-0.297
1606940608665762048,pose_received,1606940608664777740,-1.570,0.192,1.099,-1.570,-0.471,-0.297
1606940608685723136,pose_received,1606940608684796047,-1.570,0.157,1.151,-1.570,-0.419,-0.297
1606940608705708544,pose_received,1606940608704796353,-1.570,0.157,1.151,-1.570,-0.419,-0.297
1606940608725732608,pose_received,1606940608724797559,-1.570,0.157,1.151,-1.570,-0.419,-0.297
1606940608745903872,pose_received,1606940608745079664,-1.570,0.157,1.151,-1.570,-0.419,-0.297
1606940608765627392,pose_received,1606940608764792972,-1.570,0.105,1.221,-1.570,-0.349,-0.297
1606940608785555200,pose_received,1606940608784809978,-1.570,0.105,1.221,-1.570,-0.349,-0.297
1606940608805521152,pose_received,1606940608804797084,-1.570,0.105,1.221,-1.570,-0.349,-0.297
1606940608825505792,pose_received,1606940608824795791,-1.570,0.072,1.270,-1.570,-0.300,-0.297
1606940608846524928,pose_received,1606940608845088196,-1.570,0.070,1.273,-1.570,-0.297,-0.297
1606940608865428736,pose_received,1606940608864794903,-1.570,0.070,1.273,-1.570,-0.297,-0.297
1606940608885983744,pose_received,1606940608884778510,-1.570,0.035,1.308,-1.570,-0.262,-0.297
1606940608905363200,pose_received,1606940608904793416,-1.570,0.035,1.308,-1.570,-0.262,-0.297
1606940608925489920,pose_received,1606940608924796622,-1.570,0.035,1.308,-1.570,-0.262,-0.297
1606940608945520896,pose_received,1606940608944873928,-1.570,0.035,1.308,-1.570,-0.262,-0.297
1606940608965785600,pose_received,1606940608964778935,-1.570,-0.087,1.465,-1.570,-0.105,-0.297
1606940608985829632,pose_received,1606940608984797341,-1.570,-0.087,1.465,-1.570,-0.105,-0.297
1606940609007062016,pose_received,1606940609004794247,-1.570,-0.087,1.465,-1.570,-0.105,-0.297
1606940609025621504,pose_received,1606940609024796654,-1.570,-0.087,1.465,-1.570,-0.105,-0.297
1606940609045668096,pose_received,1606940609044804960,-1.570,-0.087,1.465,-1.570,-0.105,-0.297
1606940609065405952,pose_received,1606940609064795266,-1.570,-0.087,1.465,-1.570,-0.105,-0.297
1606940609085634048,pose_received,1606940609084795372,-1.570,-0.087,1.465,-1.570,-0.105,-0.297
1606940609105408512,pose_received,1606940609104794979,-1.570,-0.087,1.465,-1.570,-0.105,-0.297
1606940609125494016,pose_received,1606940609124795485,-1.570,-0.087,1.465,-1.570,-0.105,-0.297
1606940609145874176,pose_received,1606940609144841091,-1.570,-0.087,1.465,-1.570,-0.105,-0.297
1606940609165810944,pose_received,1606940609164794298,-1.570,-0.087,1.465,-1.570,-0.105,-0.297
1606940609185408512,pose_received,1606940609184793504,-1.570,-0.087,1.465,-1.570,-0.105,-0.297
1606940609205326336,pose_received,1606940609204798310,-1.570,-0.087,1.465,-1.570,-0.105,-0.297
1606940609225378816,pose_received,1606940609224795217,-1.570,-0.087,1.465,-1.570,-0.105,-0.297
1606940609245613568,pose_received,1606940609244796223,-1.570,-0.087,1.465,-1.570,-0.105,-0.297
1606940609265673984,pose_received,1606940609264793029,-1.570,-0.087,1.465,-1.570,-0.105,-0.297
1606940609285488128,pose_received,1606940609284794336,-1.570,-0.087,1.465,-1.570,-0.105,-0.297
1606940609306203648,pose_received,1606940609304817842,-1.570,-0.087,1.465,-1.570,-0.105,-0.297
1606940609325730560,pose_received,1606940609324795848,-1.570,-0.087,1.465,-1.570,-0.105,-0.297
1606940609345493248,pose_received,1606940609344887854,-1.570,-0.087,1.465,-1.570,-0.105,-0.297
1606940609365765632,pose_received,1606940609364793661,-1.570,-0.087,1.465,-1.570,-0.105,-0.297
1606940609385695488,pose_received,1606940609384793867,-1.570,-0.087,1.465,-1.570,-0.105,-0.297
1606940609405928704,pose_received,1606940609404784974,-1.570,-0.087,1.465,-1.570,-0.105,-0.297
1606940609425704704,pose_received,1606940609424799280,-1.570,-0.087,1.465,-1.570,-0.105,-0.297
1606940609445586432,pose_received,1606940609444797086,-1.570,-0.087,1.465,-1.570,-0.105,-0.297
1606940609465545216,pose_received,1606940609464796493,-1.570,-0.087,1.465,-1.570,-0.105,-0.297
1606940609485867264,pose_received,1606940609484782799,-1.570,-0.087,1.465,-1.570,-0.105,-0.297
1606940609505854208,pose_received,1606940609504796205,-1.570,-0.087,1.465,-1.570,-0.105,-0.297
1606940609525639424,pose_received,1606940609524795712,-1.570,-0.087,1.465,-1.570,-0.105,-0.297
1606940609545775872,pose_received,1606940609544834518,-1.570,-0.087,1.465,-1.570,-0.105,-0.297
1606940609565562880,pose_received,1606940609564839624,-1.570,-0.087,1.465,-1.570,-0.105,-0.297
1606940609585789440,pose_received,1606940609584751631,-1.570,-0.087,1.465,-1.570,-0.105,-0.297
1606940609605578496,pose_received,1606940609604793437,-1.570,-0.087,1.465,-1.570,-0.105,-0.297
1606940609625500416,pose_received,1606940609624797743,-1.570,-0.087,1.465,-1.570,-0.105,-0.297
1606940609645621248,pose_received,1606940609644793849,-1.570,-0.087,1.465,-1.570,-0.105,-0.297
1606940609665942272,pose_received,1606940609664798156,-1.570,-0.087,1.465,-1.570,-0.105,-0.297
1606940609685619456,pose_received,1606940609684796362,-1.570,-0.087,1.465,-1.570,-0.105,-0.297
1606940609705332224,pose_received,1606940609704795868,-1.570,-0.087,1.465,-1.570,-0.105,-0.297
1606940609725789952,pose_received,1606940609724796975,-1.570,-0.087,1.465,-1.570,-0.105,-0.297
1606940609745526528,pose_received,1606940609744795981,-1.570,-0.087,1.465,-1.570,-0.105,-0.297
1606940609765574656,pose_received,1606940609764793187,-1.570,-0.087,1.465,-1.570,-0.105,-0.297
1606940609785688064,pose_received,1606940609784794094,-1.570,-0.087,1.465,-1.570,-0.105,-0.297
1606940609805367296,pose_received,1606940609804800500,-1.570,-0.087,1.465,-1.570,-0.105,-0.297
1606940609825811968,pose_received,1606940609824815506,-1.570,-0.087,1.465,-1.570,-0.105,-0.297
1606940609845407744,pose_received,1606940609844796813,-1.570,-0.087,1.465,-1.570,-0.105,-0.297
1606940609865738240,pose_received,1606940609864793319,-1.570,-0.087,1.465,-1.570,-0.105,-0.297
1606940609885488384,pose_received,1606940609884796625,-1.570,-0.087,1.465,-1.570,-0.105,-0.297
1606940609905425920,pose_received,1606940609904796632,-1.570,-0.087,1.465,-1.570,-0.105,-0.297
1606940609925858560,pose_received,1606940609924799938,-1.570,-0.087,1.465,-1.570,-0.105,-0.297
1606940609945772288,pose_received,1606940609944819744,-1.570,-0.087,1.465,-1.570,-0.105,-0.297
1606940609965576192,pose_received,1606940609964808051,-1.570,-0.087,1.465,-1.570,-0.105,-0.297
1606940609985613056,pose_received,1606940609984795857,-1.570,-0.087,1.465,-1.570,-0.105,-0.297
1606940610005598464,pose_received,1606940610004795563,-1.570,-0.087,1.465,-1.570,-0.105,-0.297
1606940610025500928,pose_received,1606940610024797070,-1.570,-0.087,1.465,-1.570,-0.105,-0.297
1606940610045491968,pose_received,1606940610044796776,-1.570,-0.087,1.465,-1.570,-0.105,-0.297
1606940610065612032,pose_received,1606940610064795882,-1.570,-0.087,1.465,-1.570,-0.105,-0.297
1606940610086382080,pose_received,1606940610084817089,-1.570,-0.087,1.465,-1.570,-0.105,-0.297
1606940610105524992,pose_received,1606940610104798295,-1.570,-0.087,1.465,-1.570,-0.105,-0.297
1606940610125378048,pose_received,1606940610124801501,-1.570,-0.087,1.465,-1.570,-0.105,-0.297
1606940610145636608,pose_received,1606940610144922407,-1.570,-0.087,1.465,-1.570,-0.105,-0.297
1606940610165278720,pose_received,1606940610164798414,-1.570,-0.087,1.465,-1.570,-0.105,-0.297
1606940610185850112,pose_received,1606940610184799320,-1.570,-0.087,1.465,-1.570,-0.105,-0.297
1606940610205768960,pose_received,1606940610204794827,-1.570,-0.087,1.465,-1.570,-0.105,-0.297
1606940610225795584,pose_received,1606940610224796733,-1.570,-0.087,1.465,-1.570,-0.105,-0.297
1606940610245946624,pose_received,1606940610244804339,-1.570,-0.087,1.465,-1.570,-0.105,-0.297
1606940610265668864,pose_received,1606940610264762846,-1.570,-0.087,1.465,-1.570,-0.105,-0.297
1606940610285807616,pose_received,1606940610284795952,-1.570,-0.087,1.465,-1.570,-0.105,-0.297
1606940610305704704,pose_received,1606940610304795658,-1.570,-0.087,1.465,-1.570,-0.105,-0.297
1606940610325889024,pose_received,1606940610324797865,-1.570,-0.087,1.465,-1.570,-0.105,-0.297
1606940610345717504,pose_received,1606940610344804771,-1.570,-0.087,1.465,-1.570,-0.105,-0.297
1606940610365290752,pose_received,1606940610364796978,-1.570,-0.087,1.465,-1.570,-0.105,-0.297
1606940610385982976,pose_received,1606940610384759084,-1.570,-0.087,1.465,-1.570,-0.105,-0.297
1606940610406616320,pose_received,1606940610404795490,-1.570,-0.087,1.465,-1.570,-0.105,-0.297
1606940610425608192,pose_received,1606940610424795797,-1.570,-0.087,1.465,-1.570,-0.105,-0.297
1606940610445937920,pose_received,1606940610444799503,-1.570,-0.087,1.465,-1.570,-0.105,-0.297
1606940610465456128,pose_received,1606940610464801109,-1.570,-0.087,1.465,-1.570,-0.105,-0.297
1606940610486260992,pose_received,1606940610485435713,-1.570,-0.087,1.465,-1.570,-0.105,-0.297
1606940610505326336,pose_received,1606940610504798022,-1.570,-0.087,1.465,-1.570,-0.105,-0.297
1606940610525714944,pose_received,1606940610524796828,-1.570,0.000,0.000,-1.570,-1.570,-0.297
1606940610545555456,pose_received,1606940610544798935,-1.570,0.000,0.000,-1.570,-1.570,-0.297
1606940610565324288,pose_received,1606940610564795341,-1.570,0.000,0.000,-1.570,-1.570,-0.297
1606940610585918464,pose_received,1606940610584875947,-1.570,0.000,0.000,-1.570,-1.570,-0.297
1606940610605941248,pose_received,1606940610604807254,-1.570,0.000,0.000,-1.570,-1.570,-0.297
1606940610625737728,pose_received,1606940610624796260,-1.570,0.000,0.000,-1.570,-1.570,-0.297
1606940610645495040,pose_received,1606940610644795166,-1.570,0.000,0.000,-1.570,-1.570,-0.297
1606940610665460992,pose_received,1606940610664795873,-1.570,0.000,0.000,-1.570,-1.570,-0.297
1606940610685942272,pose_received,1606940610684794879,-1.570,0.000,0.000,-1.570,-1.570,-0.297
1606940610705726976,pose_received,1606940610704800485,-1.570,0.000,0.000,-1.570,-1.570,-0.297
1606940610725896704,pose_received,1606940610724795192,-1.570,0.000,0.000,-1.570,-1.570,-0.297
1606940610745980672,pose_received,1606940610744852798,-1.570,0.000,0.000,-1.570,-1.570,-0.297
1606940610765516800,pose_received,1606940610764794205,-1.570,0.000,0.000,-1.570,-1.570,-0.297
1606940610785523456,pose_received,1606940610784798911,-1.570,0.000,0.000,-1.570,-1.570,-0.297
1606940610805672192,pose_received,1606940610804799617,-1.570,0.000,0.000,-1.570,-1.570,-0.297
1606940610826144256,pose_received,1606940610824800524,-1.570,0.000,0.000,-1.570,-1.570,-0.297
1606940610845495040,pose_received,1606940610844796930,-1.570,0.000,0.000,-1.570,-1.570,-0.297
1606940610865985792,pose_received,1606940610864795436,-1.570,0.000,0.000,-1.570,-1.570,-0.297
1606940610885699072,pose_received,1606940610884794743,-1.570,0.000,0.000,-1.570,-1.570,-0.297
1606940610905547008,pose_received,1606940610904794849,-1.570,0.000,0.000,-1.570,-1.570,-0.297
1606940610925878528,pose_received,1606940610924794755,-1.570,0.000,0.000,-1.570,-1.570,-0.297
1606940610945374464,pose_received,1606940610944796662,-1.570,0.000,0.000,-1.570,-1.570,-0.297
1606940610965670400,pose_received,1606940610964800468,-1.570,0.000,0.000,-1.570,-1.570,-0.297
1606940610985724928,pose_received,1606940610984796474,-1.570,0.000,0.000,-1.570,-1.570,-0.297
1606940611005850112,pose_received,1606940611004796581,-1.570,0.000,0.000,-1.570,-1.570,-0.297
1606940611025371136,pose_received,1606940611024799587,-1.570,0.000,0.000,-1.570,-1.570,-0.297
1606940611045893376,pose_received,1606940611044802993,-1.570,0.000,0.000,-1.570,-1.570,-0.297
1606940611065717248,pose_received,1606940611064797100,-1.570,0.000,0.000,-1.570,-1.570,-0.297
1606940611086221824,pose_received,1606940611084773206,-1.570,0.000,0.000,-1.570,-1.570,-0.297
1606940611105429504,pose_received,1606940611104796513,-1.570,0.000,0.000,-1.570,-1.570,-0.297
1606940611126050560,pose_received,1606940611124805519,-1.570,0.000,0.000,-1.570,-1.570,-0.297
1606940611145419264,pose_received,1606940611144863425,-1.570,0.000,0.000,-1.570,-1.570,-0.297
1606940611165802240,pose_received,1606940611164797332,-1.570,0.000,0.000,-1.570,-1.570,-0.297
1606940611186497280,pose_received,1606940611184796338,-1.570,0.000,0.000,-1.570,-1.570,-0.297
1606940611205923840,pose_received,1606940611204776845,-1.570,0.000,0.000,-1.570,-1.570,-0.297
1606940611225908224,pose_received,1606940611224923450,-1.570,0.000,0.000,-1.570,-1.570,-0.297
1606940611245384960,pose_received,1606940611244798457,-1.570,0.000,0.000,-1.570,-1.570,-0.297
1606940611265193984,pose_received,1606940611264775964,-1.570,0.000,0.000,-1.570,-1.570,-0.297
1606940611285378560,pose_received,1606940611284798770,-1.570,0.000,0.000,-1.570,-1.570,-0.297
1606940611305431040,pose_received,1606940611304796376,-1.570,0.000,0.000,-1.570,-1.570,-0.297
1606940611325773568,pose_received,1606940611324797283,-1.570,0.000,0.000,-1.570,-1.570,-0.297
1606940611346580992,pose_received,1606940611344890689,-1.570,0.000,0.000,-1.570,-1.570,-0.297
1606940611365416192,pose_received,1606940611364795396,-1.570,0.000,0.000,-1.570,-1.570,-0.297
1606940611386075136,pose_received,1606940611385416799,-1.570,0.000,0.000,-1.570,-1.570,-0.297
1606940611405454080,pose_received,1606940611404798008,-1.570,0.000,0.000,-1.570,-1.570,-0.297
1606940611425503232,pose_received,1606940611424796615,-1.570,0.000,0.000,-1.570,-1.570,-0.297
1606940611445814016,pose_received,1606940611444797521,-1.570,0.000,0.000,-1.570,-1.570,-0.297
1606940611465894400,pose_received,1606940611464795127,-1.570,0.000,0.000,-1.570,-1.570,-0.297
1606940611485782784,pose_received,1606940611484813934,-1.570,0.000,0.000,-1.570,-1.570,-0.297
1606940611505760256,pose_received,1606940611504772140,-1.570,0.000,0.000,-1.570,-1.570,-0.297
1606940611525745408,pose_received,1606940611524813546,-1.570,0.000,0.000,-1.570,-1.570,-0.297
1606940611545325568,pose_received,1606940611544858553,-1.570,0.000,0.000,-1.570,-1.570,-0.297
1606940611565534464,pose_received,1606940611564794159,-1.570,0.000,0.000,-1.570,-1.570,-0.297
1606940611585763584,pose_received,1606940611584798066,-1.570,0.000,0.000,-1.570,-1.570,-0.297
1606940611605763584,pose_received,1606940611604796972,-1.570,0.000,0.000,-1.570,-1.570,-0.297
1606940611625527808,pose_received,1606940611624794878,-1.570,0.000,0.000,-1.570,-1.570,-0.297
1606940611645859584,pose_received,1606940611644805185,-1.570,0.000,0.000,-1.570,-1.570,-0.297
1606940611665633280,pose_received,1606940611664769491,-1.570,0.000,0.000,-1.570,-1.570,-0.297
1606940611685505280,pose_received,1606940611684795498,-1.570,0.000,0.000,-1.570,-1.570,-0.297
1606940611705688832,pose_received,1606940611704796704,-1.570,0.000,0.000,-1.570,-1.570,-0.297
1606940611725619712,pose_received,1606940611724794010,-1.570,0.000,0.000,-1.570,-1.570,-0.297
1606940611745899264,pose_received,1606940611744886016,-1.570,0.000,0.000,-1.570,-1.570,-0.297
1606940611765606912,pose_received,1606940611764792723,-1.570,0.000,0.000,-1.570,-1.570,-0.297
1606940611785337856,pose_received,1606940611784797029,-1.570,0.000,0.000,-1.570,-1.570,-0.297
1606940611805744128,pose_received,1606940611805128534,-1.570,0.000,0.000,-1.570,-1.570,-0.297
1606940611825649664,pose_received,1606940611824795642,-1.570,0.000,0.000,-1.570,-1.570,-0.297
1606940611845521664,pose_received,1606940611844798049,-1.570,0.000,0.000,-1.570,-1.570,-0.297
1606940611865355264,pose_received,1606940611864794855,-1.570,0.000,0.000,-1.570,-1.570,-0.297
1606940611885534976,pose_received,1606940611884795161,-1.570,0.000,0.000,-1.570,-1.570,-0.297
1606940611905866240,pose_received,1606940611904814268,-1.570,0.000,0.000,-1.570,-1.570,-0.297
1606940611925837568,pose_received,1606940611924795674,-1.570,0.000,0.000,-1.570,-1.570,-0.297
1606940611945363200,pose_received,1606940611944794081,-1.570,0.000,0.000,-1.570,-1.570,-0.297
1606940611965688832,pose_received,1606940611964790987,-1.570,0.000,0.000,-1.570,-1.570,-0.297
1606940611985351424,pose_received,1606940611984794193,-1.570,0.000,0.000,-1.570,-1.570,-0.297
1606940612005748992,pose_received,1606940612004796500,-1.570,0.000,0.000,-1.570,-1.570,-0.297
1606940612025548544,pose_received,1606940612024796806,-1.570,0.000,0.000,-1.570,-1.570,-0.297
1606940612045480960,pose_received,1606940612044794912,-1.570,0.000,0.000,-1.570,-1.570,-0.297
1606940612065396992,pose_received,1606940612064796419,-1.570,0.000,0.000,-1.570,-1.570,-0.297
1606940612085834240,pose_received,1606940612084793825,-1.570,0.000,0.000,-1.570,-1.570,-0.297
1606940612105490432,pose_received,1606940612104798032,-1.570,0.000,0.000,-1.570,-1.570,-0.297
1606940612125872896,pose_received,1606940612124794138,-1.570,0.000,0.000,-1.570,-1.570,-0.297
1606940612145437440,pose_received,1606940612144796945,-1.570,0.000,0.000,-1.570,-1.570,-0.297
1606940612165716480,pose_received,1606940612164875951,-1.570,0.000,0.000,-1.570,-1.570,-0.297
1606940612185491456,pose_received,1606940612184793657,-1.570,0.000,0.000,-1.570,-1.570,-0.297
1606940612205526016,pose_received,1606940612204794964,-1.570,0.000,0.000,-1.570,-1.570,-0.297
1606940612225450752,pose_received,1606940612224798170,-1.570,0.000,0.000,-1.570,-1.570,-0.297
1606940612245793024,pose_received,1606940612244794777,-1.570,0.000,0.000,-1.570,-1.570,-0.297
1606940612265835776,pose_received,1606940612264974482,-1.570,0.078,0.031,-1.570,-1.539,-0.297
1606940612285771264,pose_received,1606940612284899289,-1.570,0.087,0.035,-1.570,-1.535,-0.297
1606940612305798400,pose_received,1606940612304798796,-1.570,0.087,0.035,-1.570,-1.535,-0.297
1606940612325659648,pose_received,1606940612324816102,-1.570,0.105,0.035,-1.570,-1.535,-0.297
1606940612345825024,pose_received,1606940612344872308,-1.570,0.105,0.035,-1.570,-1.535,-0.297
1606940612365831168,pose_received,1606940612364803215,-1.570,0.105,0.035,-1.570,-1.535,-0.297
1606940612385801984,pose_received,1606940612384798221,-1.570,0.105,0.035,-1.570,-1.535,-0.297
1606940612405424128,pose_received,1606940612404795928,-1.570,0.174,0.000,-1.570,-1.570,-0.297
1606940612426179072,pose_received,1606940612424802134,-1.570,0.174,0.000,-1.570,-1.570,-0.297
1606940612445633024,pose_received,1606940612444795141,-1.570,0.174,0.000,-1.570,-1.570,-0.297
1606940612465363456,pose_received,1606940612464796447,-1.570,0.239,0.016,-1.570,-1.554,-0.297
1606940612485786112,pose_received,1606940612484795053,-1.570,0.244,0.017,-1.570,-1.553,-0.297
1606940612505594624,pose_received,1606940612504797060,-1.570,0.244,0.017,-1.570,-1.553,-0.297
1606940612525529088,pose_received,1606940612524802466,-1.570,0.289,0.017,-1.570,-1.553,-0.297
1606940612545733632,pose_received,1606940612544846972,-1.570,0.314,0.017,-1.570,-1.553,-0.297
1606940612565443584,pose_received,1606940612564793879,-1.570,0.314,0.017,-1.570,-1.553,-0.297
1606940612585640704,pose_received,1606940612584798586,-1.570,0.349,0.052,-1.570,-1.518,-0.297
1606940612605361408,pose_received,1606940612604793992,-1.570,0.349,0.052,-1.570,-1.518,-0.297
1606940612625975808,pose_received,1606940612624774498,-1.570,0.368,0.052,-1.570,-1.518,-0.297
1606940612645651968,pose_received,1606940612644795705,-1.570,0.384,0.052,-1.570,-1.518,-0.297
1606940612665531904,pose_received,1606940612664797011,-1.570,0.384,0.052,-1.570,-1.518,-0.297
1606940612686107648,pose_received,1606940612684805318,-1.570,0.384,0.052,-1.570,-1.518,-0.297
1606940612705787904,pose_received,1606940612704796024,-1.570,0.401,0.087,-1.570,-1.483,-0.297
1606940612726000640,pose_received,1606940612724797630,-1.570,0.401,0.087,-1.570,-1.483,-0.297
1606940612747129344,pose_received,1606940612744849537,-1.570,0.401,0.087,-1.570,-1.483,-0.297
1606940612765649920,pose_received,1606940612764791443,-1.570,0.432,0.087,-1.570,-1.483,-0.297
1606940612785576192,pose_received,1606940612784803250,-1.570,0.436,0.087,-1.570,-1.483,-0.297
1606940612805589760,pose_received,1606940612804797656,-1.570,0.439,0.093,-1.570,-1.477,-0.297
1606940612825590272,pose_received,1606940612824797562,-1.570,0.454,0.122,-1.570,-1.448,-0.297
1606940612845787904,pose_received,1606940612844796569,-1.570,0.454,0.122,-1.570,-1.448,-0.297
1606940612865697536,pose_received,1606940612864794075,-1.570,0.454,0.122,-1.570,-1.448,-0.297
1606940612885570560,pose_received,1606940612884918281,-1.570,0.454,0.122,-1.570,-1.448,-0.297
1606940612905797376,pose_received,1606940612904795488,-1.570,0.454,0.122,-1.570,-1.448,-0.297
1606940612925346048,pose_received,1606940612924797794,-1.570,0.471,0.140,-1.570,-1.430,-0.297
1606940612945798656,pose_received,1606940612944868801,-1.570,0.471,0.140,-1.570,-1.430,-0.297
1606940612965818112,pose_received,1606940612964786907,-1.570,0.503,0.140,-1.570,-1.430,-0.297
1606940612985615872,pose_received,1606940612984795214,-1.570,0.506,0.140,-1.570,-1.430,-0.297
1606940613005502720,pose_received,1606940613004795620,-1.570,0.506,0.140,-1.570,-1.430,-0.297
1606940613026059520,pose_received,1606940613024776927,-1.570,0.527,0.140,-1.570,-1.430,-0.297
1606940613045643776,pose_received,1606940613044796933,-1.570,0.541,0.140,-1.570,-1.430,-0.297
1606940613065374208,pose_received,1606940613064800639,-1.570,0.541,0.140,-1.570,-1.430,-0.297
1606940613085850112,pose_received,1606940613084780746,-1.570,0.576,0.140,-1.570,-1.430,-0.297
1606940613105814272,pose_received,1606940613104795052,-1.570,0.576,0.140,-1.570,-1.430,-0.297
1606940613125869312,pose_received,1606940613124758359,-1.570,0.576,0.140,-1.570,-1.430,-0.297
1606940613145523456,pose_received,1606940613144936764,-1.570,0.601,0.140,-1.570,-1.430,-0.297
1606940613165737984,pose_received,1606940613164794072,-1.570,0.611,0.140,-1.570,-1.430,-0.297
1606940613185406720,pose_received,1606940613184798778,-1.570,0.611,0.140,-1.570,-1.430,-0.297
1606940613206175232,pose_received,1606940613204804284,-1.570,0.628,0.140,-1.570,-1.430,-0.297
1606940613225455360,pose_received,1606940613224796291,-1.570,0.628,0.140,-1.570,-1.430,-0.297
1606940613245526016,pose_received,1606940613244793997,-1.570,0.628,0.140,-1.570,-1.430,-0.297
1606940613265233408,pose_received,1606940613264777004,-1.570,0.644,0.155,-1.570,-1.415,-0.297
1606940613285783808,pose_received,1606940613284757110,-1.570,0.645,0.157,-1.570,-1.413,-0.297
1606940613305656064,pose_received,1606940613304800117,-1.570,0.645,0.157,-1.570,-1.413,-0.297
1606940613325494528,pose_received,1606940613324795723,-1.570,0.645,0.157,-1.570,-1.413,-0.297
1606940613345879040,pose_received,1606940613344809829,-1.570,0.645,0.157,-1.570,-1.413,-0.297
1606940613367881728,pose_received,1606940613365655532,-1.570,0.645,0.157,-1.570,-1.413,-0.297
1606940613385993728,pose_received,1606940613384803142,-1.570,0.663,0.174,-1.570,-1.396,-0.297
1606940613405635328,pose_received,1606940613404796849,-1.570,0.663,0.174,-1.570,-1.396,-0.297
1606940613425857024,pose_received,1606940613424815155,-1.570,0.673,0.164,-1.570,-1.406,-0.297
1606940613445628160,pose_received,1606940613444798462,-1.570,0.680,0.157,-1.570,-1.413,-0.297
1606940613465890048,pose_received,1606940613464810268,-1.570,0.680,0.157,-1.570,-1.413,-0.297
1606940613485895424,pose_received,1606940613484779875,-1.570,0.680,0.157,-1.570,-1.413,-0.297
1606940613505703680,pose_received,1606940613504806181,-1.570,0.698,0.174,-1.570,-1.396,-0.297
1606940613525717760,pose_received,1606940613524796387,-1.570,0.698,0.174,-1.570,-1.396,-0.297
1606940613545783808,pose_received,1606940613544812594,-1.570,0.698,0.174,-1.570,-1.396,-0.297
1606940613565579520,pose_received,1606940613564795300,-1.570,0.698,0.174,-1.570,-1.396,-0.297
1606940613586118912,pose_received,1606940613584758707,-1.570,0.698,0.174,-1.570,-1.396,-0.297
1606940613605413632,pose_received,1606940613604796113,-1.570,0.698,0.174,-1.570,-1.396,-0.297
1606940613625907712,pose_received,1606940613624795520,-1.570,0.698,0.174,-1.570,-1.396,-0.297
1606940613645858560,pose_received,1606940613644794426,-1.570,0.698,0.174,-1.570,-1.396,-0.297
1606940613665907200,pose_received,1606940613664776233,-1.570,0.698,0.174,-1.570,-1.396,-0.297
1606940613685450752,pose_received,1606940613684800539,-1.570,0.698,0.174,-1.570,-1.396,-0.297
1606940613705544448,pose_received,1606940613704798545,-1.570,0.697,0.174,-1.570,-1.396,-0.297
1606940613725901824,pose_received,1606940613724809452,-1.570,0.680,0.174,-1.570,-1.396,-0.297
1606940613745811200,pose_received,1606940613744907058,-1.570,0.680,0.174,-1.570,-1.396,-0.297
1606940613766098176,pose_received,1606940613765489461,-1.570,0.680,0.174,-1.570,-1.396,-0.297
1606940613785764608,pose_received,1606940613784795971,-1.570,0.680,0.227,-1.570,-1.343,-0.297
1606940613805456896,pose_received,1606940613804794078,-1.570,0.680,0.227,-1.570,-1.343,-0.297
1606940613826185472,pose_received,1606940613824799384,-1.570,0.680,0.227,-1.570,-1.343,-0.297
1606940613845803008,pose_received,1606940613844795190,-1.570,0.680,0.227,-1.570,-1.343,-0.297
1606940613865780224,pose_received,1606940613864794197,-1.570,0.680,0.227,-1.570,-1.343,-0.297
1606940613885384192,pose_received,1606940613884796703,-1.570,0.680,0.244,-1.570,-1.326,-0.297
1606940613905523456,pose_received,1606940613904794510,-1.570,0.680,0.244,-1.570,-1.326,-0.297
1606940613925724416,pose_received,1606940613924795816,-1.570,0.670,0.264,-1.570,-1.306,-0.297
1606940613945379328,pose_received,1606940613944796223,-1.570,0.663,0.279,-1.570,-1.291,-0.297
1606940613968021760,pose_received,1606940613964795229,-1.570,0.663,0.279,-1.570,-1.291,-0.297
1606940613986094080,pose_received,1606940613984817035,-1.570,0.645,0.314,-1.570,-1.256,-0.297
1606940614005284608,pose_received,1606940614004798342,-1.570,0.645,0.314,-1.570,-1.256,-0.297
1606940614025614848,pose_received,1606940614024816248,-1.570,0.645,0.334,-1.570,-1.236,-0.297
1606940614045891840,pose_received,1606940614044795155,-1.570,0.645,0.349,-1.570,-1.221,-0.297
1606940614065358336,pose_received,1606940614064775261,-1.570,0.645,0.349,-1.570,-1.221,-0.297
1606940614086372864,pose_received,1606940614085274966,-1.570,0.645,0.349,-1.570,-1.221,-0.297
1606940614105489152,pose_received,1606940614104816974,-1.570,0.645,0.349,-1.570,-1.221,-0.297
1606940614125817344,pose_received,1606940614124794281,-1.570,0.628,0.384,-1.570,-1.186,-0.297
1606940614145445376,pose_received,1606940614144813187,-1.570,0.628,0.384,-1.570,-1.186,-0.297
1606940614166217216,pose_received,1606940614165573790,-1.570,0.628,0.384,-1.570,-1.186,-0.297
1606940614185927680,pose_received,1606940614184796500,-1.570,0.611,0.419,-1.570,-1.151,-0.297
1606940614205549824,pose_received,1606940614204795007,-1.570,0.611,0.419,-1.570,-1.151,-0.297
1606940614225710592,pose_received,1606940614224796013,-1.570,0.611,0.419,-1.570,-1.151,-0.297
1606940614245907712,pose_received,1606940614244816419,-1.570,0.585,0.444,-1.570,-1.126,-0.297
1606940614265448448,pose_received,1606940614264793826,-1.570,0.576,0.454,-1.570,-1.116,-0.297
1606940614285944832,pose_received,1606940614284778933,-1.570,0.576,0.454,-1.570,-1.116,-0.297
1606940614305358592,pose_received,1606940614304797539,-1.570,0.558,0.506,-1.570,-1.064,-0.297
1606940614325539328,pose_received,1606940614324796145,-1.570,0.558,0.506,-1.570,-1.064,-0.297
1606940614346550528,pose_received,1606940614345743647,-1.570,0.533,0.544,-1.570,-1.026,-0.297
1606940614365284864,pose_received,1606940614364795558,-1.570,0.523,0.558,-1.570,-1.012,-0.297
1606940614385664256,pose_received,1606940614384869664,-1.570,0.523,0.558,-1.570,-1.012,-0.297
1606940614406025216,pose_received,1606940614404800671,-1.570,0.523,0.558,-1.570,-1.012,-0.297
1606940614425451520,pose_received,1606940614424796778,-1.570,0.506,0.611,-1.570,-0.959,-0.297
1606940614445470208,pose_received,1606940614444800384,-1.570,0.506,0.611,-1.570,-0.959,-0.297
1606940614466538496,pose_received,1606940614465549887,-1.570,0.506,0.611,-1.570,-0.959,-0.297
1606940614485782784,pose_received,1606940614484843397,-1.570,0.488,0.645,-1.570,-0.925,-0.297
1606940614506110720,pose_received,1606940614504810804,-1.570,0.488,0.645,-1.570,-0.925,-0.297
1606940614525931264,pose_received,1606940614524812510,-1.570,0.479,0.655,-1.570,-0.915,-0.297
1606940614545334272,pose_received,1606940614544865316,-1.570,0.471,0.663,-1.570,-0.907,-0.297
1606940614565733376,pose_received,1606940614564797123,-1.570,0.471,0.663,-1.570,-0.907,-0.297
1606940614585371136,pose_received,1606940614584795830,-1.570,0.436,0.715,-1.570,-0.855,-0.297
1606940614605766400,pose_received,1606940614604794236,-1.570,0.436,0.715,-1.570,-0.855,-0.297
1606940614625905408,pose_received,1606940614624797142,-1.570,0.416,0.746,-1.570,-0.824,-0.297
1606940614645833984,pose_received,1606940614644760049,-1.570,0.401,0.768,-1.570,-0.802,-0.297
1606940614665349888,pose_received,1606940614664798455,-1.570,0.401,0.768,-1.570,-0.802,-0.297
1606940614685498624,pose_received,1606940614684799562,-1.570,0.401,0.768,-1.570,-0.802,-0.297
1606940614705611776,pose_received,1606940614704798168,-1.570,0.366,0.802,-1.570,-0.768,-0.297
1606940614725767424,pose_received,1606940614725192873,-1.570,0.366,0.802,-1.570,-0.768,-0.297
1606940614745306368,pose_received,1606940614744846881,-1.570,0.341,0.867,-1.570,-0.703,-0.297
1606940614765944064,pose_received,1606940614764874087,-1.570,0.331,0.890,-1.570,-0.680,-0.297
1606940614785296384,pose_received,1606940614784802694,-1.570,0.331,0.890,-1.570,-0.680,-0.297
1606940614805861632,pose_received,1606940614804797501,-1.570,0.331,0.890,-1.570,-0.680,-0.297
1606940614825591040,pose_received,1606940614824797607,-1.570,0.279,0.959,-1.570,-0.611,-0.297
1606940614845885184,pose_received,1606940614844791614,-1.570,0.279,0.959,-1.570,-0.611,-0.297
1606940614865681152,pose_received,1606940614864798520,-1.570,0.279,0.959,-1.570,-0.611,-0.297
1606940614885864960,pose_received,1606940614884804226,-1.570,0.279,0.959,-1.570,-0.611,-0.297
1606940614905349120,pose_received,1606940614904795533,-1.570,0.227,1.029,-1.570,-0.541,-0.297
1606940614925929216,pose_received,1606940614924875439,-1.570,0.227,1.029,-1.570,-0.541,-0.297
1606940614945754624,pose_received,1606940614944863346,-1.570,0.227,1.029,-1.570,-0.541,-0.297
1606940614966492672,pose_received,1606940614965549749,-1.570,0.227,1.029,-1.570,-0.541,-0.297
1606940614985616640,pose_received,1606940614984795559,-1.570,0.192,1.082,-1.570,-0.488,-0.297
1606940615005776896,pose_received,1606940615004794065,-1.570,0.192,1.082,-1.570,-0.488,-0.297
1606940615026109440,pose_received,1606940615024793072,-1.570,0.192,1.082,-1.570,-0.488,-0.297
1606940615049825536,pose_received,1606940615044794878,-1.570,0.192,1.082,-1.570,-0.488,-0.297
1606940615066464000,pose_received,1606940615064796985,-1.570,0.158,1.133,-1.570,-0.437,-0.297
1606940615086104064,pose_received,1606940615085066290,-1.570,0.157,1.134,-1.570,-0.436,-0.297
1606940615105470976,pose_received,1606940615104798398,-1.570,0.157,1.134,-1.570,-0.436,-0.297
1606940615125502976,pose_received,1606940615124801504,-1.570,0.122,1.169,-1.570,-0.401,-0.297
1606940615145723648,pose_received,1606940615144821411,-1.570,0.122,1.169,-1.570,-0.401,-0.297
1606940615165732864,pose_received,1606940615164793317,-1.570,0.122,1.169,-1.570,-0.401,-0.297
1606940615185485056,pose_received,1606940615184797124,-1.570,0.122,1.169,-1.570,-0.401,-0.297
1606940615205679872,pose_received,1606940615204793730,-1.570,0.122,1.169,-1.570,-0.401,-0.297
1606940615225450240,pose_received,1606940615224797037,-1.570,0.122,1.169,-1.570,-0.401,-0.297
1606940615245811968,pose_received,1606940615244792643,-1.570,0.122,1.169,-1.570,-0.401,-0.297
1606940615265626368,pose_received,1606940615264776650,-1.570,0.122,1.169,-1.570,-0.401,-0.297
1606940615285733120,pose_received,1606940615284814256,-1.570,0.122,1.169,-1.570,-0.401,-0.297
1606940615306308096,pose_received,1606940615304794763,-1.570,0.122,1.169,-1.570,-0.401,-0.297
1606940615325993984,pose_received,1606940615324795269,-1.570,0.072,1.229,-1.570,-0.341,-0.297
1606940615345357056,pose_received,1606940615344798376,-1.570,0.035,1.273,-1.570,-0.297,-0.297
1606940615365238784,pose_received,1606940615364796182,-1.570,0.035,1.273,-1.570,-0.297,-0.297
1606940615385844736,pose_received,1606940615384796789,-1.570,-0.052,1.396,-1.570,-0.174,-0.297
1606940615405794048,pose_received,1606940615404792795,-1.570,-0.052,1.396,-1.570,-0.174,-0.297
1606940615425534464,pose_received,1606940615424793002,-1.570,-0.052,1.396,-1.570,-0.174,-0.297
1606940615445345792,pose_received,1606940615444799808,-1.570,-0.052,1.396,-1.570,-0.174,-0.297
1606940615465878272,pose_received,1606940615464794215,-1.570,-0.052,1.396,-1.570,-0.174,-0.297
1606940615485634304,pose_received,1606940615484798121,-1.570,-0.052,1.396,-1.570,-0.174,-0.297
1606940615505629696,pose_received,1606940615504795528,-1.570,-0.052,1.396,-1.570,-0.174,-0.297
1606940615525885184,pose_received,1606940615524779134,-1.570,-0.093,1.446,-1.570,-0.124,-0.297
1606940615547253760,pose_received,1606940615545053839,-1.570,-0.122,1.483,-1.570,-0.087,-0.297
1606940615565665792,pose_received,1606940615564794847,-1.570,-0.122,1.483,-1.570,-0.087,-0.297
1606940615585533952,pose_received,1606940615584796454,-1.570,-0.122,1.483,-1.570,-0.087,-0.297
1606940615605831168,pose_received,1606940615604775960,-1.570,-0.122,1.483,-1.570,-0.087,-0.297
1606940615625323776,pose_received,1606940615624797867,-1.570,-0.122,1.483,-1.570,-0.087,-0.297
1606940615645680384,pose_received,1606940615644796373,-1.570,-0.122,1.483,-1.570,-0.087,-0.297
1606940615665531648,pose_received,1606940615664786380,-1.570,-0.122,1.483,-1.570,-0.087,-0.297
1606940615685416192,pose_received,1606940615684792986,-1.570,-0.122,1.483,-1.570,-0.087,-0.297
1606940615705549312,pose_received,1606940615704794693,-1.570,-0.122,1.483,-1.570,-0.087,-0.297
1606940615725693184,pose_received,1606940615724794799,-1.570,-0.122,1.483,-1.570,-0.087,-0.297
1606940615745450496,pose_received,1606940615744795106,-1.570,-0.122,1.483,-1.570,-0.087,-0.297
1606940615765620480,pose_received,1606940615764791812,-1.570,-0.122,1.483,-1.570,-0.087,-0.297
1606940615785492224,pose_received,1606940615785076017,-1.570,-0.122,1.483,-1.570,-0.087,-0.297
1606940615805795328,pose_received,1606940615804825725,-1.570,-0.122,1.483,-1.570,-0.087,-0.297
1606940615825487616,pose_received,1606940615824816832,-1.570,-0.122,1.483,-1.570,-0.087,-0.297
1606940615847119872,pose_received,1606940615844795238,-1.570,-0.122,1.483,-1.570,-0.087,-0.297
1606940615865669888,pose_received,1606940615864812545,-1.570,-0.122,1.483,-1.570,-0.087,-0.297
1606940615886057728,pose_received,1606940615884776251,-1.570,-0.122,1.483,-1.570,-0.087,-0.297
1606940615905540352,pose_received,1606940615904797458,-1.570,-0.122,1.483,-1.570,-0.087,-0.297
1606940615925615872,pose_received,1606940615924799864,-1.570,-0.122,1.483,-1.570,-0.087,-0.297
1606940615945740288,pose_received,1606940615944843870,-1.570,-0.122,1.483,-1.570,-0.087,-0.297
1606940615965545216,pose_received,1606940615964797977,-1.570,-0.122,1.483,-1.570,-0.087,-0.297
1606940615985915392,pose_received,1606940615984806084,-1.570,-0.122,1.483,-1.570,-0.087,-0.297
1606940616005672704,pose_received,1606940616004800690,-1.570,-0.122,1.483,-1.570,-0.087,-0.297
1606940616025568000,pose_received,1606940616024797097,-1.570,-0.122,1.483,-1.570,-0.087,-0.297
1606940616045439232,pose_received,1606940616044796603,-1.570,-0.122,1.483,-1.570,-0.087,-0.297
1606940616065938688,pose_received,1606940616064810110,-1.570,-0.122,1.483,-1.570,-0.087,-0.297
1606940616085789696,pose_received,1606940616084795816,-1.570,-0.122,1.483,-1.570,-0.087,-0.297
1606940616105377024,pose_received,1606940616104794223,-1.570,-0.122,1.483,-1.570,-0.087,-0.297
1606940616125620224,pose_received,1606940616124796729,-1.570,-0.122,1.483,-1.570,-0.087,-0.297
1606940616145343744,pose_received,1606940616144897035,-1.570,-0.122,1.483,-1.570,-0.087,-0.297
1606940616165767168,pose_received,1606940616164816942,-1.570,-0.122,1.483,-1.570,-0.087,-0.297
1606940616185577472,pose_received,1606940616184794749,-1.570,-0.122,1.483,-1.570,-0.087,-0.297
1606940616205625344,pose_received,1606940616204792455,-1.570,-0.122,1.483,-1.570,-0.087,-0.297
1606940616225377024,pose_received,1606940616224803062,-1.570,-0.122,1.483,-1.570,-0.087,-0.297
1606940616245759488,pose_received,1606940616244794468,-1.570,-0.122,1.483,-1.570,-0.087,-0.297
1606940616265680384,pose_received,1606940616264792975,-1.570,-0.122,1.483,-1.570,-0.087,-0.297
1606940616285751040,pose_received,1606940616284793681,-1.570,-0.122,1.483,-1.570,-0.087,-0.297
1606940616305434368,pose_received,1606940616304794588,-1.570,-0.122,1.483,-1.570,-0.087,-0.297
1606940616326193408,pose_received,1606940616324817294,-1.570,-0.122,1.483,-1.570,-0.087,-0.297
1606940616345781760,pose_received,1606940616344791601,-1.570,-0.122,1.483,-1.570,-0.087,-0.297
1606940616365770496,pose_received,1606940616364792308,-1.570,-0.122,1.483,-1.570,-0.087,-0.297
1606940616385636096,pose_received,1606940616384797014,-1.570,-0.122,1.483,-1.570,-0.087,-0.297
1606940616405899008,pose_received,1606940616404792121,-1.570,-0.122,1.483,-1.570,-0.087,-0.297
1606940616425565696,pose_received,1606940616424798927,-1.570,-0.122,1.483,-1.570,-0.087,-0.297
1606940616445792512,pose_received,1606940616444793634,-1.570,-0.122,1.483,-1.570,-0.087,-0.297
1606940616465705216,pose_received,1606940616464774740,-1.570,-0.122,1.483,-1.570,-0.087,-0.297
1606940616485653248,pose_received,1606940616484808547,-1.570,-0.122,1.483,-1.570,-0.087,-0.297
1606940616506049280,pose_received,1606940616504794153,-1.570,-0.122,1.483,-1.570,-0.087,-0.297
1606940616525956864,pose_received,1606940616524795660,-1.570,-0.122,1.483,-1.570,-0.087,-0.297
1606940616545722368,pose_received,1606940616544839666,-1.570,-0.122,1.483,-1.570,-0.087,-0.297
1606940616565484800,pose_received,1606940616564795473,-1.570,-0.122,1.483,-1.570,-0.087,-0.297
1606940616585759744,pose_received,1606940616584821779,-1.570,-0.122,1.483,-1.570,-0.087,-0.297
1606940616605719296,pose_received,1606940616604795186,-1.570,-0.122,1.483,-1.570,-0.087,-0.297
1606940616626044160,pose_received,1606940616624794992,-1.570,-0.122,1.483,-1.570,-0.087,-0.297
1606940616645507840,pose_received,1606940616644799599,-1.570,-0.122,1.483,-1.570,-0.087,-0.297
1606940616665778944,pose_received,1606940616664809505,-1.570,-0.122,1.483,-1.570,-0.087,-0.297
1606940616685852672,pose_received,1606940616684803312,-1.570,-0.122,1.483,-1.570,-0.087,-0.297
1606940616705592832,pose_received,1606940616704795518,-1.570,-0.122,1.483,-1.570,-0.087,-0.297
1606940616725354496,pose_received,1606940616724799225,-1.570,-0.122,1.483,-1.570,-0.087,-0.297
1606940616745500672,pose_received,1606940616744846831,-1.570,-0.122,1.483,-1.570,-0.087,-0.297
1606940616765755904,pose_received,1606940616764790138,-1.570,-0.122,1.483,-1.570,-0.087,-0.297
1606940616785577728,pose_received,1606940616784797745,-1.570,-0.122,1.483,-1.570,-0.087,-0.297
1606940616805596672,pose_received,1606940616804797151,-1.570,-0.122,1.483,-1.570,-0.087,-0.297
1606940616825781248,pose_received,1606940616824794558,-1.570,-0.122,1.483,-1.570,-0.087,-0.297
1606940616845706240,pose_received,1606940616844816764,-1.570,-0.122,1.483,-1.570,-0.087,-0.297
1606940616865433344,pose_received,1606940616864793871,-1.570,-0.122,1.483,-1.570,-0.087,-0.297
1606940616885577984,pose_received,1606940616884796977,-1.570,-0.122,1.483,-1.570,-0.087,-0.297
1606940616905626368,pose_received,1606940616904795284,-1.570,-0.122,1.483,-1.570,-0.087,-0.297
1606940616926615040,pose_received,1606940616924797390,-1.570,-0.122,1.483,-1.570,-0.087,-0.297
1606940616945929216,pose_received,1606940616944857896,-1.570,-0.122,1.483,-1.570,-0.087,-0.297
1606940616965353216,pose_received,1606940616964795503,-1.570,-0.122,1.483,-1.570,-0.087,-0.297
1606940616985458176,pose_received,1606940616984794510,-1.570,-0.122,1.483,-1.570,-0.087,-0.297
1606940617006196480,pose_received,1606940617004758116,-1.570,-0.122,1.483,-1.570,-0.087,-0.297
1606940617025603840,pose_received,1606940617024797223,-1.570,-0.122,1.483,-1.570,-0.087,-0.297
1606940617045491968,pose_received,1606940617044795229,-1.570,-0.122,1.483,-1.570,-0.087,-0.297
1606940617065654528,pose_received,1606940617064998735,-1.570,-0.122,1.483,-1.570,-0.087,-0.297
1606940617085657344,pose_received,1606940617084798642,-1.570,-0.122,1.483,-1.570,-0.087,-0.297
1606940617106114048,pose_received,1606940617104812549,-1.570,0.000,0.000,-1.570,-1.570,-0.297
1606940617125633792,pose_received,1606940617124797856,-1.570,0.000,0.000,-1.570,-1.570,-0.297
1606940617145367552,pose_received,1606940617144862862,-1.570,0.000,0.000,-1.570,-1.570,-0.297
1606940617165556992,pose_received,1606940617164884068,-1.570,0.000,0.000,-1.570,-1.570,-0.297
1606940617185680128,pose_received,1606940617184795875,-1.570,0.000,0.000,-1.570,-1.570,-0.297
1606940617205871104,pose_received,1606940617204801982,-1.570,0.000,0.000,-1.570,-1.570,-0.297
1606940617226556672,pose_received,1606940617224761489,-1.570,0.000,0.000,-1.570,-1.570,-0.297
1606940617245371904,pose_received,1606940617244795195,-1.570,0.000,0.000,-1.570,-1.570,-0.297
1606940617265506048,pose_received,1606940617264792301,-1.570,0.000,0.000,-1.570,-1.570,-0.297
1606940617285472512,pose_received,1606940617284793908,-1.570,0.000,0.000,-1.570,-1.570,-0.297
1606940617305532416,pose_received,1606940617304812715,-1.570,0.000,0.000,-1.570,-1.570,-0.297
1606940617325581824,pose_received,1606940617324797221,-1.570,0.000,0.000,-1.570,-1.570,-0.297
1606940617345563392,pose_received,1606940617344887527,-1.570,0.000,0.000,-1.570,-1.570,-0.297
1606940617365992192,pose_received,1606940617364843734,-1.570,0.000,0.000,-1.570,-1.570,-0.297
1606940617385727488,pose_received,1606940617384795241,-1.570,0.000,0.000,-1.570,-1.570,-0.297
1606940617405308928,pose_received,1606940617404796047,-1.570,0.000,0.000,-1.570,-1.570,-0.297
1606940617425554432,pose_received,1606940617424796454,-1.570,0.000,0.000,-1.570,-1.570,-0.297
1606940617445710336,pose_received,1606940617444792160,-1.570,0.000,0.000,-1.570,-1.570,-0.297
1606940617465761536,pose_received,1606940617464794867,-1.570,0.000,0.000,-1.570,-1.570,-0.297
1606940617485742336,pose_received,1606940617484794374,-1.570,0.000,0.000,-1.570,-1.570,-0.297
1606940617505598464,pose_received,1606940617504792480,-1.570,0.000,0.000,-1.570,-1.570,-0.297
1606940617525726464,pose_received,1606940617524797087,-1.570,0.000,0.000,-1.570,-1.570,-0.297
1606940617545374464,pose_received,1606940617544798193,-1.570,0.000,0.000,-1.570,-1.570,-0.297
1606940617565545216,pose_received,1606940617564796000,-1.570,0.000,0.000,-1.570,-1.570,-0.297
1606940617585825536,pose_received,1606940617584796506,-1.570,0.000,0.000,-1.570,-1.570,-0.297
1606940617605859328,pose_received,1606940617604792213,-1.570,0.000,0.000,-1.570,-1.570,-0.297
1606940617626049280,pose_received,1606940617624802819,-1.570,0.000,0.000,-1.570,-1.570,-0.297
1606940617645632256,pose_received,1606940617644795626,-1.570,0.000,0.000,-1.570,-1.570,-0.297
1606940617666269696,pose_received,1606940617664791033,-1.570,0.000,0.000,-1.570,-1.570,-0.297
1606940617685384960,pose_received,1606940617684798539,-1.570,0.000,0.000,-1.570,-1.570,-0.297
1606940617705617664,pose_received,1606940617704798046,-1.570,0.000,0.000,-1.570,-1.570,-0.297
1606940617725575936,pose_received,1606940617724803152,-1.570,0.000,0.000,-1.570,-1.570,-0.297
1606940617745817600,pose_received,1606940617744801559,-1.570,0.000,0.000,-1.570,-1.570,-0.297
1606940617765683456,pose_received,1606940617764792765,-1.570,0.000,0.000,-1.570,-1.570,-0.297
1606940617785273088,pose_received,1606940617784799672,-1.570,0.000,0.000,-1.570,-1.570,-0.297
1606940617805346560,pose_received,1606940617804796978,-1.570,0.000,0.000,-1.570,-1.570,-0.297
1606940617825481984,pose_received,1606940617824796885,-1.570,0.000,0.000,-1.570,-1.570,-0.297
1606940617845798912,pose_received,1606940617844798592,-1.570,0.000,0.000,-1.570,-1.570,-0.297
1606940617865748224,pose_received,1606940617864794398,-1.570,0.000,0.000,-1.570,-1.570,-0.297
1606940617886446336,pose_received,1606940617884801605,-1.570,0.000,0.000,-1.570,-1.570,-0.297
1606940617905356288,pose_received,1606940617904793511,-1.570,0.000,0.000,-1.570,-1.570,-0.297
1606940617926046976,pose_received,1606940617924796018,-1.570,0.000,0.000,-1.570,-1.570,-0.297
1606940617945412096,pose_received,1606940617944848324,-1.570,0.000,0.000,-1.570,-1.570,-0.297
1606940617965592064,pose_received,1606940617964795131,-1.570,0.000,0.000,-1.570,-1.570,-0.297
1606940617986099200,pose_received,1606940617984801237,-1.570,0.000,0.000,-1.570,-1.570,-0.297
1606940618005655808,pose_received,1606940618004793644,-1.570,0.000,0.000,-1.570,-1.570,-0.297
1606940618025861632,pose_received,1606940618024798651,-1.570,0.000,0.000,-1.570,-1.570,-0.297
1606940618045470976,pose_received,1606940618044796357,-1.570,0.000,0.000,-1.570,-1.570,-0.297
1606940618065863168,pose_received,1606940618064779464,-1.570,0.000,0.000,-1.570,-1.570,-0.297
1606940618085728768,pose_received,1606940618084795670,-1.570,0.000,0.000,-1.570,-1.570,-0.297
1606940618105447680,pose_received,1606940618104795177,-1.570,0.000,0.000,-1.570,-1.570,-0.297
1606940618125739520,pose_received,1606940618124795883,-1.570,0.000,0.000,-1.570,-1.570,-0.297
1606940618145768192,pose_received,1606940618144809590,-1.570,0.000,0.000,-1.570,-1.570,-0.297
1606940618165713408,pose_received,1606940618164794597,-1.570,0.000,0.000,-1.570,-1.570,-0.297
1606940618186181120,pose_received,1606940618184797003,-1.570,0.000,0.000,-1.570,-1.570,-0.297
1606940618205672192,pose_received,1606940618204793510,-1.570,0.000,0.000,-1.570,-1.570,-0.297
1606940618225830144,pose_received,1606940618224762116,-1.570,0.000,0.000,-1.570,-1.570,-0.297
1606940618245685760,pose_received,1606940618244796323,-1.570,0.000,0.000,-1.570,-1.570,-0.297
1606940618265707264,pose_received,1606940618264792530,-1.570,0.000,0.000,-1.570,-1.570,-0.297
1606940618285718016,pose_received,1606940618284792936,-1.570,0.000,0.000,-1.570,-1.570,-0.297
1606940618305528832,pose_received,1606940618304794543,-1.570,0.000,0.000,-1.570,-1.570,-0.297
1606940618325671424,pose_received,1606940618324794449,-1.570,0.000,0.000,-1.570,-1.570,-0.297
1606940618345835776,pose_received,1606940618344818756,-1.570,0.000,0.000,-1.570,-1.570,-0.297
1606940618365816320,pose_received,1606940618364781562,-1.570,0.000,0.000,-1.570,-1.570,-0.297
1606940618386331136,pose_received,1606940618384759769,-1.570,0.000,0.000,-1.570,-1.570,-0.297
1606940618405918208,pose_received,1606940618404809576,-1.570,0.000,0.000,-1.570,-1.570,-0.297
1606940618427274496,pose_received,1606940618426241075,-1.570,0.000,0.000,-1.570,-1.570,-0.297
1606940618445524736,pose_received,1606940618444795289,-1.570,0.000,0.000,-1.570,-1.570,-0.297
1606940618465685760,pose_received,1606940618464762195,-1.570,0.000,0.000,-1.570,-1.570,-0.297
1606940618485810944,pose_received,1606940618484795202,-1.570,0.000,0.000,-1.570,-1.570,-0.297
1606940618505602304,pose_received,1606940618504798608,-1.570,0.000,0.000,-1.570,-1.570,-0.297
1606940618525972992,pose_received,1606940618525041514,-1.570,0.000,0.000,-1.570,-1.570,-0.297
1606940618545757440,pose_received,1606940618544845621,-1.570,0.000,0.000,-1.570,-1.570,-0.297
1606940618565921536,pose_received,1606940618564813128,-1.570,0.000,0.000,-1.570,-1.570,-0.297
1606940618585684224,pose_received,1606940618584794635,-1.570,0.052,0.052,-1.570,-1.518,-0.297
1606940618605446656,pose_received,1606940618604798341,-1.570,0.052,0.052,-1.570,-1.518,-0.297
1606940618625796352,pose_received,1606940618624794248,-1.570,0.052,0.052,-1.570,-1.518,-0.297
1606940618645398528,pose_received,1606940618644795755,-1.570,0.052,0.052,-1.570,-1.518,-0.297
1606940618666121728,pose_received,1606940618664811861,-1.570,0.052,0.052,-1.570,-1.518,-0.297
1606940618685572864,pose_received,1606940618684811968,-1.570,0.052,0.052,-1.570,-1.518,-0.297
1606940618705523968,pose_received,1606940618704794974,-1.570,0.052,0.035,-1.570,-1.535,-0.297
1606940618725377024,pose_received,1606940618724795681,-1.570,0.052,0.035,-1.570,-1.535,-0.297
1606940618749754368,pose_received,1606940618745645683,-1.570,0.055,0.035,-1.570,-1.535,-0.297
1606940618765714432,pose_received,1606940618764795094,-1.570,0.157,0.035,-1.570,-1.535,-0.297
1606940618786234112,pose_received,1606940618784862000,-1.570,0.157,0.035,-1.570,-1.535,-0.297
1606940618805773824,pose_received,1606940618804797307,-1.570,0.157,0.035,-1.570,-1.535,-0.297
1606940618825725696,pose_received,1606940618824807214,-1.570,0.194,0.023,-1.570,-1.547,-0.297
1606940618845560832,pose_received,1606940618844796020,-1.570,0.209,0.017,-1.570,-1.553,-0.297
1606940618866224896,pose_received,1606940618864787627,-1.570,0.209,0.017,-1.570,-1.553,-0.297
1606940618885456640,pose_received,1606940618884796934,-1.570,0.244,0.035,-1.570,-1.535,-0.297
1606940618905588224,pose_received,1606940618904796140,-1.570,0.244,0.035,-1.570,-1.535,-0.297
1606940618926068736,pose_received,1606940618924814947,-1.570,0.244,0.035,-1.570,-1.535,-0.297
1606940618945574656,pose_received,1606940618944795153,-1.570,0.300,0.035,-1.570,-1.535,-0.297
1606940618966304768,pose_received,1606940618964795460,-1.570,0.314,0.035,-1.570,-1.535,-0.297
1606940618985230336,pose_received,1606940618984763267,-1.570,0.314,0.035,-1.570,-1.535,-0.297
1606940619005795840,pose_received,1606940619004794273,-1.570,0.343,0.054,-1.570,-1.516,-0.297
1606940619025903360,pose_received,1606940619024793880,-1.570,0.366,0.070,-1.570,-1.500,-0.297
1606940619045359872,pose_received,1606940619044800986,-1.570,0.366,0.070,-1.570,-1.500,-0.297
1606940619065496832,pose_received,1606940619064806093,-1.570,0.401,0.070,-1.570,-1.500,-0.297
1606940619085526016,pose_received,1606940619084795799,-1.570,0.401,0.070,-1.570,-1.500,-0.297
1606940619105491712,pose_received,1606940619104795106,-1.570,0.401,0.070,-1.570,-1.500,-0.297
1606940619125755136,pose_received,1606940619124783113,-1.570,0.432,0.080,-1.570,-1.490,-0.297
1606940619145768960,pose_received,1606940619144796419,-1.570,0.454,0.087,-1.570,-1.483,-0.297
1606940619166587136,pose_received,1606940619164795526,-1.570,0.454,0.087,-1.570,-1.483,-0.297
1606940619186035968,pose_received,1606940619184801732,-1.570,0.471,0.122,-1.570,-1.448,-0.297
1606940619205359360,pose_received,1606940619204793539,-1.570,0.471,0.122,-1.570,-1.448,-0.297
1606940619225956352,pose_received,1606940619224797946,-1.570,0.482,0.122,-1.570,-1.448,-0.297
1606940619245750016,pose_received,1606940619244796252,-1.570,0.488,0.122,-1.570,-1.448,-0.297
1606940619266630400,pose_received,1606940619264793259,-1.570,0.488,0.122,-1.570,-1.448,-0.297
1606940619285410304,pose_received,1606940619284812065,-1.570,0.488,0.122,-1.570,-1.448,-0.297
1606940619305534464,pose_received,1606940619304796872,-1.570,0.516,0.131,-1.570,-1.439,-0.297
1606940619325491712,pose_received,1606940619324797379,-1.570,0.541,0.140,-1.570,-1.430,-0.297
1606940619345300480,pose_received,1606940619344846385,-1.570,0.541,0.140,-1.570,-1.430,-0.297
1606940619367151616,pose_received,1606940619364805992,-1.570,0.541,0.140,-1.570,-1.430,-0.297
1606940619385887488,pose_received,1606940619384795299,-1.570,0.576,0.140,-1.570,-1.430,-0.297
1606940619405792000,pose_received,1606940619404796205,-1.570,0.576,0.140,-1.570,-1.430,-0.297
1606940619425494528,pose_received,1606940619424796412,-1.570,0.576,0.140,-1.570,-1.430,-0.297
1606940619445818112,pose_received,1606940619444803118,-1.570,0.576,0.140,-1.570,-1.430,-0.297
1606940619465651456,pose_received,1606940619464824725,-1.570,0.576,0.140,-1.570,-1.430,-0.297
1606940619485572096,pose_received,1606940619484796032,-1.570,0.611,0.140,-1.570,-1.430,-0.297
1606940619505566976,pose_received,1606940619504795238,-1.570,0.611,0.140,-1.570,-1.430,-0.297
1606940619525878272,pose_received,1606940619524751845,-1.570,0.622,0.151,-1.570,-1.419,-0.297
1606940619545880064,pose_received,1606940619544796751,-1.570,0.628,0.157,-1.570,-1.413,-0.297
1606940619565623552,pose_received,1606940619564883058,-1.570,0.628,0.157,-1.570,-1.413,-0.297
1606940619585332736,pose_received,1606940619584797965,-1.570,0.628,0.157,-1.570,-1.413,-0.297
1606940619605790720,pose_received,1606940619604796971,-1.570,0.628,0.157,-1.570,-1.413,-0.297
1606940619625497088,pose_received,1606940619624794078,-1.570,0.628,0.157,-1.570,-1.413,-0.297
1606940619646004224,pose_received,1606940619644795285,-1.570,0.628,0.157,-1.570,-1.413,-0.297
1606940619665491712,pose_received,1606940619664797991,-1.570,0.628,0.157,-1.570,-1.413,-0.297
1606940619685755136,pose_received,1606940619684794298,-1.570,0.628,0.157,-1.570,-1.413,-0.297
1606940619705807872,pose_received,1606940619704815604,-1.570,0.628,0.157,-1.570,-1.413,-0.297
1606940619726034432,pose_received,1606940619724799211,-1.570,0.628,0.157,-1.570,-1.413,-0.297
1606940619745335040,pose_received,1606940619744842617,-1.570,0.657,0.171,-1.570,-1.399,-0.297
1606940619765486080,pose_received,1606940619764792924,-1.570,0.663,0.174,-1.570,-1.396,-0.297
1606940619786026496,pose_received,1606940619784794931,-1.570,0.663,0.174,-1.570,-1.396,-0.297
1606940619805537024,pose_received,1606940619804798737,-1.570,0.663,0.174,-1.570,-1.396,-0.297
1606940619825884672,pose_received,1606940619824790244,-1.570,0.663,0.174,-1.570,-1.396,-0.297
1606940619845611520,pose_received,1606940619844798351,-1.570,0.663,0.174,-1.570,-1.396,-0.297
1606940619866048512,pose_received,1606940619864798857,-1.570,0.663,0.174,-1.570,-1.396,-0.297
1606940619885675776,pose_received,1606940619884817864,-1.570,0.663,0.174,-1.570,-1.396,-0.297
1606940619906049024,pose_received,1606940619904782971,-1.570,0.663,0.186,-1.570,-1.384,-0.297
1606940619925947904,pose_received,1606940619924796377,-1.570,0.663,0.192,-1.570,-1.378,-0.297
1606940619945600768,pose_received,1606940619944837983,-1.570,0.663,0.192,-1.570,-1.378,-0.297
1606940619965778688,pose_received,1606940619964846890,-1.570,0.680,0.209,-1.570,-1.361,-0.297
1606940619985323776,pose_received,1606940619984797697,-1.570,0.680,0.209,-1.570,-1.361,-0.297
1606940620006034944,pose_received,1606940620004795104,-1.570,0.680,0.209,-1.570,-1.361,-0.297
1606940620025608192,pose_received,1606940620024797710,-1.570,0.680,0.209,-1.570,-1.361,-0.297
1606940620045571072,pose_received,1606940620044802517,-1.570,0.693,0.222,-1.570,-1.348,-0.297
1606940620065841152,pose_received,1606940620064797823,-1.570,0.698,0.227,-1.570,-1.343,-0.297
1606940620085355008,pose_received,1606940620084798430,-1.570,0.698,0.227,-1.570,-1.343,-0.297
1606940620105447936,pose_received,1606940620104797237,-1.570,0.680,0.244,-1.570,-1.326,-0.297
1606940620125483264,pose_received,1606940620124797343,-1.570,0.680,0.244,-1.570,-1.326,-0.297
1606940620145800448,pose_received,1606940620144877950,-1.570,0.680,0.244,-1.570,-1.326,-0.297
1606940620165568256,pose_received,1606940620164874056,-1.570,0.680,0.244,-1.570,-1.326,-0.297
1606940620185532416,pose_received,1606940620184796163,-1.570,0.680,0.279,-1.570,-1.291,-0.297
1606940620205784320,pose_received,1606940620204794470,-1.570,0.680,0.279,-1.570,-1.291,-0.297
1606940620227224320,pose_received,1606940620224803177,-1.570,0.669,0.312,-1.570,-1.258,-0.297
1606940620245618176,pose_received,1606940620244799083,-1.570,0.663,0.331,-1.570,-1.239,-0.297
1606940620265497600,pose_received,1606940620264793590,-1.570,0.663,0.331,-1.570,-1.239,-0.297
1606940620285899008,pose_received,1606940620284767097,-1.570,0.663,0.331,-1.570,-1.239,-0.297
1606940620305524224,pose_received,1606940620304794803,-1.570,0.645,0.349,-1.570,-1.221,-0.297
1606940620325924864,pose_received,1606940620324800810,-1.570,0.645,0.349,-1.570,-1.221,-0.297
1606940620346438912,pose_received,1606940620345650412,-1.570,0.645,0.349,-1.570,-1.221,-0.297
1606940620365527552,pose_received,1606940620364796123,-1.570,0.628,0.401,-1.570,-1.169,-0.297
1606940620385537792,pose_received,1606940620384797330,-1.570,0.628,0.401,-1.570,-1.169,-0.297
1606940620405336320,pose_received,1606940620404801036,-1.570,0.619,0.410,-1.570,-1.160,-0.297
1606940620425638912,pose_received,1606940620424806043,-1.570,0.611,0.419,-1.570,-1.151,-0.297
1606940620445526784,pose_received,1606940620444799150,-1.570,0.611,0.419,-1.570,-1.151,-0.297
1606940620465752832,pose_received,1606940620464793856,-1.570,0.611,0.419,-1.570,-1.151,-0.297
1606940620485910016,pose_received,1606940620484803463,-1.570,0.611,0.419,-1.570,-1.151,-0.297
1606940620505642752,pose_received,1606940620504795769,-1.570,0.593,0.506,-1.570,-1.064,-0.297
1606940620525511424,pose_received,1606940620524776876,-1.570,0.593,0.506,-1.570,-1.064,-0.297
1606940620546427392,pose_received,1606940620545604779,-1.570,0.593,0.506,-1.570,-1.064,-0.297
1606940620565853696,pose_received,1606940620564794389,-1.570,0.593,0.541,-1.570,-1.029,-0.297
1606940620585605888,pose_received,1606940620584796196,-1.570,0.593,0.541,-1.570,-1.029,-0.297
1606940620605895680,pose_received,1606940620604793703,-1.570,0.593,0.541,-1.570,-1.029,-0.297
1606940620625670144,pose_received,1606940620624798409,-1.570,0.561,0.595,-1.570,-0.975,-0.297
1606940620645348608,pose_received,1606940620644799616,-1.570,0.541,0.628,-1.570,-0.942,-0.297
1606940620665977344,pose_received,1606940620665332620,-1.570,0.541,0.628,-1.570,-0.942,-0.297
1606940620685630208,pose_received,1606940620684795929,-1.570,0.506,0.680,-1.570,-0.890,-0.297
1606940620705497088,pose_received,1606940620704796336,-1.570,0.506,0.680,-1.570,-0.890,-0.297
1606940620725297152,pose_received,1606940620724796143,-1.570,0.473,0.724,-1.570,-0.846,-0.297
1606940620748366848,pose_received,1606940620745856344,-1.570,0.454,0.750,-1.570,-0.820,-0.297
1606940620765317120,pose_received,1606940620764792756,-1.570,0.454,0.750,-1.570,-0.820,-0.297
1606940620785308416,pose_received,1606940620784797962,-1.570,0.454,0.750,-1.570,-0.820,-0.297
1606940620805558784,pose_received,1606940620804795769,-1.570,0.384,0.855,-1.570,-0.715,-0.297
1606940620825403392,pose_received,1606940620824795576,-1.570,0.384,0.855,-1.570,-0.715,-0.297
1606940620846018048,pose_received,1606940620845422679,-1.570,0.384,0.855,-1.570,-0.715,-0.297
1606940620865415936,pose_received,1606940620864831689,-1.570,0.349,0.907,-1.570,-0.663,-0.297
1606940620885272832,pose_received,1606940620884804596,-1.570,0.349,0.907,-1.570,-0.663,-0.297
1606940620905427712,pose_received,1606940620904804802,-1.570,0.331,0.934,-1.570,-0.636,-0.297
1606940620925484288,pose_received,1606940620924797409,-1.570,0.314,0.959,-1.570,-0.611,-0.297
1606940620945966336,pose_received,1606940620944959815,-1.570,0.314,0.960,-1.570,-0.610,-0.297
1606940620965604608,pose_received,1606940620964864622,-1.570,0.279,0.994,-1.570,-0.576,-0.297
1606940620985567488,pose_received,1606940620984799729,-1.570,0.279,0.994,-1.570,-0.576,-0.297
1606940621006506752,pose_received,1606940621004798835,-1.570,0.270,1.012,-1.570,-0.558,-0.297
1606940621025822976,pose_received,1606940621024832242,-1.570,0.262,1.029,-1.570,-0.541,-0.297
1606940621045634560,pose_received,1606940621044784449,-1.570,0.262,1.029,-1.570,-0.541,-0.297
1606940621066334464,pose_received,1606940621064900955,-1.570,0.262,1.029,-1.570,-0.541,-0.297
1606940621085798144,pose_received,1606940621084795462,-1.570,0.192,1.116,-1.570,-0.454,-0.297
1606940621106031360,pose_received,1606940621104765969,-1.570,0.192,1.116,-1.570,-0.454,-0.297
1606940621125499392,pose_received,1606940621124795375,-1.570,0.192,1.116,-1.570,-0.454,-0.297
1606940621145319680,pose_received,1606940621144832582,-1.570,0.136,1.172,-1.570,-0.398,-0.297
1606940621165517312,pose_received,1606940621164795889,-1.570,0.122,1.186,-1.570,-0.384,-0.297
1606940621185705216,pose_received,1606940621184796195,-1.570,0.115,1.197,-1.570,-0.373,-0.297
1606940621206240512,pose_received,1606940621204795702,-1.570,0.087,1.239,-1.570,-0.331,-0.297
1606940621225705216,pose_received,1606940621224797109,-1.570,0.087,1.239,-1.570,-0.331,-0.297
1606940621245333504,pose_received,1606940621244793615,-1.570,0.087,1.239,-1.570,-0.331,-0.297
1606940621266158592,pose_received,1606940621264797522,-1.570,0.087,1.239,-1.570,-0.331,-0.297
1606940621285551360,pose_received,1606940621284800629,-1.570,0.087,1.239,-1.570,-0.331,-0.297
1606940621305375744,pose_received,1606940621304797235,-1.570,0.068,1.257,-1.570,-0.313,-0.297
1606940621325698560,pose_received,1606940621324795442,-1.570,0.052,1.273,-1.570,-0.297,-0.297
1606940621345297152,pose_received,1606940621344841849,-1.570,0.052,1.273,-1.570,-0.297,-0.297
1606940621367777280,pose_received,1606940621364931155,-1.570,0.052,1.273,-1.570,-0.297,-0.297
1606940621385671680,pose_received,1606940621384798462,-1.570,0.052,1.273,-1.570,-0.297,-0.297
1606940621405316096,pose_received,1606940621404797169,-1.570,-0.052,1.396,-1.570,-0.174,-0.297
1606940621425686784,pose_received,1606940621424798375,-1.570,-0.052,1.396,-1.570,-0.174,-0.297
1606940621445863680,pose_received,1606940621444757682,-1.570,-0.052,1.396,-1.570,-0.174,-0.297
1606940621465422848,pose_received,1606940621464795989,-1.570,-0.052,1.396,-1.570,-0.174,-0.297
1606940621485597184,pose_received,1606940621484799195,-1.570,-0.052,1.396,-1.570,-0.174,-0.297
1606940621505659904,pose_received,1606940621504794602,-1.570,-0.052,1.396,-1.570,-0.174,-0.297
1606940621525878528,pose_received,1606940621524798809,-1.570,-0.052,1.396,-1.570,-0.174,-0.297
1606940621545705216,pose_received,1606940621544890215,-1.570,-0.052,1.396,-1.570,-0.174,-0.297
1606940621565775616,pose_received,1606940621564794722,-1.570,-0.052,1.396,-1.570,-0.174,-0.297
1606940621585490432,pose_received,1606940621584811529,-1.570,-0.052,1.396,-1.570,-0.174,-0.297
1606940621605746688,pose_received,1606940621604794435,-1.570,-0.052,1.396,-1.570,-0.174,-0.297
1606940621625901056,pose_received,1606940621624797742,-1.570,-0.052,1.396,-1.570,-0.174,-0.297
1606940621645744896,pose_received,1606940621644795149,-1.570,-0.052,1.396,-1.570,-0.174,-0.297
1606940621665609728,pose_received,1606940621664772656,-1.570,-0.052,1.396,-1.570,-0.174,-0.297
1606940621685495808,pose_received,1606940621684796862,-1.570,-0.052,1.396,-1.570,-0.174,-0.297
1606940621705372672,pose_received,1606940621704793469,-1.570,-0.052,1.396,-1.570,-0.174,-0.297
1606940621725825536,pose_received,1606940621724788575,-1.570,-0.052,1.396,-1.570,-0.174,-0.297
1606940621745725952,pose_received,1606940621744834282,-1.570,-0.052,1.396,-1.570,-0.174,-0.297
1606940621765581312,pose_received,1606940621764789989,-1.570,-0.052,1.396,-1.570,-0.174,-0.297
1606940621785671168,pose_received,1606940621784808495,-1.570,-0.052,1.396,-1.570,-0.174,-0.297
1606940621805560320,pose_received,1606940621804794802,-1.570,-0.052,1.396,-1.570,-0.174,-0.297
1606940621826049280,pose_received,1606940621824795409,-1.570,-0.052,1.396,-1.570,-0.174,-0.297
1606940621845559808,pose_received,1606940621844795915,-1.570,-0.052,1.396,-1.570,-0.174,-0.297
1606940621865558016,pose_received,1606940621864791822,-1.570,-0.052,1.396,-1.570,-0.174,-0.297
1606940621885606656,pose_received,1606940621884799029,-1.570,-0.052,1.396,-1.570,-0.174,-0.297
1606940621905421056,pose_received,1606940621904795435,-1.570,-0.052,1.396,-1.570,-0.174,-0.297
1606940621925530880,pose_received,1606940621924795542,-1.570,-0.052,1.396,-1.570,-0.174,-0.297
1606940621945535744,pose_received,1606940621944828649,-1.570,-0.052,1.396,-1.570,-0.174,-0.297
1606940621966407680,pose_received,1606940621964793255,-1.570,-0.052,1.396,-1.570,-0.174,-0.297
1606940621985818880,pose_received,1606940621984796362,-1.570,-0.052,1.396,-1.570,-0.174,-0.297
1606940622005396992,pose_received,1606940622004798769,-1.570,-0.052,1.396,-1.570,-0.174,-0.297
1606940622026260992,pose_received,1606940622024792375,-1.570,-0.052,1.396,-1.570,-0.174,-0.297
1606940622045899520,pose_received,1606940622044820082,-1.570,-0.052,1.396,-1.570,-0.174,-0.297
1606940622065488384,pose_received,1606940622064795189,-1.570,-0.052,1.396,-1.570,-0.174,-0.297
1606940622085774080,pose_received,1606940622084797196,-1.570,-0.052,1.396,-1.570,-0.174,-0.297
1606940622105680128,pose_received,1606940622104804902,-1.570,-0.052,1.396,-1.570,-0.174,-0.297
1606940622125741568,pose_received,1606940622124796109,-1.570,-0.052,1.396,-1.570,-0.174,-0.297
1606940622145746688,pose_received,1606940622144922615,-1.570,-0.052,1.396,-1.570,-0.174,-0.297
1606940622165781248,pose_received,1606940622164794322,-1.570,-0.052,1.396,-1.570,-0.174,-0.297
1606940622185642752,pose_received,1606940622184793129,-1.570,-0.052,1.396,-1.570,-0.174,-0.297
1606940622205718016,pose_received,1606940622204795836,-1.570,-0.052,1.396,-1.570,-0.174,-0.297
1606940622225570048,pose_received,1606940622224796742,-1.570,-0.052,1.396,-1.570,-0.174,-0.297
1606940622245512448,pose_received,1606940622244796749,-1.570,-0.052,1.396,-1.570,-0.174,-0.297
1606940622265518848,pose_received,1606940622264776056,-1.570,-0.052,1.396,-1.570,-0.174,-0.297
1606940622285785600,pose_received,1606940622284793763,-1.570,-0.052,1.396,-1.570,-0.174,-0.297
1606940622306691072,pose_received,1606940622305509566,-1.570,-0.052,1.396,-1.570,-0.174,-0.297
1606940622326050560,pose_received,1606940622325445873,-1.570,-0.052,1.396,-1.570,-0.174,-0.297
1606940622345498112,pose_received,1606940622344804283,-1.570,-0.052,1.396,-1.570,-0.174,-0.297
1606940622365719296,pose_received,1606940622364844789,-1.570,-0.052,1.396,-1.570,-0.174,-0.297
1606940622385776384,pose_received,1606940622384795496,-1.570,-0.052,1.396,-1.570,-0.174,-0.297
1606940622405922560,pose_received,1606940622404795603,-1.570,-0.052,1.396,-1.570,-0.174,-0.297
1606940622425501696,pose_received,1606940622424799409,-1.570,-0.052,1.396,-1.570,-0.174,-0.297
1606940622445627904,pose_received,1606940622444797916,-1.570,-0.052,1.396,-1.570,-0.174,-0.297
1606940622465420032,pose_received,1606940622464810623,-1.570,-0.052,1.396,-1.570,-0.174,-0.297
1606940622485357312,pose_received,1606940622484752430,-1.570,-0.052,1.396,-1.570,-0.174,-0.297
1606940622505701120,pose_received,1606940622505058735,-1.570,-0.052,1.396,-1.570,-0.174,-0.297
1606940622525478400,pose_received,1606940622524796243,-1.570,-0.052,1.396,-1.570,-0.174,-0.297
1606940622545286400,pose_received,1606940622544843349,-1.570,-0.052,1.396,-1.570,-0.174,-0.297
1606940622565891328,pose_received,1606940622564953255,-1.570,-0.052,1.396,-1.570,-0.174,-0.297
1606940622585342464,pose_received,1606940622584798563,-1.570,-0.052,1.396,-1.570,-0.174,-0.297
1606940622605626880,pose_received,1606940622604795870,-1.570,-0.052,1.396,-1.570,-0.174,-0.297
1606940622625581824,pose_received,1606940622624795576,-1.570,-0.052,1.396,-1.570,-0.174,-0.297
1606940622645795840,pose_received,1606940622644796583,-1.570,-0.052,1.396,-1.570,-0.174,-0.297
1606940622665618176,pose_received,1606940622664795890,-1.570,-0.052,1.396,-1.570,-0.174,-0.297
1606940622685618688,pose_received,1606940622684797096,-1.570,-0.052,1.396,-1.570,-0.174,-0.297
1606940622705500416,pose_received,1606940622704797403,-1.570,-0.052,1.396,-1.570,-0.174,-0.297
1606940622725704960,pose_received,1606940622724796510,-1.570,-0.052,1.396,-1.570,-0.174,-0.297
1606940622745847040,pose_received,1606940622744866316,-1.570,-0.052,1.396,-1.570,-0.174,-0.297
1606940622765489152,pose_received,1606940622764793823,-1.570,-0.052,1.396,-1.570,-0.174,-0.297
1606940622785570816,pose_received,1606940622784795630,-1.570,-0.052,1.396,-1.570,-0.174,-0.297
1606940622805798656,pose_received,1606940622804793337,-1.570,-0.052,1.396,-1.570,-0.174,-0.297
1606940622825869056,pose_received,1606940622824798343,-1.570,-0.052,1.396,-1.570,-0.174,-0.297
1606940622845492736,pose_received,1606940622844796150,-1.570,-0.052,1.396,-1.570,-0.174,-0.297
1606940622866065152,pose_received,1606940622864792657,-1.570,-0.052,1.396,-1.570,-0.174,-0.297
1606940622885498112,pose_received,1606940622884797063,-1.570,-0.052,1.396,-1.570,-0.174,-0.297
1606940622905411840,pose_received,1606940622904796170,-1.570,-0.052,1.396,-1.570,-0.174,-0.297
1606940622926086912,pose_received,1606940622924797477,-1.570,-0.052,1.396,-1.570,-0.174,-0.297
1606940622945778432,pose_received,1606940622944861183,-1.570,-0.052,1.396,-1.570,-0.174,-0.297
1606940622965582848,pose_received,1606940622964794690,-1.570,-0.052,1.396,-1.570,-0.174,-0.297
1606940622985486848,pose_received,1606940622984797297,-1.570,-0.052,1.396,-1.570,-0.174,-0.297
1606940623005748992,pose_received,1606940623004795604,-1.570,-0.022,0.586,-1.570,-0.984,-0.297
1606940623025802752,pose_received,1606940623024797310,-1.570,0.000,0.000,-1.570,-1.570,-0.297
1606940623045373440,pose_received,1606940623044832817,-1.570,0.000,0.000,-1.570,-1.570,-0.297
1606940623066168832,pose_received,1606940623064792724,-1.570,0.000,0.000,-1.570,-1.570,-0.297
1606940623086153728,pose_received,1606940623084805830,-1.570,0.000,0.000,-1.570,-1.570,-0.297
1606940623105860608,pose_received,1606940623104797337,-1.570,0.000,0.000,-1.570,-1.570,-0.297
1606940623125615104,pose_received,1606940623124797144,-1.570,0.000,0.000,-1.570,-1.570,-0.297
1606940623145812480,pose_received,1606940623144800651,-1.570,0.000,0.000,-1.570,-1.570,-0.297
1606940623166031360,pose_received,1606940623164860357,-1.570,0.000,0.000,-1.570,-1.570,-0.297
1606940623186122240,pose_received,1606940623184806364,-1.570,0.000,0.000,-1.570,-1.570,-0.297
1606940623205947648,pose_received,1606940623204820071,-1.570,0.000,0.000,-1.570,-1.570,-0.297
1606940623225407744,pose_received,1606940623224799777,-1.570,0.000,0.000,-1.570,-1.570,-0.297
1606940623245823744,pose_received,1606940623244790984,-1.570,0.000,0.000,-1.570,-1.570,-0.297
1606940623265350400,pose_received,1606940623264792191,-1.570,0.000,0.000,-1.570,-1.570,-0.297
1606940623285673984,pose_received,1606940623284814698,-1.570,0.000,0.000,-1.570,-1.570,-0.297
1606940623305440000,pose_received,1606940623304795704,-1.570,0.000,0.000,-1.570,-1.570,-0.297
1606940623325824512,pose_received,1606940623324794711,-1.570,0.000,0.000,-1.570,-1.570,-0.297
1606940623346224640,pose_received,1606940623344988417,-1.570,0.000,0.000,-1.570,-1.570,-0.297
1606940623365774848,pose_received,1606940623364756625,-1.570,0.000,0.000,-1.570,-1.570,-0.297
1606940623385382912,pose_received,1606940623384778631,-1.570,0.000,0.000,-1.570,-1.570,-0.297
1606940623405783808,pose_received,1606940623404795038,-1.570,0.000,0.000,-1.570,-1.570,-0.297
1606940623425511936,pose_received,1606940623424795345,-1.570,0.000,0.000,-1.570,-1.570,-0.297
1606940623445742848,pose_received,1606940623444800451,-1.570,0.000,0.000,-1.570,-1.570,-0.297
1606940623465865216,pose_received,1606940623464781658,-1.570,0.000,0.000,-1.570,-1.570,-0.297
1606940623485760000,pose_received,1606940623484796765,-1.570,0.000,0.000,-1.570,-1.570,-0.297
1606940623505635072,pose_received,1606940623504797172,-1.570,0.000,0.000,-1.570,-1.570,-0.297
1606940623525570560,pose_received,1606940623524799078,-1.570,0.000,0.000,-1.570,-1.570,-0.297
1606940623545841920,pose_received,1606940623544813885,-1.570,0.000,0.000,-1.570,-1.570,-0.297
1606940623565322496,pose_received,1606940623564796192,-1.570,0.000,0.000,-1.570,-1.570,-0.297
1606940623585594624,pose_received,1606940623584797498,-1.570,0.000,0.000,-1.570,-1.570,-0.297
1606940623606471424,pose_received,1606940623604845505,-1.570,0.000,0.000,-1.570,-1.570,-0.297
1606940623625732608,pose_received,1606940623624796912,-1.570,0.000,0.000,-1.570,-1.570,-0.297
1606940623645751552,pose_received,1606940623644796719,-1.570,0.000,0.000,-1.570,-1.570,-0.297
1606940623665418240,pose_received,1606940623664796425,-1.570,0.000,0.000,-1.570,-1.570,-0.297
1606940623685442816,pose_received,1606940623684797632,-1.570,0.000,0.000,-1.570,-1.570,-0.297
