milangroshev/niryo-one-datasets/digital-twin-remote-control/movement1-20-times.csv
timestamp,event,hw_timestamp,joint_1,joint_2,joint_3,joint_4,joint_5,joint_6
1606939806962696704,pose_received,1606939806961594972,-1.570,0.000,0.000,-1.570,-1.570,-0.297
1606939806982216960,pose_received,1606939806981595211,-1.570,0.000,0.000,-1.570,-1.570,-0.297
1606939807002428160,pose_received,1606939807001593150,-1.570,0.000,0.000,-1.570,-1.570,-0.297
1606939807022184704,pose_received,1606939807021598089,-1.570,0.000,0.000,-1.570,-1.570,-0.297
1606939807042490880,pose_received,1606939807041594229,-1.570,0.000,0.000,-1.570,-1.570,-0.297
1606939807062098176,pose_received,1606939807061660368,-1.570,0.000,0.000,-1.570,-1.570,-0.297
1606939807082459136,pose_received,1606939807081595309,-1.570,0.000,0.000,-1.570,-1.570,-0.297
1606939807102161920,pose_received,1606939807101595348,-1.570,0.000,0.000,-1.570,-1.570,-0.297
1606939807122964480,pose_received,1606939807121569588,-1.570,0.000,0.000,-1.570,-1.570,-0.297
1606939807142501888,pose_received,1606939807141592928,-1.570,0.000,0.000,-1.570,-1.570,-0.297
1606939807162538496,pose_received,1606939807161595967,-1.570,0.000,0.000,-1.570,-1.570,-0.297
1606939807182586880,pose_received,1606939807181607107,-1.570,0.000,0.000,-1.570,-1.570,-0.297
1606939807202367232,pose_received,1606939807201594247,-1.570,0.000,0.000,-1.570,-1.570,-0.297
1606939807222206464,pose_received,1606939807221597487,-1.570,0.000,0.000,-1.570,-1.570,-0.297
1606939807242414848,pose_received,1606939807241903122,-1.570,0.000,0.000,-1.570,-1.570,-0.297
1606939807262160896,pose_received,1606939807261596566,-1.570,0.000,0.000,-1.570,-1.570,-0.297
1606939807282516992,pose_received,1606939807281597606,-1.570,0.000,0.000,-1.570,-1.570,-0.297
1606939807302516224,pose_received,1606939807301608945,-1.570,0.000,0.000,-1.570,-1.570,-0.297
1606939807322436864,pose_received,1606939807321595285,-1.570,0.000,0.000,-1.570,-1.570,-0.297
1606939807342612224,pose_received,1606939807341598625,-1.570,0.000,0.000,-1.570,-1.570,-0.297
1606939807362483456,pose_received,1606939807361595265,-1.570,0.000,0.000,-1.570,-1.570,-0.297
1606939807382251520,pose_received,1606939807381596504,-1.570,0.000,0.000,-1.570,-1.570,-0.297
1606939807402647296,pose_received,1606939807401608944,-1.570,0.000,0.000,-1.570,-1.570,-0.297
1606939807412389888,pose_received,1606939807411629613,-1.570,0.000,0.000,-1.570,-1.570,-0.297
1606939807442562048,pose_received,1606939807441599923,-1.570,0.000,0.000,-1.570,-1.570,-0.297
1606939807462406656,pose_received,1606939807461900559,-1.570,0.000,0.000,-1.570,-1.570,-0.297
1606939807482346496,pose_received,1606939807481597803,-1.570,0.000,0.000,-1.570,-1.570,-0.297
1606939807502443264,pose_received,1606939807501613242,-1.570,0.000,0.000,-1.570,-1.570,-0.297
1606939807522276864,pose_received,1606939807521594782,-1.570,0.000,0.000,-1.570,-1.570,-0.297
1606939807542449664,pose_received,1606939807541596122,-1.570,0.000,0.000,-1.570,-1.570,-0.297
1606939807552385280,pose_received,1606939807551618792,-1.570,0.000,0.000,-1.570,-1.570,-0.297
1606939807582556160,pose_received,1606939807581595001,-1.570,0.000,0.000,-1.570,-1.570,-0.297
1606939807602424064,pose_received,1606939807601615741,-1.570,0.000,0.000,-1.570,-1.570,-0.297
1606939807622192896,pose_received,1606939807621595881,-1.570,0.000,0.000,-1.570,-1.570,-0.297
1606939807642656000,pose_received,1606939807641631620,-1.570,0.000,0.000,-1.570,-1.570,-0.297
1606939807662206976,pose_received,1606939807661597660,-1.570,0.000,0.000,-1.570,-1.570,-0.297
1606939807682385664,pose_received,1606939807681887396,-1.570,0.000,0.000,-1.570,-1.570,-0.297
1606939807702567424,pose_received,1606939807701604640,-1.570,0.000,0.000,-1.570,-1.570,-0.297
1606939807722994176,pose_received,1606939807721597579,-1.570,0.000,0.000,-1.570,-1.570,-0.297
1606939807742277888,pose_received,1606939807741595819,-1.570,0.000,0.000,-1.570,-1.570,-0.297
1606939807762590720,pose_received,1606939807761595259,-1.570,0.000,0.000,-1.570,-1.570,-0.297
1606939807782581248,pose_received,1606939807781593099,-1.570,0.000,0.000,-1.570,-1.570,-0.297
1606939807802168320,pose_received,1606939807801597038,-1.570,0.000,0.000,-1.570,-1.570,-0.297
1606939807822202112,pose_received,1606939807821595178,-1.570,0.000,0.000,-1.570,-1.570,-0.297
1606939807842538752,pose_received,1606939807841595918,-1.570,0.000,0.000,-1.570,-1.570,-0.297
1606939807862171904,pose_received,1606939807861597257,-1.570,0.000,0.000,-1.570,-1.570,-0.297
1606939807882361088,pose_received,1606939807881595197,-1.570,0.000,0.000,-1.570,-1.570,-0.297
1606939807902318336,pose_received,1606939807901594937,-1.570,0.000,0.000,-1.570,-1.570,-0.297
1606939807922577664,pose_received,1606939807921597476,-1.570,0.000,0.000,-1.570,-1.570,-0.297
1606939807942300928,pose_received,1606939807941594616,-1.570,0.000,0.000,-1.570,-1.570,-0.297
1606939807962938624,pose_received,1606939807961599756,-1.570,0.000,0.000,-1.570,-1.570,-0.297
1606939807982346240,pose_received,1606939807981594796,-1.570,0.000,0.000,-1.570,-1.570,-0.297
1606939808002223104,pose_received,1606939808001597535,-1.570,0.000,0.000,-1.570,-1.570,-0.297
1606939808022579200,pose_received,1606939808021596176,-1.570,0.000,0.000,-1.570,-1.570,-0.297
1606939808042363904,pose_received,1606939808041592516,-1.570,0.000,0.000,-1.570,-1.570,-0.297
1606939808062283776,pose_received,1606939808061717555,-1.570,0.000,0.000,-1.570,-1.570,-0.297
1606939808082292736,pose_received,1606939808081593597,-1.570,0.000,0.000,-1.570,-1.570,-0.297
1606939808102515200,pose_received,1606939808101591937,-1.570,0.000,0.000,-1.570,-1.570,-0.297
1606939808122413056,pose_received,1606939808121594878,-1.570,0.000,0.000,-1.570,-1.570,-0.297
1606939808142309120,pose_received,1606939808141595218,-1.570,0.000,0.000,-1.570,-1.570,-0.297
1606939808162117632,pose_received,1606939808161564459,-1.570,0.000,0.000,-1.570,-1.570,-0.297
1606939808182163712,pose_received,1606939808181594699,-1.570,0.000,0.000,-1.570,-1.570,-0.297
1606939808202551808,pose_received,1606939808201593539,-1.570,0.000,0.000,-1.570,-1.570,-0.297
1606939808222311168,pose_received,1606939808221606979,-1.570,0.000,0.000,-1.570,-1.570,-0.297
1606939808242255616,pose_received,1606939808241598420,-1.570,0.000,0.000,-1.570,-1.570,-0.297
1606939808262482944,pose_received,1606939808261594360,-1.570,0.000,0.000,-1.570,-1.570,-0.297
1606939808272300800,pose_received,1606939808271617530,-1.570,0.000,0.000,-1.570,-1.570,-0.297
1606939808302171136,pose_received,1606939808301594141,-1.570,0.000,0.000,-1.570,-1.570,-0.297
1606939808322438144,pose_received,1606939808321595782,-1.570,0.000,0.000,-1.570,-1.570,-0.297
1606939808342546688,pose_received,1606939808341598022,-1.570,0.000,0.000,-1.570,-1.570,-0.297
1606939808362475520,pose_received,1606939808361595262,-1.570,0.000,0.000,-1.570,-1.570,-0.297
1606939808382614272,pose_received,1606939808381562003,-1.570,0.000,0.000,-1.570,-1.570,-0.297
1606939808402802432,pose_received,1606939808401870640,-1.570,0.000,0.000,-1.570,-1.570,-0.297
1606939808422241792,pose_received,1606939808421595284,-1.570,0.000,0.000,-1.570,-1.570,-0.297
1606939808442319616,pose_received,1606939808441596924,-1.570,0.000,0.000,-1.570,-1.570,-0.297
1606939808462926848,pose_received,1606939808461596264,-1.570,0.000,0.000,-1.570,-1.570,-0.297
1606939808482302720,pose_received,1606939808481613804,-1.570,0.000,0.000,-1.570,-1.570,-0.297
1606939808502405376,pose_received,1606939808501593245,-1.570,0.000,0.000,-1.570,-1.570,-0.297
1606939808522573568,pose_received,1606939808521594485,-1.570,0.000,0.000,-1.570,-1.570,-0.297
1606939808532391680,pose_received,1606939808531645855,-1.570,0.000,0.000,-1.570,-1.570,-0.297
1606939808564654080,pose_received,1606939808561686965,-1.570,0.000,0.000,-1.570,-1.570,-0.297
1606939808585248768,pose_received,1606939808581614606,-1.570,0.000,0.000,-1.570,-1.570,-0.297
1606939808593903360,pose_received,1606939808593402653,-1.570,0.000,0.000,-1.570,-1.570,-0.297
1606939808622390784,pose_received,1606939808621815485,-1.570,0.000,0.000,-1.570,-1.570,-0.297
1606939808642353664,pose_received,1606939808641595828,-1.570,0.000,0.000,-1.570,-1.570,-0.297
1606939808652467712,pose_received,1606939808651642297,-1.570,0.000,0.000,-1.570,-1.570,-0.297
1606939808682489344,pose_received,1606939808681598709,-1.570,0.000,0.000,-1.570,-1.570,-0.297
1606939808702719232,pose_received,1606939808702186341,-1.570,0.000,0.000,-1.570,-1.570,-0.297
1606939808722406400,pose_received,1606939808721595189,-1.570,0.000,0.000,-1.570,-1.570,-0.297
1606939808742413312,pose_received,1606939808741665729,-1.570,0.000,0.000,-1.570,-1.570,-0.297
1606939808763261440,pose_received,1606939808762174963,-1.570,0.000,0.000,-1.570,-1.570,-0.297
1606939808782763520,pose_received,1606939808781597911,-1.570,0.000,0.000,-1.570,-1.570,-0.297
1606939808802343424,pose_received,1606939808801605251,-1.570,0.000,0.000,-1.570,-1.570,-0.297
1606939808822391040,pose_received,1606939808821578992,-1.570,0.000,0.000,-1.570,-1.570,-0.297
1606939808842472704,pose_received,1606939808841606232,-1.570,0.000,0.000,-1.570,-1.570,-0.297
1606939808862215168,pose_received,1606939808861597572,-1.570,0.000,0.000,-1.570,-1.570,-0.297
1606939808882358784,pose_received,1606939808881594113,-1.570,0.000,0.000,-1.570,-1.570,-0.297
1606939808902427136,pose_received,1606939808901604353,-1.570,0.000,0.000,-1.570,-1.570,-0.297
1606939808922463488,pose_received,1606939808921669392,-1.570,0.000,0.000,-1.570,-1.570,-0.297
1606939808942448384,pose_received,1606939808941597634,-1.570,0.000,0.000,-1.570,-1.570,-0.297
1606939808953056768,pose_received,1606939808951632903,-1.570,0.000,0.000,-1.570,-1.570,-0.297
1606939808982375680,pose_received,1606939808981883411,-1.570,0.000,0.000,-1.570,-1.570,-0.297
1606939809002321664,pose_received,1606939809001615155,-1.570,0.000,0.000,-1.570,-1.570,-0.297
1606939809022132736,pose_received,1606939809021599896,-1.570,0.000,0.000,-1.570,-1.570,-0.297
1606939809042979840,pose_received,1606939809041602337,-1.570,0.000,0.000,-1.570,-1.570,-0.297
1606939809062141184,pose_received,1606939809061670877,-1.570,0.000,0.000,-1.570,-1.570,-0.297
1606939809082361344,pose_received,1606939809081592119,-1.570,0.000,0.000,-1.570,-1.570,-0.297
1606939809102404864,pose_received,1606939809101599760,-1.570,0.000,0.000,-1.570,-1.570,-0.297
1606939809122379264,pose_received,1606939809121595701,-1.570,0.000,0.000,-1.570,-1.570,-0.297
1606939809142395648,pose_received,1606939809141594442,-1.570,0.000,0.000,-1.570,-1.570,-0.297
1606939809162609664,pose_received,1606939809161596983,-1.570,0.000,0.000,-1.570,-1.570,-0.297
1606939809182384640,pose_received,1606939809181593324,-1.570,0.000,0.000,-1.570,-1.570,-0.297
1606939809202656256,pose_received,1606939809201594666,-1.570,0.000,0.000,-1.570,-1.570,-0.297
1606939809222481408,pose_received,1606939809221651106,-1.570,0.000,0.000,-1.570,-1.570,-0.297
1606939809242094080,pose_received,1606939809241595048,-1.570,0.000,0.000,-1.570,-1.570,-0.297
1606939809262660608,pose_received,1606939809261592489,-1.570,0.000,0.000,-1.570,-1.570,-0.297
1606939809272621056,pose_received,1606939809272092553,-1.570,0.000,0.000,-1.570,-1.570,-0.297
1606939809302402560,pose_received,1606939809301606371,-1.570,0.000,0.000,-1.570,-1.570,-0.297
1606939809322196736,pose_received,1606939809321598112,-1.570,0.000,0.000,-1.570,-1.570,-0.297
1606939809342332928,pose_received,1606939809341595553,-1.570,0.000,0.000,-1.570,-1.570,-0.297
1606939809362806784,pose_received,1606939809361602594,-1.570,0.000,0.000,-1.570,-1.570,-0.297
1606939809382358784,pose_received,1606939809381593735,-1.570,0.000,0.000,-1.570,-1.570,-0.297
1606939809402364416,pose_received,1606939809401594176,-1.570,0.000,0.000,-1.570,-1.570,-0.297
1606939809412317184,pose_received,1606939809411630346,-1.570,0.000,0.000,-1.570,-1.570,-0.297
1606939809442342656,pose_received,1606939809441594658,-1.570,0.000,0.000,-1.570,-1.570,-0.297
1606939809462172416,pose_received,1606939809461601199,-1.570,0.000,0.000,-1.570,-1.570,-0.297
1606939809482435328,pose_received,1606939809481594041,-1.570,0.000,0.000,-1.570,-1.570,-0.297
1606939809502505728,pose_received,1606939809501594482,-1.570,0.000,0.000,-1.570,-1.570,-0.297
1606939809522753792,pose_received,1606939809522160815,-1.570,0.000,0.000,-1.570,-1.570,-0.297
1606939809542176512,pose_received,1606939809541594064,-1.570,0.000,0.000,-1.570,-1.570,-0.297
1606939809562454528,pose_received,1606939809561733703,-1.570,0.000,0.000,-1.570,-1.570,-0.297
1606939809582102272,pose_received,1606939809581597146,-1.570,0.000,0.000,-1.570,-1.570,-0.297
1606939809603959552,pose_received,1606939809603486062,-1.570,0.000,0.000,-1.570,-1.570,-0.297
1606939809622757376,pose_received,1606939809621593928,-1.570,0.000,0.000,-1.570,-1.570,-0.297
1606939809642519552,pose_received,1606939809641593669,-1.570,0.000,0.000,-1.570,-1.570,-0.297
1606939809662073856,pose_received,1606939809661594310,-1.570,0.000,0.000,-1.570,-1.570,-0.297
1606939809672449536,pose_received,1606939809671624080,-1.570,0.000,0.000,-1.570,-1.570,-0.297
1606939809702502144,pose_received,1606939809701593092,-1.570,0.000,0.000,-1.570,-1.570,-0.297
1606939809713572352,pose_received,1606939809712546250,-1.570,0.000,0.000,-1.570,-1.570,-0.297
1606939809742354688,pose_received,1606939809741869671,-1.570,0.000,0.000,-1.570,-1.570,-0.297
1606939809762553344,pose_received,1606939809761671114,-1.570,0.000,0.000,-1.570,-1.570,-0.297
1606939809782598400,pose_received,1606939809781619856,-1.570,0.000,0.000,-1.570,-1.570,-0.297
1606939809802456064,pose_received,1606939809801596898,-1.570,0.000,0.000,-1.570,-1.570,-0.297
1606939809812690176,pose_received,1606939809811771266,-1.570,0.000,0.000,-1.570,-1.570,-0.297
1606939809832697344,pose_received,1606939809831637009,-1.570,0.000,0.000,-1.570,-1.570,-0.297
1606939809852908800,pose_received,1606939809851629750,-1.570,0.000,0.000,-1.570,-1.570,-0.297
1606939809882788864,pose_received,1606939809881631361,-1.570,0.000,0.000,-1.570,-1.570,-0.297
1606939809902374400,pose_received,1606939809901598003,-1.570,0.000,0.000,-1.570,-1.570,-0.297
1606939809912531968,pose_received,1606939809911858470,-1.570,0.000,0.000,-1.570,-1.570,-0.297
1606939809942369792,pose_received,1606939809941595585,-1.570,0.000,0.000,-1.570,-1.570,-0.297
1606939809962573824,pose_received,1606939809962003921,-1.570,0.000,0.000,-1.570,-1.570,-0.297
1606939809982605568,pose_received,1606939809981763865,-1.570,0.000,0.000,-1.570,-1.570,-0.297
1606939810002598656,pose_received,1606939810001606308,-1.570,0.000,0.000,-1.570,-1.570,-0.297
1606939810022223616,pose_received,1606939810021594050,-1.570,0.000,0.000,-1.570,-1.570,-0.297
1606939810042161152,pose_received,1606939810041606392,-1.570,0.000,0.000,-1.570,-1.570,-0.297
1606939810062073088,pose_received,1606939810061669033,-1.570,0.000,0.000,-1.570,-1.570,-0.297
1606939810082426368,pose_received,1606939810081593975,-1.570,0.000,0.000,-1.570,-1.570,-0.297
1606939810102407424,pose_received,1606939810101606617,-1.570,0.000,0.000,-1.570,-1.570,-0.297
1606939810122537472,pose_received,1606939810121593759,-1.570,0.000,0.000,-1.570,-1.570,-0.297
1606939810142185984,pose_received,1606939810141597100,-1.570,0.000,0.000,-1.570,-1.570,-0.297
1606939810162467584,pose_received,1606939810161597742,-1.570,0.000,0.000,-1.570,-1.570,-0.297
1606939810182239744,pose_received,1606939810181594084,-1.570,0.000,0.000,-1.570,-1.570,-0.297
1606939810202566400,pose_received,1606939810201596426,-1.570,0.000,0.000,-1.570,-1.570,-0.297
1606939810222383360,pose_received,1606939810221595867,-1.570,0.000,0.000,-1.570,-1.570,-0.297
1606939810232369152,pose_received,1606939810231649438,-1.570,0.000,0.000,-1.570,-1.570,-0.297
1606939810252487168,pose_received,1606939810251622780,-1.570,0.000,0.000,-1.570,-1.570,-0.297
1606939810282732288,pose_received,1606939810281692991,-1.570,0.000,0.000,-1.570,-1.570,-0.297
1606939810302672896,pose_received,1606939810301669033,-1.570,0.000,0.000,-1.570,-1.570,-0.297
1606939810322310144,pose_received,1606939810321606076,-1.570,0.000,0.000,-1.570,-1.570,-0.297
1606939810333968640,pose_received,1606939810333402924,-1.570,0.000,0.000,-1.570,-1.570,-0.297
1606939810362460160,pose_received,1606939810361594960,-1.570,0.000,0.000,-1.570,-1.570,-0.297
1606939810382427136,pose_received,1606939810381593901,-1.570,0.000,0.000,-1.570,-1.570,-0.297
1606939810402639104,pose_received,1606939810401595943,-1.570,0.000,0.000,-1.570,-1.570,-0.297
1606939810422205696,pose_received,1606939810421595685,-1.570,0.000,0.000,-1.570,-1.570,-0.297
1606939810442455808,pose_received,1606939810441595927,-1.570,0.000,0.000,-1.570,-1.570,-0.297
1606939810462392064,pose_received,1606939810461594568,-1.570,0.000,0.000,-1.570,-1.570,-0.297
1606939810482229504,pose_received,1606939810481594010,-1.570,0.000,0.000,-1.570,-1.570,-0.297
1606939810502439680,pose_received,1606939810501822749,-1.570,0.000,0.000,-1.570,-1.570,-0.297
1606939810522289664,pose_received,1606939810521596194,-1.570,0.000,0.000,-1.570,-1.570,-0.297
1606939810542676224,pose_received,1606939810541595735,-1.570,0.000,0.000,-1.570,-1.570,-0.297
1606939810562658304,pose_received,1606939810561753375,-1.570,0.000,0.000,-1.570,-1.570,-0.297
1606939810582297600,pose_received,1606939810581593519,-1.570,0.000,0.000,-1.570,-1.570,-0.297
1606939810602211840,pose_received,1606939810601597961,-1.570,0.000,0.000,-1.570,-1.570,-0.297
1606939810622566656,pose_received,1606939810621597602,-1.570,0.000,0.000,-1.570,-1.570,-0.297
1606939810642460928,pose_received,1606939810641593444,-1.570,0.000,0.000,-1.570,-1.570,-0.297
1606939810662746624,pose_received,1606939810661569986,-1.570,0.000,0.000,-1.570,-1.570,-0.297
1606939810682619392,pose_received,1606939810681572228,-1.570,0.000,0.000,-1.570,-1.570,-0.297
1606939810702525184,pose_received,1606939810701592569,-1.570,0.000,0.000,-1.570,-1.570,-0.297
1606939810722437120,pose_received,1606939810721595411,-1.570,0.000,0.000,-1.570,-1.570,-0.297
1606939810742362624,pose_received,1606939810741594453,-1.570,0.000,0.000,-1.570,-1.570,-0.297
1606939810762562048,pose_received,1606939810761596195,-1.570,0.000,0.000,-1.570,-1.570,-0.297
1606939810782458368,pose_received,1606939810781595036,-1.570,0.000,0.000,-1.570,-1.570,-0.297
1606939810802584576,pose_received,1606939810801553979,-1.570,0.000,0.000,-1.570,-1.570,-0.297
1606939810822331392,pose_received,1606939810821598420,-1.570,0.000,0.000,-1.570,-1.570,-0.297
1606939810842453760,pose_received,1606939810841593962,-1.570,0.000,0.000,-1.570,-1.570,-0.297
1606939810862427904,pose_received,1606939810861597003,-1.570,0.000,0.000,-1.570,-1.570,-0.297
1606939810882691584,pose_received,1606939810881560345,-1.570,0.000,0.000,-1.570,-1.570,-0.297
1606939810902883584,pose_received,1606939810901597887,-1.570,0.000,0.000,-1.570,-1.570,-0.297
1606939810922304768,pose_received,1606939810921603928,-1.570,0.000,0.000,-1.570,-1.570,-0.297
1606939810942435840,pose_received,1606939810941618370,-1.570,0.000,0.000,-1.570,-1.570,-0.297
1606939810962355456,pose_received,1606939810961595512,-1.570,0.000,0.000,-1.570,-1.570,-0.297
1606939810982393600,pose_received,1606939810981646853,-1.570,0.000,0.000,-1.570,-1.570,-0.297
1606939811002521088,pose_received,1606939811001597195,-1.570,0.000,0.000,-1.570,-1.570,-0.297
1606939811022554368,pose_received,1606939811021596538,-1.570,0.000,0.000,-1.570,-1.570,-0.297
1606939811032431616,pose_received,1606939811031835606,-1.570,0.000,0.000,-1.570,-1.570,-0.297
1606939811062448384,pose_received,1606939811061784620,-1.570,0.000,0.000,-1.570,-1.570,-0.297
1606939811082502400,pose_received,1606939811081632665,-1.570,0.000,0.000,-1.570,-1.570,-0.297
1606939811102276608,pose_received,1606939811101599407,-1.570,0.000,0.000,-1.570,-1.570,-0.297
1606939811122600448,pose_received,1606939811121848547,-1.570,0.000,0.000,-1.570,-1.570,-0.297
1606939811142709248,pose_received,1606939811141595992,-1.570,0.000,0.000,-1.570,-1.570,-0.297
1606939811162352384,pose_received,1606939811161595735,-1.570,0.000,0.000,-1.570,-1.570,-0.297
1606939811182642432,pose_received,1606939811181600177,-1.570,0.000,0.000,-1.570,-1.570,-0.297
1606939811203304448,pose_received,1606939811202281211,-1.570,0.000,0.000,-1.570,-1.570,-0.297
1606939811222387200,pose_received,1606939811221595962,-1.570,0.000,0.000,-1.570,-1.570,-0.297
1606939811242559744,pose_received,1606939811241595804,-1.570,0.000,0.000,-1.570,-1.570,-0.297
1606939811262427136,pose_received,1606939811261595747,-1.570,0.000,0.000,-1.570,-1.570,-0.297
1606939811282350336,pose_received,1606939811281595289,-1.570,0.000,0.000,-1.570,-1.570,-0.297
1606939811302352128,pose_received,1606939811301600532,-1.570,0.000,0.000,-1.570,-1.570,-0.297
1606939811322152704,pose_received,1606939811321595674,-1.570,0.000,0.000,-1.570,-1.570,-0.297
1606939811342323456,pose_received,1606939811341599516,-1.570,0.000,0.000,-1.570,-1.570,-0.297
1606939811362327552,pose_received,1606939811361594959,-1.570,0.000,0.000,-1.570,-1.570,-0.297
1606939811382711040,pose_received,1606939811381596701,-1.570,0.000,0.000,-1.570,-1.570,-0.297
1606939811402551808,pose_received,1606939811401604844,-1.570,0.000,0.000,-1.570,-1.570,-0.297
1606939811422361088,pose_received,1606939811421814183,-1.570,0.000,0.000,-1.570,-1.570,-0.297
1606939811443295488,pose_received,1606939811441599429,-1.570,0.000,0.000,-1.570,-1.570,-0.297
1606939811462462720,pose_received,1606939811461596771,-1.570,0.000,0.000,-1.570,-1.570,-0.297
1606939811482438912,pose_received,1606939811481753311,-1.570,0.000,0.000,-1.570,-1.570,-0.297
1606939811502653184,pose_received,1606939811501618756,-1.570,0.000,0.000,-1.570,-1.570,-0.297
1606939811522141952,pose_received,1606939811521595998,-1.570,0.000,0.000,-1.570,-1.570,-0.297
1606939811532653056,pose_received,1606939811531644169,-1.570,0.000,0.000,-1.570,-1.570,-0.297
1606939811562109952,pose_received,1606939811561675682,-1.570,0.000,0.000,-1.570,-1.570,-0.297
1606939811582551808,pose_received,1606939811581593826,-1.570,0.000,0.000,-1.570,-1.570,-0.297
1606939811602485760,pose_received,1606939811601598268,-1.570,0.000,0.000,-1.570,-1.570,-0.297
1606939811622482944,pose_received,1606939811621594910,-1.570,0.000,0.000,-1.570,-1.570,-0.297
1606939811642777600,pose_received,1606939811641575353,-1.570,0.000,0.000,-1.570,-1.570,-0.297
1606939811662225152,pose_received,1606939811661595695,-1.570,0.000,0.000,-1.570,-1.570,-0.297
1606939811682465280,pose_received,1606939811681605437,-1.570,0.000,0.000,-1.570,-1.570,-0.297
1606939811702510080,pose_received,1606939811701890476,-1.570,0.000,0.000,-1.570,-1.570,-0.297
1606939811722541824,pose_received,1606939811721598722,-1.570,0.000,0.000,-1.570,-1.570,-0.297
1606939811742266112,pose_received,1606939811741596265,-1.570,0.000,0.000,-1.570,-1.570,-0.297
1606939811762433536,pose_received,1606939811761596407,-1.570,0.000,0.000,-1.570,-1.570,-0.297
1606939811782610432,pose_received,1606939811781593950,-1.570,0.000,0.000,-1.570,-1.570,-0.297
1606939811802993920,pose_received,1606939811801611292,-1.570,0.000,0.000,-1.570,-1.570,-0.297
1606939811822377216,pose_received,1606939811821594834,-1.570,0.000,0.000,-1.570,-1.570,-0.297
1606939811842561024,pose_received,1606939811841592977,-1.570,0.000,0.000,-1.570,-1.570,-0.297
1606939811862228224,pose_received,1606939811861633319,-1.570,0.000,0.000,-1.570,-1.570,-0.297
1606939811882111232,pose_received,1606939811881596162,-1.570,0.000,0.000,-1.570,-1.570,-0.297
1606939811902401792,pose_received,1606939811901610804,-1.570,0.000,0.000,-1.570,-1.570,-0.297
1606939811922561536,pose_received,1606939811921595847,-1.570,0.000,0.000,-1.570,-1.570,-0.297
1606939811942167040,pose_received,1606939811941593489,-1.570,0.000,0.000,-1.570,-1.570,-0.297
1606939811962744064,pose_received,1606939811961632931,-1.570,0.000,0.000,-1.570,-1.570,-0.297
1606939811982659840,pose_received,1606939811981596474,-1.570,0.000,0.000,-1.570,-1.570,-0.297
1606939812002238208,pose_received,1606939812001595616,-1.570,0.000,0.000,-1.570,-1.570,-0.297
1606939812022905344,pose_received,1606939812021918255,-1.570,0.000,0.000,-1.570,-1.570,-0.297
1606939812042401280,pose_received,1606939812041594902,-1.570,0.000,0.000,-1.570,-1.570,-0.297
1606939812062429440,pose_received,1606939812061687644,-1.570,0.000,0.000,-1.570,-1.570,-0.297
1606939812082461440,pose_received,1606939812081596389,-1.570,0.000,0.000,-1.570,-1.570,-0.297
1606939812102456320,pose_received,1606939812101599532,-1.570,0.000,0.000,-1.570,-1.570,-0.297
1606939812122655488,pose_received,1606939812121615974,-1.570,0.000,0.000,-1.570,-1.570,-0.297
1606939812142353152,pose_received,1606939812141594518,-1.570,0.000,0.000,-1.570,-1.570,-0.297
1606939812162210560,pose_received,1606939812161596661,-1.570,0.000,0.000,-1.570,-1.570,-0.297
1606939812182478592,pose_received,1606939812181591304,-1.570,0.000,0.000,-1.570,-1.570,-0.297
1606939812202213376,pose_received,1606939812201596547,-1.570,0.000,0.000,-1.570,-1.570,-0.297
1606939812222433280,pose_received,1606939812221599090,-1.570,0.000,0.000,-1.570,-1.570,-0.297
1606939812242481408,pose_received,1606939812241969128,-1.570,0.000,0.000,-1.570,-1.570,-0.297
1606939812262446336,pose_received,1606939812261592876,-1.570,0.000,0.000,-1.570,-1.570,-0.297
1606939812282202880,pose_received,1606939812281600919,-1.570,0.000,0.000,-1.570,-1.570,-0.297
1606939812302287616,pose_received,1606939812301594563,-1.570,0.000,0.000,-1.570,-1.570,-0.297
1606939812322565888,pose_received,1606939812321594906,-1.570,0.000,0.000,-1.570,-1.570,-0.297
1606939812342297344,pose_received,1606939812341594649,-1.570,0.000,0.000,-1.570,-1.570,-0.297
1606939812362604800,pose_received,1606939812361593692,-1.570,0.000,0.000,-1.570,-1.570,-0.297
1606939812382381312,pose_received,1606939812381598635,-1.570,0.000,0.000,-1.570,-1.570,-0.297
1606939812402310912,pose_received,1606939812401593978,-1.570,0.000,0.000,-1.570,-1.570,-0.297
1606939812422884352,pose_received,1606939812421601521,-1.570,0.000,0.000,-1.570,-1.570,-0.297
1606939812442553600,pose_received,1606939812441595864,-1.570,0.000,0.000,-1.570,-1.570,-0.297
1606939812462570240,pose_received,1606939812461595307,-1.570,0.000,0.000,-1.570,-1.570,-0.297
1606939812482595328,pose_received,1606939812481885547,-1.570,0.000,0.000,-1.570,-1.570,-0.297
1606939812502428160,pose_received,1606939812501607393,-1.570,0.000,0.000,-1.570,-1.570,-0.297
1606939812522587392,pose_received,1606939812521592136,-1.570,0.000,0.000,-1.570,-1.570,-0.297
1606939812542407168,pose_received,1606939812541593080,-1.570,0.000,0.000,-1.570,-1.570,-0.297
1606939812562066432,pose_received,1606939812561663322,-1.570,0.000,0.000,-1.570,-1.570,-0.297
1606939812583107328,pose_received,1606939812581599266,-1.570,0.000,0.000,-1.570,-1.570,-0.297
1606939812602457344,pose_received,1606939812601605009,-1.570,0.000,0.000,-1.570,-1.570,-0.297
1606939812622201600,pose_received,1606939812621594352,-1.570,0.000,0.000,-1.570,-1.570,-0.297
1606939812642771712,pose_received,1606939812641710493,-1.570,0.000,0.000,-1.570,-1.570,-0.297
1606939812662560000,pose_received,1606939812661596538,-1.570,0.000,0.000,-1.570,-1.570,-0.297
1606939812682288896,pose_received,1606939812681594481,-1.570,0.000,0.000,-1.570,-1.570,-0.297
1606939812702361600,pose_received,1606939812701604624,-1.570,0.000,0.000,-1.570,-1.570,-0.297
1606939812722479616,pose_received,1606939812721596467,-1.570,0.000,0.000,-1.570,-1.570,-0.297
1606939812742701312,pose_received,1606939812741596110,-1.570,0.000,0.000,-1.570,-1.570,-0.297
1606939812762359552,pose_received,1606939812761873550,-1.570,0.000,0.000,-1.570,-1.570,-0.297
1606939812782653696,pose_received,1606939812781638496,-1.570,0.000,0.000,-1.570,-1.570,-0.297
1606939812802603008,pose_received,1606939812801605539,-1.570,0.000,0.000,-1.570,-1.570,-0.297
1606939812822649344,pose_received,1606939812821595483,-1.570,0.000,0.000,-1.570,-1.570,-0.297
1606939812842158592,pose_received,1606939812841594426,-1.570,0.000,0.000,-1.570,-1.570,-0.297
1606939812852488192,pose_received,1606939812851627797,-1.570,0.000,0.000,-1.570,-1.570,-0.297
1606939812882149888,pose_received,1606939812881594312,-1.570,0.000,0.000,-1.570,-1.570,-0.297
1606939812902365440,pose_received,1606939812901595655,-1.570,0.000,0.000,-1.570,-1.570,-0.297
1606939812922114560,pose_received,1606939812921597098,-1.570,0.000,0.000,-1.570,-1.570,-0.297
1606939812942309120,pose_received,1606939812941594141,-1.570,0.000,0.000,-1.570,-1.570,-0.297
1606939812962482432,pose_received,1606939812961596184,-1.570,0.000,0.000,-1.570,-1.570,-0.297
1606939812982346496,pose_received,1606939812981864924,-1.570,0.000,0.000,-1.570,-1.570,-0.297
1606939813002757632,pose_received,1606939813001572471,-1.570,0.000,0.000,-1.570,-1.570,-0.297
1606939813022469888,pose_received,1606939813021595814,-1.570,0.000,0.000,-1.570,-1.570,-0.297
1606939813042347264,pose_received,1606939813041595758,-1.570,0.000,0.000,-1.570,-1.570,-0.297
1606939813062409216,pose_received,1606939813061731100,-1.570,0.000,0.000,-1.570,-1.570,-0.297
1606939813082490112,pose_received,1606939813081596045,-1.570,0.000,0.000,-1.570,-1.570,-0.297
1606939813102216192,pose_received,1606939813101595189,-1.570,0.000,0.000,-1.570,-1.570,-0.297
1606939813122274304,pose_received,1606939813121595733,-1.570,0.000,0.000,-1.570,-1.570,-0.297
1606939813142490368,pose_received,1606939813141594177,-1.570,0.000,0.000,-1.570,-1.570,-0.297
1606939813162562048,pose_received,1606939813161603920,-1.570,0.000,0.000,-1.570,-1.570,-0.297
1606939813182489088,pose_received,1606939813181596264,-1.570,0.000,0.000,-1.570,-1.570,-0.297
1606939813202793216,pose_received,1606939813202117501,-1.570,0.000,0.000,-1.570,-1.570,-0.297
1606939813222497792,pose_received,1606939813221595352,-1.570,0.000,0.000,-1.570,-1.570,-0.297
1606939813242187008,pose_received,1606939813241592696,-1.570,0.000,0.000,-1.570,-1.570,-0.297
1606939813262476032,pose_received,1606939813261594539,-1.570,0.000,0.000,-1.570,-1.570,-0.297
1606939813282282752,pose_received,1606939813281595383,-1.570,0.000,0.000,-1.570,-1.570,-0.297
1606939813302211072,pose_received,1606939813301596727,-1.570,0.000,0.000,-1.570,-1.570,-0.297
1606939813322363136,pose_received,1606939813321594771,-1.570,0.000,0.000,-1.570,-1.570,-0.297
1606939813342293760,pose_received,1606939813341594114,-1.570,0.000,0.000,-1.570,-1.570,-0.297
1606939813362820608,pose_received,1606939813361596058,-1.570,0.000,0.000,-1.570,-1.570,-0.297
1606939813382181376,pose_received,1606939813381598502,-1.570,0.000,0.000,-1.570,-1.570,-0.297
1606939813402336512,pose_received,1606939813401595246,-1.570,0.000,0.000,-1.570,-1.570,-0.297
1606939813422614016,pose_received,1606939813421596489,-1.570,0.000,0.000,-1.570,-1.570,-0.297
1606939813442345984,pose_received,1606939813441593933,-1.570,0.000,0.000,-1.570,-1.570,-0.297
1606939813462591232,pose_received,1606939813461592177,-1.570,0.000,0.000,-1.570,-1.570,-0.297
1606939813482324992,pose_received,1606939813481595521,-1.570,0.000,0.000,-1.570,-1.570,-0.297
1606939813502536448,pose_received,1606939813501594464,-1.570,0.000,0.000,-1.570,-1.570,-0.297
1606939813522250496,pose_received,1606939813521594508,-1.570,0.000,0.000,-1.570,-1.570,-0.297
1606939813542593536,pose_received,1606939813541593752,-1.570,0.000,0.000,-1.570,-1.570,-0.297
1606939813562752000,pose_received,1606939813561816993,-1.570,0.000,0.000,-1.570,-1.570,-0.297
1606939813582469632,pose_received,1606939813581596039,-1.570,0.052,0.000,-1.570,-1.570,-0.297
1606939813602320896,pose_received,1606939813601601583,-1.570,0.052,0.000,-1.570,-1.570,-0.297
1606939813622639360,pose_received,1606939813621595727,-1.570,0.052,0.000,-1.570,-1.570,-0.297
1606939813642206720,pose_received,1606939813641594771,-1.570,0.052,0.000,-1.570,-1.570,-0.297
1606939813662495232,pose_received,1606939813661596714,-1.570,0.052,0.000,-1.570,-1.570,-0.297
1606939813682522880,pose_received,1606939813682013453,-1.570,0.052,0.000,-1.570,-1.570,-0.297
1606939813693037056,pose_received,1606939813691913026,-1.570,0.052,0.000,-1.570,-1.570,-0.297
1606939813722598144,pose_received,1606939813721595746,-1.570,0.041,-0.011,-1.570,-1.581,-0.297
1606939813742159104,pose_received,1606939813741595589,-1.570,0.035,-0.017,-1.570,-1.587,-0.297
1606939813763318784,pose_received,1606939813762256225,-1.570,0.035,-0.017,-1.570,-1.587,-0.297
1606939813782298368,pose_received,1606939813781599877,-1.570,0.035,-0.017,-1.570,-1.587,-0.297
1606939813802436096,pose_received,1606939813801604920,-1.570,0.017,0.017,-1.570,-1.553,-0.297
1606939813822636032,pose_received,1606939813821598964,-1.570,0.017,0.017,-1.570,-1.553,-0.297
1606939813842567424,pose_received,1606939813841594108,-1.570,0.017,0.017,-1.570,-1.553,-0.297
1606939813862484480,pose_received,1606939813861599852,-1.570,0.017,0.017,-1.570,-1.553,-0.297
1606939813882702848,pose_received,1606939813881596296,-1.570,-0.017,0.035,-1.570,-1.535,-0.297
1606939813902354432,pose_received,1606939813901603839,-1.570,-0.017,0.035,-1.570,-1.535,-0.297
1606939813912353280,pose_received,1606939813911650911,-1.570,-0.017,0.035,-1.570,-1.535,-0.297
1606939813942343168,pose_received,1606939813941645826,-1.570,-0.017,0.035,-1.570,-1.535,-0.297
1606939813962469632,pose_received,1606939813961745269,-1.570,-0.017,0.035,-1.570,-1.535,-0.297
1606939813982812928,pose_received,1606939813981589114,-1.570,-0.017,0.035,-1.570,-1.535,-0.297
1606939814002334464,pose_received,1606939814001602458,-1.570,-0.052,0.052,-1.570,-1.518,-0.297
1606939814023145472,pose_received,1606939814022077696,-1.570,-0.052,0.052,-1.570,-1.518,-0.297
1606939814042755584,pose_received,1606939814041570547,-1.570,-0.052,0.052,-1.570,-1.518,-0.297
1606939814063056640,pose_received,1606939814061893988,-1.570,-0.053,0.053,-1.570,-1.517,-0.297
1606939814082692096,pose_received,1606939814081830833,-1.570,-0.122,0.105,-1.570,-1.465,-0.297
1606939814102582272,pose_received,1606939814101604880,-1.570,-0.122,0.105,-1.570,-1.465,-0.297
1606939814112592384,pose_received,1606939814111625052,-1.570,-0.122,0.105,-1.570,-1.465,-0.297
1606939814142740224,pose_received,1606939814141597369,-1.570,-0.140,0.140,-1.570,-1.430,-0.297
1606939814152341760,pose_received,1606939814151624041,-1.570,-0.140,0.140,-1.570,-1.430,-0.297
1606939814172445184,pose_received,1606939814171905282,-1.570,-0.140,0.140,-1.570,-1.430,-0.297
1606939814202852608,pose_received,1606939814201620002,-1.570,-0.174,0.174,-1.570,-1.396,-0.297
1606939814212568576,pose_received,1606939814211633074,-1.570,-0.174,0.174,-1.570,-1.396,-0.297
1606939814243054080,pose_received,1606939814242250783,-1.570,-0.175,0.175,-1.570,-1.395,-0.297
1606939814262174208,pose_received,1606939814261618535,-1.570,-0.227,0.227,-1.570,-1.343,-0.297
1606939814272741376,pose_received,1606939814271664407,-1.570,-0.227,0.227,-1.570,-1.343,-0.297
1606939814302781952,pose_received,1606939814301648724,-1.570,-0.246,0.246,-1.570,-1.324,-0.297
1606939814322504448,pose_received,1606939814321980464,-1.570,-0.262,0.262,-1.570,-1.308,-0.297
1606939814342402048,pose_received,1606939814341572513,-1.570,-0.262,0.262,-1.570,-1.308,-0.297
1606939814362614528,pose_received,1606939814361813755,-1.570,-0.262,0.262,-1.570,-1.308,-0.297
1606939814382430720,pose_received,1606939814381594302,-1.570,-0.314,0.314,-1.570,-1.256,-0.297
1606939814402832128,pose_received,1606939814401584247,-1.570,-0.314,0.314,-1.570,-1.256,-0.297
1606939814422213888,pose_received,1606939814421596191,-1.570,-0.314,0.314,-1.570,-1.256,-0.297
1606939814442346496,pose_received,1606939814441595335,-1.570,-0.314,0.314,-1.570,-1.256,-0.297
1606939814462661888,pose_received,1606939814461563180,-1.570,-0.314,0.314,-1.570,-1.256,-0.297
1606939814472470784,pose_received,1606939814471938748,-1.570,-0.314,0.314,-1.570,-1.256,-0.297
1606939814492180224,pose_received,1606939814491621796,-1.570,-0.314,0.314,-1.570,-1.256,-0.297
1606939814514182912,pose_received,1606939814512925824,-1.570,-0.366,0.384,-1.570,-1.186,-0.297
1606939814542629376,pose_received,1606939814541560158,-1.570,-0.369,0.386,-1.570,-1.184,-0.297
1606939814562810624,pose_received,1606939814561930598,-1.570,-0.401,0.419,-1.570,-1.151,-0.297
1606939814582335744,pose_received,1606939814581591846,-1.570,-0.401,0.419,-1.570,-1.151,-0.297
1606939814592524032,pose_received,1606939814591878015,-1.570,-0.402,0.420,-1.570,-1.150,-0.297
1606939814622438656,pose_received,1606939814621910731,-1.570,-0.436,0.471,-1.570,-1.099,-0.297
1606939814642449664,pose_received,1606939814641593479,-1.570,-0.436,0.471,-1.570,-1.099,-0.297
1606939814662668800,pose_received,1606939814661759022,-1.570,-0.436,0.471,-1.570,-1.099,-0.297
1606939814682842624,pose_received,1606939814681763466,-1.570,-0.506,0.541,-1.570,-1.029,-0.297
1606939814702039552,pose_received,1606939814701596013,-1.570,-0.506,0.541,-1.570,-1.029,-0.297
1606939814712558080,pose_received,1606939814711995280,-1.570,-0.507,0.542,-1.570,-1.028,-0.297
1606939814742188288,pose_received,1606939814741596902,-1.570,-0.576,0.611,-1.570,-0.959,-0.297
1606939814762296576,pose_received,1606939814761595646,-1.570,-0.576,0.611,-1.570,-0.959,-0.297
1606939814782287360,pose_received,1606939814781709789,-1.570,-0.576,0.611,-1.570,-0.959,-0.297
1606939814802185984,pose_received,1606939814801593235,-1.570,-0.576,0.611,-1.570,-0.959,-0.297
1606939814822583808,pose_received,1606939814821596779,-1.570,-0.576,0.611,-1.570,-0.959,-0.297
1606939814842162176,pose_received,1606939814841594624,-1.570,-0.576,0.611,-1.570,-0.959,-0.297
1606939814862359040,pose_received,1606939814861593568,-1.570,-0.576,0.611,-1.570,-0.959,-0.297
1606939814872693248,pose_received,1606939814872011635,-1.570,-0.576,0.611,-1.570,-0.959,-0.297
1606939814892477184,pose_received,1606939814891901581,-1.570,-0.576,0.611,-1.570,-0.959,-0.297
1606939814923221760,pose_received,1606939814921985396,-1.570,-0.645,0.698,-1.570,-0.872,-0.297
1606939814942610432,pose_received,1606939814941599046,-1.570,-0.645,0.698,-1.570,-0.872,-0.297
1606939814952488192,pose_received,1606939814951971313,-1.570,-0.645,0.698,-1.570,-0.872,-0.297
1606939814982772480,pose_received,1606939814981613934,-1.570,-0.646,0.698,-1.570,-0.872,-0.297
1606939815002840064,pose_received,1606939815001599479,-1.570,-0.750,0.820,-1.570,-0.750,-0.297
1606939815012630784,pose_received,1606939815012101945,-1.570,-0.750,0.820,-1.570,-0.750,-0.297
1606939815042612224,pose_received,1606939815041593369,-1.570,-0.791,0.861,-1.570,-0.709,-0.297
1606939815063421184,pose_received,1606939815062341505,-1.570,-0.802,0.872,-1.570,-0.698,-0.297
1606939815082597120,pose_received,1606939815081600859,-1.570,-0.802,0.872,-1.570,-0.698,-0.297
1606939815102398464,pose_received,1606939815101600404,-1.570,-0.907,1.012,-1.570,-0.558,-0.297
1606939815122256640,pose_received,1606939815121593549,-1.570,-0.907,1.012,-1.570,-0.558,-0.297
1606939815142367488,pose_received,1606939815141864591,-1.570,-0.907,1.012,-1.570,-0.558,-0.297
1606939815162323712,pose_received,1606939815161595340,-1.570,-0.907,1.012,-1.570,-0.558,-0.297
1606939815182599424,pose_received,1606939815181596085,-1.570,-0.907,1.012,-1.570,-0.558,-0.297
1606939815202516736,pose_received,1606939815201604330,-1.570,-0.907,1.012,-1.570,-0.558,-0.297
1606939815222138880,pose_received,1606939815221593175,-1.570,-0.907,1.012,-1.570,-0.558,-0.297
1606939815242267904,pose_received,1606939815241598820,-1.570,-0.907,1.012,-1.570,-0.558,-0.297
1606939815252767744,pose_received,1606939815251621492,-1.570,-0.907,1.012,-1.570,-0.558,-0.297
1606939815282294016,pose_received,1606939815281611310,-1.570,-0.907,1.012,-1.570,-0.558,-0.297
1606939815292417024,pose_received,1606939815291635382,-1.570,-0.907,1.012,-1.570,-0.558,-0.297
1606939815312312832,pose_received,1606939815311866824,-1.570,-0.942,1.064,-1.570,-0.506,-0.297
1606939815342645248,pose_received,1606939815341600545,-1.570,-0.942,1.064,-1.570,-0.506,-0.297
1606939815362453504,pose_received,1606939815361597390,-1.570,-0.977,1.082,-1.570,-0.488,-0.297
1606939815382178048,pose_received,1606939815381594235,-1.570,-0.977,1.082,-1.570,-0.488,-0.297
1606939815402863360,pose_received,1606939815401627780,-1.570,-0.977,1.082,-1.570,-0.488,-0.297
1606939815422240768,pose_received,1606939815421594926,-1.570,-0.977,1.082,-1.570,-0.488,-0.297
1606939815442585088,pose_received,1606939815441590971,-1.570,-0.977,1.082,-1.570,-0.488,-0.297
1606939815452682240,pose_received,1606939815451615843,-1.570,-0.977,1.082,-1.570,-0.488,-0.297
1606939815482636544,pose_received,1606939815481559261,-1.570,-0.977,1.082,-1.570,-0.488,-0.297
1606939815502427392,pose_received,1606939815501622906,-1.570,-0.977,1.082,-1.570,-0.488,-0.297
1606939815522230272,pose_received,1606939815521595351,-1.570,-0.977,1.082,-1.570,-0.488,-0.297
1606939815542607104,pose_received,1606939815541597596,-1.570,-0.977,1.082,-1.570,-0.488,-0.297
1606939815562268160,pose_received,1606939815561770239,-1.570,-0.977,1.082,-1.570,-0.488,-0.297
1606939815582272768,pose_received,1606939815581594786,-1.570,-0.977,1.082,-1.570,-0.488,-0.297
1606939815602617600,pose_received,1606939815601600031,-1.570,-0.977,1.082,-1.570,-0.488,-0.297
1606939815622479872,pose_received,1606939815621597376,-1.570,-0.977,1.082,-1.570,-0.488,-0.297
1606939815642214144,pose_received,1606939815641583622,-1.570,-0.977,1.082,-1.570,-0.488,-0.297
1606939815662421248,pose_received,1606939815661597767,-1.570,-0.977,1.082,-1.570,-0.488,-0.297
1606939815682661632,pose_received,1606939815681591912,-1.570,-0.977,1.082,-1.570,-0.488,-0.297
1606939815702572288,pose_received,1606939815701596757,-1.570,-0.977,1.082,-1.570,-0.488,-0.297
1606939815722333952,pose_received,1606939815721595702,-1.570,-0.977,1.082,-1.570,-0.488,-0.297
1606939815742191104,pose_received,1606939815741595347,-1.570,-0.977,1.082,-1.570,-0.488,-0.297
1606939815762697472,pose_received,1606939815761655491,-1.570,-0.977,1.082,-1.570,-0.488,-0.297
1606939815782182400,pose_received,1606939815781594237,-1.570,-0.977,1.082,-1.570,-0.488,-0.297
1606939815802542080,pose_received,1606939815801598282,-1.570,-0.977,1.082,-1.570,-0.488,-0.297
1606939815822390016,pose_received,1606939815821594427,-1.570,-0.977,1.082,-1.570,-0.488,-0.297
1606939815842469120,pose_received,1606939815841592472,-1.570,-0.977,1.082,-1.570,-0.488,-0.297
1606939815854635520,pose_received,1606939815853209824,-1.570,-0.977,1.082,-1.570,-0.488,-0.297
1606939815882539776,pose_received,1606939815881852259,-1.570,-0.977,1.082,-1.570,-0.488,-0.297
1606939815902413824,pose_received,1606939815901593608,-1.570,-0.977,1.082,-1.570,-0.488,-0.297
1606939815922423296,pose_received,1606939815921595553,-1.570,-0.977,1.064,-1.570,-0.506,-0.297
1606939815942327296,pose_received,1606939815941594598,-1.570,-0.977,1.064,-1.570,-0.506,-0.297
1606939815962633472,pose_received,1606939815961595843,-1.570,-0.977,1.064,-1.570,-0.506,-0.297
1606939815982640896,pose_received,1606939815981583188,-1.570,-0.977,1.039,-1.570,-0.531,-0.297
1606939816002551296,pose_received,1606939816001592933,-1.570,-0.977,1.029,-1.570,-0.541,-0.297
1606939816022576128,pose_received,1606939816021597179,-1.570,-0.977,1.029,-1.570,-0.541,-0.297
1606939816034474240,pose_received,1606939816032245143,-1.570,-0.977,1.029,-1.570,-0.541,-0.297
1606939816052263424,pose_received,1606939816051615097,-1.570,-0.977,1.029,-1.570,-0.541,-0.297
1606939816082676224,pose_received,1606939816081563616,-1.570,-0.959,0.977,-1.570,-0.593,-0.297
1606939816102363136,pose_received,1606939816101595462,-1.570,-0.960,0.977,-1.570,-0.593,-0.297
1606939816113762560,pose_received,1606939816113218114,-1.570,-0.969,0.977,-1.570,-0.593,-0.297
1606939816142161664,pose_received,1606939816141594453,-1.570,-0.977,0.977,-1.570,-0.593,-0.297
1606939816152923904,pose_received,1606939816151882622,-1.570,-0.977,0.977,-1.570,-0.593,-0.297
1606939816172739840,pose_received,1606939816171740070,-1.570,-0.977,0.977,-1.570,-0.593,-0.297
1606939816202428160,pose_received,1606939816201593890,-1.570,-0.977,0.942,-1.570,-0.628,-0.297
1606939816222147584,pose_received,1606939816221612736,-1.570,-0.977,0.942,-1.570,-0.628,-0.297
1606939816242670848,pose_received,1606939816241613782,-1.570,-0.994,0.942,-1.570,-0.628,-0.297
1606939816262353664,pose_received,1606939816261593728,-1.570,-0.994,0.942,-1.570,-0.628,-0.297
1606939816272654592,pose_received,1606939816271918996,-1.570,-0.994,0.942,-1.570,-0.628,-0.297
1606939816302213888,pose_received,1606939816301769217,-1.570,-1.009,0.942,-1.570,-0.628,-0.297
1606939816322562304,pose_received,1606939816321623364,-1.570,-1.012,0.942,-1.570,-0.628,-0.297
1606939816334346496,pose_received,1606939816331775335,-1.570,-1.012,0.942,-1.570,-0.628,-0.297
1606939816352462336,pose_received,1606939816351626983,-1.570,-1.012,0.912,-1.570,-0.658,-0.297
1606939816373082624,pose_received,1606939816371993824,-1.570,-1.012,0.907,-1.570,-0.663,-0.297
1606939816402504960,pose_received,1606939816401610047,-1.570,-1.026,0.907,-1.570,-0.663,-0.297
1606939816422752512,pose_received,1606939816422110987,-1.570,-1.029,0.907,-1.570,-0.663,-0.297
1606939816442531072,pose_received,1606939816441612739,-1.570,-1.029,0.907,-1.570,-0.663,-0.297
1606939816452526080,pose_received,1606939816451656411,-1.570,-1.043,0.907,-1.570,-0.663,-0.297
1606939816482719744,pose_received,1606939816481707429,-1.570,-1.047,0.907,-1.570,-0.663,-0.297
1606939816492267008,pose_received,1606939816491658903,-1.570,-1.047,0.907,-1.570,-0.663,-0.297
1606939816522363392,pose_received,1606939816521596922,-1.570,-1.064,0.890,-1.570,-0.680,-0.297
1606939816542641920,pose_received,1606939816541641467,-1.570,-1.064,0.890,-1.570,-0.680,-0.297
1606939816552486912,pose_received,1606939816551678240,-1.570,-1.064,0.890,-1.570,-0.680,-0.297
1606939816582210304,pose_received,1606939816581597759,-1.570,-1.099,0.890,-1.570,-0.680,-0.297
1606939816602355456,pose_received,1606939816601613705,-1.570,-1.099,0.890,-1.570,-0.680,-0.297
1606939816622577920,pose_received,1606939816622036245,-1.570,-1.099,0.890,-1.570,-0.680,-0.297
1606939816642152960,pose_received,1606939816641598996,-1.570,-1.134,0.890,-1.570,-0.680,-0.297
1606939816652345088,pose_received,1606939816651615369,-1.570,-1.134,0.890,-1.570,-0.680,-0.297
1606939816672277760,pose_received,1606939816671720814,-1.570,-1.134,0.890,-1.570,-0.680,-0.297
1606939816693048320,pose_received,1606939816691628260,-1.570,-1.169,0.890,-1.570,-0.680,-0.297
1606939816722293760,pose_received,1606939816721717478,-1.570,-1.169,0.890,-1.570,-0.680,-0.297
1606939816742776576,pose_received,1606939816741580725,-1.570,-1.204,0.907,-1.570,-0.663,-0.297
1606939816752444672,pose_received,1606939816751625098,-1.570,-1.204,0.907,-1.570,-0.663,-0.297
1606939816773237760,pose_received,1606939816772029338,-1.570,-1.204,0.907,-1.570,-0.663,-0.297
1606939816802704896,pose_received,1606939816801626262,-1.570,-1.233,0.907,-1.570,-0.663,-0.297
1606939816812343808,pose_received,1606939816811839932,-1.570,-1.239,0.907,-1.570,-0.663,-0.297
1606939816833738752,pose_received,1606939816833110962,-1.570,-1.239,0.907,-1.570,-0.663,-0.297
1606939816862575872,pose_received,1606939816861594800,-1.570,-1.256,0.925,-1.570,-0.645,-0.297
1606939816872172288,pose_received,1606939816871622472,-1.570,-1.256,0.925,-1.570,-0.645,-0.297
1606939816902762496,pose_received,1606939816901619991,-1.570,-1.286,0.939,-1.570,-0.631,-0.297
1606939816922561024,pose_received,1606939816921595237,-1.570,-1.291,0.942,-1.570,-0.628,-0.297
1606939816932442624,pose_received,1606939816931911506,-1.570,-1.291,0.942,-1.570,-0.628,-0.297
1606939816953873920,pose_received,1606939816953003638,-1.570,-1.291,0.942,-1.570,-0.628,-0.297
1606939816982342912,pose_received,1606939816981595674,-1.570,-1.326,0.942,-1.570,-0.628,-0.297
1606939816992437760,pose_received,1606939816991853344,-1.570,-1.326,0.942,-1.570,-0.628,-0.297
1606939817022488832,pose_received,1606939817021944262,-1.570,-1.361,0.959,-1.570,-0.611,-0.297
1606939817042461952,pose_received,1606939817041593213,-1.570,-1.361,0.959,-1.570,-0.611,-0.297
1606939817055447040,pose_received,1606939817053446562,-1.570,-1.362,0.960,-1.570,-0.610,-0.297
1606939817082416384,pose_received,1606939817081828002,-1.570,-1.413,0.994,-1.570,-0.576,-0.297
1606939817102311680,pose_received,1606939817101597652,-1.570,-1.413,0.994,-1.570,-0.576,-0.297
1606939817114121984,pose_received,1606939817113440302,-1.570,-1.432,1.004,-1.570,-0.566,-0.297
1606939817143169536,pose_received,1606939817142177637,-1.570,-1.448,1.012,-1.570,-0.558,-0.297
1606939817162735360,pose_received,1606939817161596391,-1.570,-1.448,1.012,-1.570,-0.558,-0.297
1606939817172390912,pose_received,1606939817171889760,-1.570,-1.449,1.012,-1.570,-0.558,-0.297
1606939817202381824,pose_received,1606939817201594084,-1.570,-1.483,1.029,-1.570,-0.541,-0.297
1606939817222415104,pose_received,1606939817221596130,-1.570,-1.483,1.029,-1.570,-0.541,-0.297
1606939817242241792,pose_received,1606939817241594677,-1.570,-1.483,1.029,-1.570,-0.541,-0.297
1606939817262932224,pose_received,1606939817261601523,-1.570,-1.483,1.029,-1.570,-0.541,-0.297
1606939817282439936,pose_received,1606939817281595969,-1.570,-1.483,1.029,-1.570,-0.541,-0.297
1606939817305070848,pose_received,1606939817301595516,-1.570,-1.483,1.029,-1.570,-0.541,-0.297
1606939817313939200,pose_received,1606939817313406166,-1.570,-1.502,1.039,-1.570,-0.531,-0.297
1606939817342375424,pose_received,1606939817341594009,-1.570,-1.518,1.047,-1.570,-0.523,-0.297
1606939817362472960,pose_received,1606939817361594355,-1.570,-1.518,1.047,-1.570,-0.523,-0.297
1606939817382467072,pose_received,1606939817381595201,-1.570,-1.530,1.059,-1.570,-0.511,-0.297
1606939817402284288,pose_received,1606939817401594748,-1.570,-1.535,1.064,-1.570,-0.506,-0.297
1606939817422282496,pose_received,1606939817421600294,-1.570,-1.535,1.064,-1.570,-0.506,-0.297
1606939817442113280,pose_received,1606939817441597940,-1.570,-1.535,1.064,-1.570,-0.506,-0.297
1606939817455004160,pose_received,1606939817453212693,-1.570,-1.535,1.064,-1.570,-0.506,-0.297
1606939817473147904,pose_received,1606939817471636460,-1.570,-1.553,1.064,-1.570,-0.506,-0.297
1606939817502131456,pose_received,1606939817501597280,-1.570,-1.553,1.064,-1.570,-0.506,-0.297
1606939817522581504,pose_received,1606939817521596426,-1.570,-1.553,1.064,-1.570,-0.506,-0.297
1606939817542489088,pose_received,1606939817541612872,-1.570,-1.553,1.064,-1.570,-0.506,-0.297
1606939817562334464,pose_received,1606939817561674018,-1.570,-1.553,1.064,-1.570,-0.506,-0.297
1606939817582720768,pose_received,1606939817581613565,-1.570,-1.553,1.064,-1.570,-0.506,-0.297
1606939817602611200,pose_received,1606939817601589312,-1.570,-1.553,1.064,-1.570,-0.506,-0.297
1606939817622246400,pose_received,1606939817621596758,-1.570,-1.553,1.064,-1.570,-0.506,-0.297
1606939817642365440,pose_received,1606939817641595604,-1.570,-1.553,1.064,-1.570,-0.506,-0.297
1606939817662318592,pose_received,1606939817661594651,-1.570,-1.553,1.064,-1.570,-0.506,-0.297
1606939817682343680,pose_received,1606939817681595297,-1.570,-1.553,1.064,-1.570,-0.506,-0.297
1606939817702500864,pose_received,1606939817701609643,-1.570,-1.553,1.064,-1.570,-0.506,-0.297
1606939817722189824,pose_received,1606939817721594890,-1.570,-1.553,1.064,-1.570,-0.506,-0.297
1606939817742130688,pose_received,1606939817741597836,-1.570,-1.553,1.064,-1.570,-0.506,-0.297
1606939817762465536,pose_received,1606939817761594083,-1.570,-1.553,1.064,-1.570,-0.506,-0.297
1606939817782836992,pose_received,1606939817781588929,-1.570,-1.553,1.064,-1.570,-0.506,-0.297
1606939817802572544,pose_received,1606939817801605575,-1.570,-1.553,1.064,-1.570,-0.506,-0.297
1606939817812474624,pose_received,1606939817811972044,-1.570,-1.553,1.064,-1.570,-0.506,-0.297
1606939817842622720,pose_received,1606939817841576169,-1.570,-1.553,1.064,-1.570,-0.506,-0.297
1606939817862249728,pose_received,1606939817861595115,-1.570,-1.553,1.064,-1.570,-0.506,-0.297
1606939817882190848,pose_received,1606939817881595161,-1.570,-1.553,1.064,-1.570,-0.506,-0.297
1606939817893094912,pose_received,1606939817891614434,-1.570,-1.553,1.064,-1.570,-0.506,-0.297
1606939817922122752,pose_received,1606939817921594354,-1.570,-1.553,1.064,-1.570,-0.506,-0.297
1606939817942322432,pose_received,1606939817941597900,-1.570,-1.553,1.064,-1.570,-0.506,-0.297
1606939817952344064,pose_received,1606939817951658573,-1.570,-1.553,1.064,-1.570,-0.506,-0.297
1606939817982529792,pose_received,1606939817981594093,-1.570,-1.553,1.064,-1.570,-0.506,-0.297
1606939818002470400,pose_received,1606939818001615239,-1.570,-1.553,1.064,-1.570,-0.506,-0.297
1606939818022220544,pose_received,1606939818021594587,-1.570,-1.553,1.064,-1.570,-0.506,-0.297
1606939818042558720,pose_received,1606939818041595134,-1.570,-1.553,1.064,-1.570,-0.506,-0.297
1606939818062070784,pose_received,1606939818061669480,-1.570,-1.553,1.064,-1.570,-0.506,-0.297
1606939818082511616,pose_received,1606939818081594028,-1.570,-1.553,1.064,-1.570,-0.506,-0.297
1606939818102281984,pose_received,1606939818101597975,-1.570,-1.553,1.064,-1.570,-0.506,-0.297
1606939818122469120,pose_received,1606939818121595722,-1.570,-1.553,1.064,-1.570,-0.506,-0.297
1606939818132725760,pose_received,1606939818131704394,-1.570,-1.553,1.064,-1.570,-0.506,-0.297
1606939818163033600,pose_received,1606939818161978811,-1.570,-1.553,1.064,-1.570,-0.506,-0.297
1606939818182384896,pose_received,1606939818181594463,-1.570,-1.553,1.064,-1.570,-0.506,-0.297
1606939818202176256,pose_received,1606939818201618110,-1.570,-1.553,1.064,-1.570,-0.506,-0.297
1606939818222661888,pose_received,1606939818221669256,-1.570,-1.553,1.064,-1.570,-0.506,-0.297
1606939818242191104,pose_received,1606939818241594204,-1.570,-1.553,1.064,-1.570,-0.506,-0.297
1606939818262626816,pose_received,1606939818261568852,-1.570,-1.553,1.064,-1.570,-0.506,-0.297
1606939818282430464,pose_received,1606939818281597998,-1.570,-1.553,1.064,-1.570,-0.506,-0.297
1606939818302141440,pose_received,1606939818301594645,-1.570,-1.553,1.064,-1.570,-0.506,-0.297
1606939818322417152,pose_received,1606939818321595492,-1.570,-1.553,1.064,-1.570,-0.506,-0.297
1606939818342572544,pose_received,1606939818341639239,-1.570,-1.553,1.064,-1.570,-0.506,-0.297
1606939818362391296,pose_received,1606939818361602986,-1.570,-1.553,1.064,-1.570,-0.506,-0.297
1606939818382245632,pose_received,1606939818381594934,-1.570,-1.553,1.064,-1.570,-0.506,-0.297
1606939818402295808,pose_received,1606939818401597281,-1.570,-1.553,1.064,-1.570,-0.506,-0.297
1606939818422580736,pose_received,1606939818421596928,-1.570,-1.553,1.064,-1.570,-0.506,-0.297
1606939818442599936,pose_received,1606939818441594275,-1.570,-1.553,1.064,-1.570,-0.506,-0.297
1606939818462921984,pose_received,1606939818461600222,-1.570,-1.553,1.064,-1.570,-0.506,-0.297
1606939818482402304,pose_received,1606939818481700967,-1.570,-1.553,1.064,-1.570,-0.506,-0.297
1606939818502281472,pose_received,1606939818501594516,-1.570,-1.553,1.064,-1.570,-0.506,-0.297
1606939818522403584,pose_received,1606939818521595963,-1.570,-1.553,1.064,-1.570,-0.506,-0.297
1606939818542613248,pose_received,1606939818541593510,-1.570,-1.553,1.064,-1.570,-0.506,-0.297
1606939818552613888,pose_received,1606939818551705982,-1.570,-1.553,1.064,-1.570,-0.506,-0.297
1606939818583110656,pose_received,1606939818581601604,-1.570,-1.553,1.064,-1.570,-0.506,-0.297
1606939818603349504,pose_received,1606939818602030446,-1.570,-1.553,1.064,-1.570,-0.506,-0.297
1606939818622546944,pose_received,1606939818621666197,-1.570,-1.553,1.064,-1.570,-0.506,-0.297
1606939818643008000,pose_received,1606939818641598545,-1.570,-1.553,1.064,-1.570,-0.506,-0.297
1606939818662706688,pose_received,1606939818661599692,-1.570,-1.553,1.064,-1.570,-0.506,-0.297
1606939818682948096,pose_received,1606939818681817036,-1.570,-1.553,1.064,-1.570,-0.506,-0.297
1606939818702156544,pose_received,1606939818701595786,-1.570,-1.553,1.064,-1.570,-0.506,-0.297
1606939818722505472,pose_received,1606939818721603133,-1.570,-1.553,1.064,-1.570,-0.506,-0.297
1606939818742303488,pose_received,1606939818741597480,-1.570,-1.553,1.064,-1.570,-0.506,-0.297
1606939818752175872,pose_received,1606939818751628053,-1.570,-1.553,1.064,-1.570,-0.506,-0.297
1606939818782223360,pose_received,1606939818781599574,-1.570,-1.553,1.064,-1.570,-0.506,-0.297
1606939818802652416,pose_received,1606939818801595522,-1.570,-1.553,1.064,-1.570,-0.506,-0.297
1606939818822536704,pose_received,1606939818821626668,-1.570,-1.553,1.064,-1.570,-0.506,-0.297
1606939818842468352,pose_received,1606939818841595216,-1.570,-1.553,1.064,-1.570,-0.506,-0.297
1606939818852771328,pose_received,1606939818851634389,-1.570,-1.553,1.064,-1.570,-0.506,-0.297
1606939818882473984,pose_received,1606939818881625409,-1.570,-1.553,1.064,-1.570,-0.506,-0.297
1606939818902273024,pose_received,1606939818901597657,-1.570,-1.553,1.064,-1.570,-0.506,-0.297
1606939818922244352,pose_received,1606939818921599104,-1.570,-1.553,1.064,-1.570,-0.506,-0.297
1606939818942689536,pose_received,1606939818941627450,-1.570,-1.553,1.064,-1.570,-0.506,-0.297
1606939818962401536,pose_received,1606939818961594898,-1.570,-1.553,1.064,-1.570,-0.506,-0.297
1606939818972611328,pose_received,1606939818971698270,-1.570,-1.553,1.064,-1.570,-0.506,-0.297
1606939819002554880,pose_received,1606939819001613792,-1.570,-1.553,1.064,-1.570,-0.506,-0.297
1606939819022335232,pose_received,1606939819021595440,-1.570,-1.553,1.064,-1.570,-0.506,-0.297
1606939819042289664,pose_received,1606939819041594987,-1.570,-1.553,1.064,-1.570,-0.506,-0.297
1606939819062771456,pose_received,1606939819061832232,-1.570,-1.553,1.064,-1.570,-0.506,-0.297
1606939819082646784,pose_received,1606939819081598383,-1.570,-1.553,1.064,-1.570,-0.506,-0.297
1606939819102489600,pose_received,1606939819101601630,-1.570,-1.553,1.064,-1.570,-0.506,-0.297
1606939819122309888,pose_received,1606939819121597478,-1.570,-1.553,1.064,-1.570,-0.506,-0.297
1606939819142364672,pose_received,1606939819141605226,-1.570,-1.553,1.064,-1.570,-0.506,-0.297
1606939819162221568,pose_received,1606939819161597374,-1.570,-1.553,1.064,-1.570,-0.506,-0.297
1606939819182652160,pose_received,1606939819181595921,-1.570,-1.553,1.064,-1.570,-0.506,-0.297
1606939819202647296,pose_received,1606939819201700868,-1.570,-1.553,1.064,-1.570,-0.506,-0.297
1606939819222554624,pose_received,1606939819221594817,-1.570,-1.553,1.064,-1.570,-0.506,-0.297
1606939819242308864,pose_received,1606939819241596664,-1.570,-1.553,1.064,-1.570,-0.506,-0.297
1606939819252423936,pose_received,1606939819251645338,-1.570,-1.553,1.064,-1.570,-0.506,-0.297
1606939819282283264,pose_received,1606939819281595160,-1.570,-1.553,1.064,-1.570,-0.506,-0.297
1606939819302271744,pose_received,1606939819301608607,-1.570,-1.553,1.064,-1.570,-0.506,-0.297
1606939819322573568,pose_received,1606939819321596955,-1.570,-1.553,1.064,-1.570,-0.506,-0.297
1606939819342461952,pose_received,1606939819341599903,-1.570,-1.553,1.064,-1.570,-0.506,-0.297
1606939819362128384,pose_received,1606939819361594651,-1.570,-1.553,1.064,-1.570,-0.506,-0.297
1606939819382558976,pose_received,1606939819381594898,-1.570,-1.553,1.064,-1.570,-0.506,-0.297
1606939819402270464,pose_received,1606939819401600546,-1.570,-1.553,1.064,-1.570,-0.506,-0.297
1606939819422533632,pose_received,1606939819421595894,-1.570,-1.553,1.064,-1.570,-0.506,-0.297
1606939819442757120,pose_received,1606939819441594041,-1.570,-1.553,1.064,-1.570,-0.506,-0.297
1606939819462257664,pose_received,1606939819461594089,-1.570,-1.553,1.064,-1.570,-0.506,-0.297
1606939819482380800,pose_received,1606939819481594037,-1.570,-1.553,1.064,-1.570,-0.506,-0.297
1606939819502745856,pose_received,1606939819501593685,-1.570,-1.553,1.064,-1.570,-0.506,-0.297
1606939819522417920,pose_received,1606939819521596232,-1.570,-1.553,1.064,-1.570,-0.506,-0.297
1606939819542533888,pose_received,1606939819541592580,-1.570,-1.553,1.064,-1.570,-0.506,-0.297
1606939819562136576,pose_received,1606939819561668027,-1.570,-1.553,1.064,-1.570,-0.506,-0.297
1606939819582443008,pose_received,1606939819581594075,-1.570,-1.553,1.064,-1.570,-0.506,-0.297
1606939819602291712,pose_received,1606939819601596623,-1.570,-1.553,1.064,-1.570,-0.506,-0.297
1606939819622149376,pose_received,1606939819621597871,-1.570,-1.553,1.064,-1.570,-0.506,-0.297
1606939819642221824,pose_received,1606939819641601118,-1.570,-1.553,1.064,-1.570,-0.506,-0.297
1606939819663010048,pose_received,1606939819661607966,-1.570,-1.553,1.064,-1.570,-0.506,-0.297
1606939819682609408,pose_received,1606939819682050808,-1.570,-1.553,1.064,-1.570,-0.506,-0.297
1606939819703075328,pose_received,1606939819701596962,-1.570,-1.553,1.064,-1.570,-0.506,-0.297
1606939819722147328,pose_received,1606939819721601909,-1.570,-1.553,1.064,-1.570,-0.506,-0.297
1606939819742161664,pose_received,1606939819741598457,-1.570,-0.400,0.274,-1.570,-1.296,-0.297
1606939819762633472,pose_received,1606939819761630904,-1.570,0.000,0.000,-1.570,-1.570,-0.297
1606939819782512384,pose_received,1606939819781596952,-1.570,0.000,0.000,-1.570,-1.570,-0.297
1606939819802495488,pose_received,1606939819801594400,-1.570,0.000,0.000,-1.570,-1.570,-0.297
1606939819822434816,pose_received,1606939819821598048,-1.570,0.000,0.000,-1.570,-1.570,-0.297
1606939819842584576,pose_received,1606939819841595995,-1.570,0.000,0.000,-1.570,-1.570,-0.297
1606939819862278912,pose_received,1606939819861594143,-1.570,0.000,0.000,-1.570,-1.570,-0.297
1606939819872760576,pose_received,1606939819871635017,-1.570,0.000,0.000,-1.570,-1.570,-0.297
1606939819902518528,pose_received,1606939819902024233,-1.570,0.000,0.000,-1.570,-1.570,-0.297
1606939819922257920,pose_received,1606939819921610086,-1.570,0.000,0.000,-1.570,-1.570,-0.297
1606939819942326528,pose_received,1606939819941594634,-1.570,0.000,0.000,-1.570,-1.570,-0.297
1606939819962801664,pose_received,1606939819961627481,-1.570,0.000,0.000,-1.570,-1.570,-0.297
1606939819982423552,pose_received,1606939819981595529,-1.570,0.000,0.000,-1.570,-1.570,-0.297
1606939819992699392,pose_received,1606939819991645403,-1.570,0.000,0.000,-1.570,-1.570,-0.297
1606939820022462464,pose_received,1606939820021920521,-1.570,0.000,0.000,-1.570,-1.570,-0.297
1606939820042324992,pose_received,1606939820041594674,-1.570,0.000,0.000,-1.570,-1.570,-0.297
1606939820062277120,pose_received,1606939820061787020,-1.570,0.000,0.000,-1.570,-1.570,-0.297
1606939820082704640,pose_received,1606939820081615770,-1.570,0.000,0.000,-1.570,-1.570,-0.297
1606939820102074112,pose_received,1606939820101595919,-1.570,0.000,0.000,-1.570,-1.570,-0.297
1606939820122568448,pose_received,1606939820121599167,-1.570,0.000,0.000,-1.570,-1.570,-0.297
1606939820142486016,pose_received,1606939820141596216,-1.570,0.000,0.000,-1.570,-1.570,-0.297
1606939820162256384,pose_received,1606939820161592964,-1.570,0.000,0.000,-1.570,-1.570,-0.297
1606939820182382592,pose_received,1606939820181602012,-1.570,0.000,0.000,-1.570,-1.570,-0.297
1606939820202483456,pose_received,1606939820201966956,-1.570,0.000,0.000,-1.570,-1.570,-0.297
1606939820212236544,pose_received,1606939820211695733,-1.570,0.000,0.000,-1.570,-1.570,-0.297
1606939820242409216,pose_received,1606939820241897053,-1.570,0.000,0.000,-1.570,-1.570,-0.297
1606939820252600064,pose_received,1606939820251732930,-1.570,0.000,0.000,-1.570,-1.570,-0.297
1606939820282565632,pose_received,1606939820281601354,-1.570,0.000,0.000,-1.570,-1.570,-0.297
1606939820302413056,pose_received,1606939820301607302,-1.570,0.000,0.000,-1.570,-1.570,-0.297
1606939820322610432,pose_received,1606939820321596351,-1.570,0.000,0.000,-1.570,-1.570,-0.297
1606939820342185984,pose_received,1606939820341601899,-1.570,0.000,0.000,-1.570,-1.570,-0.297
1606939820362467584,pose_received,1606939820361598247,-1.570,0.000,0.000,-1.570,-1.570,-0.297
1606939820382962688,pose_received,1606939820381597896,-1.570,0.000,0.000,-1.570,-1.570,-0.297
1606939820402476288,pose_received,1606939820401606044,-1.570,0.000,0.000,-1.570,-1.570,-0.297
1606939820422279680,pose_received,1606939820421606392,-1.570,0.000,0.000,-1.570,-1.570,-0.297
1606939820443084032,pose_received,1606939820441615541,-1.570,0.000,0.000,-1.570,-1.570,-0.297
1606939820462454784,pose_received,1606939820461957985,-1.570,0.000,0.000,-1.570,-1.570,-0.297
1606939820482571776,pose_received,1606939820481596737,-1.570,0.000,0.000,-1.570,-1.570,-0.297
1606939820502501632,pose_received,1606939820501604486,-1.570,0.000,0.000,-1.570,-1.570,-0.297
1606939820522788864,pose_received,1606939820521594934,-1.570,0.000,0.000,-1.570,-1.570,-0.297
1606939820542683136,pose_received,1606939820541596183,-1.570,0.000,0.000,-1.570,-1.570,-0.297
1606939820562663424,pose_received,1606939820562065625,-1.570,0.000,0.000,-1.570,-1.570,-0.297
1606939820582277888,pose_received,1606939820581594879,-1.570,0.000,0.000,-1.570,-1.570,-0.297
1606939820602599424,pose_received,1606939820602046422,-1.570,0.000,0.000,-1.570,-1.570,-0.297
1606939820622322432,pose_received,1606939820621597376,-1.570,0.000,0.000,-1.570,-1.570,-0.297
1606939820642518272,pose_received,1606939820641597024,-1.570,0.000,0.000,-1.570,-1.570,-0.297
1606939820653267712,pose_received,1606939820651709097,-1.570,0.000,0.000,-1.570,-1.570,-0.297
1606939820682403072,pose_received,1606939820681597621,-1.570,0.000,0.000,-1.570,-1.570,-0.297
1606939820702711552,pose_received,1606939820701658569,-1.570,0.000,0.000,-1.570,-1.570,-0.297
1606939820722158592,pose_received,1606939820721572818,-1.570,0.000,0.000,-1.570,-1.570,-0.297
1606939820742679040,pose_received,1606939820741596766,-1.570,0.000,0.000,-1.570,-1.570,-0.297
1606939820762163456,pose_received,1606939820761597714,-1.570,0.000,0.000,-1.570,-1.570,-0.297
1606939820782575360,pose_received,1606939820782025857,-1.570,0.000,0.000,-1.570,-1.570,-0.297
1606939820803503616,pose_received,1606939820801987006,-1.570,0.000,0.000,-1.570,-1.570,-0.297
1606939820822696192,pose_received,1606939820821596559,-1.570,0.000,0.000,-1.570,-1.570,-0.297
1606939820842491904,pose_received,1606939820841595108,-1.570,0.000,0.000,-1.570,-1.570,-0.297
1606939820862178816,pose_received,1606939820861595056,-1.570,0.000,0.000,-1.570,-1.570,-0.297
1606939820882275072,pose_received,1606939820881595404,-1.570,0.000,0.000,-1.570,-1.570,-0.297
1606939820902290944,pose_received,1606939820901594653,-1.570,0.000,0.000,-1.570,-1.570,-0.297
1606939820922187264,pose_received,1606939820921596101,-1.570,0.000,0.000,-1.570,-1.570,-0.297
1606939820942405120,pose_received,1606939820941594450,-1.570,0.000,0.000,-1.570,-1.570,-0.297
1606939820962680576,pose_received,1606939820961584898,-1.570,0.000,0.000,-1.570,-1.570,-0.297
1606939820982933760,pose_received,1606939820982103640,-1.570,0.000,0.000,-1.570,-1.570,-0.297
1606939821002335232,pose_received,1606939821001594095,-1.570,0.000,0.000,-1.570,-1.570,-0.297
1606939821022403328,pose_received,1606939821021596144,-1.570,0.000,0.000,-1.570,-1.570,-0.297
1606939821042779392,pose_received,1606939821041597393,-1.570,0.000,0.000,-1.570,-1.570,-0.297
1606939821062348032,pose_received,1606939821061743040,-1.570,0.000,0.000,-1.570,-1.570,-0.297
1606939821082305792,pose_received,1606939821081596191,-1.570,0.000,0.000,-1.570,-1.570,-0.297
1606939821102797824,pose_received,1606939821101812737,-1.570,0.000,0.000,-1.570,-1.570,-0.297
1606939821122302976,pose_received,1606939821121595289,-1.570,0.000,0.000,-1.570,-1.570,-0.297
1606939821142656000,pose_received,1606939821141573638,-1.570,0.000,0.000,-1.570,-1.570,-0.297
1606939821162659328,pose_received,1606939821161595387,-1.570,0.000,0.000,-1.570,-1.570,-0.297
1606939821182526976,pose_received,1606939821181596836,-1.570,0.000,0.000,-1.570,-1.570,-0.297
1606939821202416640,pose_received,1606939821201595085,-1.570,0.000,0.000,-1.570,-1.570,-0.297
1606939821212230144,pose_received,1606939821211655058,-1.570,0.000,0.000,-1.570,-1.570,-0.297
1606939821232289536,pose_received,1606939821231617008,-1.570,0.000,0.000,-1.570,-1.570,-0.297
1606939821262527488,pose_received,1606939821261593232,-1.570,0.000,0.000,-1.570,-1.570,-0.297
1606939821282255104,pose_received,1606939821281597880,-1.570,0.000,0.000,-1.570,-1.570,-0.297
1606939821302194944,pose_received,1606939821301594830,-1.570,0.000,0.000,-1.570,-1.570,-0.297
1606939821322753280,pose_received,1606939821321597678,-1.570,0.000,0.000,-1.570,-1.570,-0.297
1606939821342220544,pose_received,1606939821341595328,-1.570,0.000,0.000,-1.570,-1.570,-0.297
1606939821362570752,pose_received,1606939821361591477,-1.570,0.000,0.000,-1.570,-1.570,-0.297
1606939821382171648,pose_received,1606939821381636725,-1.570,0.000,0.000,-1.570,-1.570,-0.297
1606939821402234112,pose_received,1606939821401597374,-1.570,0.000,0.000,-1.570,-1.570,-0.297
1606939821422297600,pose_received,1606939821421603023,-1.570,0.070,0.017,-1.570,-1.553,-0.297
1606939821442740736,pose_received,1606939821441594073,-1.570,0.070,0.017,-1.570,-1.553,-0.297
1606939821462365952,pose_received,1606939821461592722,-1.570,0.070,0.017,-1.570,-1.553,-0.297
1606939821482626304,pose_received,1606939821481596270,-1.570,0.070,0.017,-1.570,-1.553,-0.297
1606939821502404864,pose_received,1606939821501595919,-1.570,0.070,0.017,-1.570,-1.553,-0.297
1606939821522736896,pose_received,1606939821521559169,-1.570,0.070,0.017,-1.570,-1.553,-0.297
1606939821542617088,pose_received,1606939821541595217,-1.570,0.070,0.017,-1.570,-1.553,-0.297
1606939821552398848,pose_received,1606939821551694391,-1.570,0.070,0.017,-1.570,-1.553,-0.297
1606939821582654720,pose_received,1606939821581598315,-1.570,0.055,0.033,-1.570,-1.537,-0.297
1606939821602487296,pose_received,1606939821601606264,-1.570,0.052,0.035,-1.570,-1.535,-0.297
1606939821612966912,pose_received,1606939821611815636,-1.570,0.052,0.035,-1.570,-1.535,-0.297
1606939821632523008,pose_received,1606939821631618388,-1.570,0.052,0.035,-1.570,-1.535,-0.297
1606939821662444800,pose_received,1606939821661594911,-1.570,0.017,0.052,-1.570,-1.518,-0.297
1606939821672870144,pose_received,1606939821671803183,-1.570,0.017,0.052,-1.570,-1.518,-0.297
1606939821702505472,pose_received,1606939821701674408,-1.570,0.017,0.053,-1.570,-1.517,-0.297
1606939821712422656,pose_received,1606939821711899180,-1.570,-0.010,0.079,-1.570,-1.491,-0.297
1606939821742761216,pose_received,1606939821741676506,-1.570,-0.017,0.087,-1.570,-1.483,-0.297
1606939821763336960,pose_received,1606939821762804141,-1.570,-0.056,0.125,-1.570,-1.445,-0.297
1606939821782442496,pose_received,1606939821781595205,-1.570,-0.070,0.140,-1.570,-1.430,-0.297
1606939821802503936,pose_received,1606939821801615254,-1.570,-0.070,0.140,-1.570,-1.430,-0.297
1606939821822452736,pose_received,1606939821821935099,-1.570,-0.105,0.174,-1.570,-1.396,-0.297
1606939821843161856,pose_received,1606939821841599752,-1.570,-0.105,0.174,-1.570,-1.396,-0.297
1606939821852405504,pose_received,1606939821851619727,-1.570,-0.106,0.175,-1.570,-1.395,-0.297
1606939821882531328,pose_received,1606939821881967546,-1.570,-0.174,0.209,-1.570,-1.361,-0.297
1606939821902771456,pose_received,1606939821901613899,-1.570,-0.174,0.209,-1.570,-1.361,-0.297
1606939821914057984,pose_received,1606939821911642873,-1.570,-0.174,0.209,-1.570,-1.361,-0.297
1606939821942530560,pose_received,1606939821941905594,-1.570,-0.209,0.244,-1.570,-1.326,-0.297
1606939821952477696,pose_received,1606939821951742870,-1.570,-0.209,0.244,-1.570,-1.326,-0.297
1606939821982215936,pose_received,1606939821981596695,-1.570,-0.240,0.290,-1.570,-1.280,-0.297
1606939822002250752,pose_received,1606939822001655844,-1.570,-0.244,0.297,-1.570,-1.273,-0.297
1606939822022566912,pose_received,1606939822021600494,-1.570,-0.244,0.297,-1.570,-1.273,-0.297
1606939822042634752,pose_received,1606939822041906040,-1.570,-0.262,0.314,-1.570,-1.256,-0.297
1606939822052465920,pose_received,1606939822051616818,-1.570,-0.262,0.314,-1.570,-1.256,-0.297
1606939822084318720,pose_received,1606939822082536231,-1.570,-0.301,0.341,-1.570,-1.229,-0.297
1606939822102466304,pose_received,1606939822101606092,-1.570,-0.314,0.349,-1.570,-1.221,-0.297
1606939822122221312,pose_received,1606939822121597442,-1.570,-0.314,0.349,-1.570,-1.221,-0.297
1606939822142944256,pose_received,1606939822141946387,-1.570,-0.334,0.369,-1.570,-1.201,-0.297
1606939822163861248,pose_received,1606939822162129735,-1.570,-0.349,0.384,-1.570,-1.186,-0.297
1606939822182715904,pose_received,1606939822181581791,-1.570,-0.349,0.384,-1.570,-1.186,-0.297
1606939822202710528,pose_received,1606939822201681840,-1.570,-0.384,0.419,-1.570,-1.151,-0.297
1606939822222296576,pose_received,1606939822221779788,-1.570,-0.384,0.419,-1.570,-1.151,-0.297
1606939822234028032,pose_received,1606939822232298056,-1.570,-0.384,0.419,-1.570,-1.151,-0.297
1606939822262806784,pose_received,1606939822261602090,-1.570,-0.419,0.471,-1.570,-1.099,-0.297
1606939822282122240,pose_received,1606939822281597439,-1.570,-0.419,0.471,-1.570,-1.099,-0.297
1606939822302475264,pose_received,1606939822301785387,-1.570,-0.419,0.471,-1.570,-1.099,-0.297
1606939822322481920,pose_received,1606939822321596739,-1.570,-0.419,0.471,-1.570,-1.099,-0.297
1606939822332271616,pose_received,1606939822331615713,-1.570,-0.419,0.472,-1.570,-1.098,-0.297
1606939822362861312,pose_received,1606939822361602838,-1.570,-0.488,0.541,-1.570,-1.029,-0.297
1606939822382500352,pose_received,1606939822381606787,-1.570,-0.488,0.541,-1.570,-1.029,-0.297
1606939822402279168,pose_received,1606939822401601937,-1.570,-0.558,0.628,-1.570,-0.942,-0.297
1606939822422431232,pose_received,1606939822421600587,-1.570,-0.558,0.628,-1.570,-0.942,-0.297
1606939822434212608,pose_received,1606939822432364952,-1.570,-0.558,0.628,-1.570,-0.942,-0.297
1606939822462404096,pose_received,1606939822461594986,-1.570,-0.611,0.680,-1.570,-0.890,-0.297
1606939822482380800,pose_received,1606939822481596236,-1.570,-0.611,0.680,-1.570,-0.890,-0.297
1606939822502291712,pose_received,1606939822501606385,-1.570,-0.611,0.680,-1.570,-0.890,-0.297
1606939822522595072,pose_received,1606939822521610735,-1.570,-0.680,0.750,-1.570,-0.820,-0.297
1606939822542266368,pose_received,1606939822541595385,-1.570,-0.680,0.750,-1.570,-0.820,-0.297
1606939822562223104,pose_received,1606939822561692633,-1.570,-0.680,0.750,-1.570,-0.820,-0.297
1606939822582571264,pose_received,1606939822582001379,-1.570,-0.680,0.750,-1.570,-0.820,-0.297
1606939822602601728,pose_received,1606939822601569034,-1.570,-0.715,0.802,-1.570,-0.768,-0.297
1606939822622295296,pose_received,1606939822621597083,-1.570,-0.715,0.802,-1.570,-0.768,-0.297
1606939822632536832,pose_received,1606939822631826355,-1.570,-0.715,0.802,-1.570,-0.768,-0.297
1606939822652105728,pose_received,1606939822651664107,-1.570,-0.715,0.802,-1.570,-0.768,-0.297
1606939822682494208,pose_received,1606939822681595932,-1.570,-0.748,0.835,-1.570,-0.735,-0.297
1606939822692303360,pose_received,1606939822691811604,-1.570,-0.750,0.837,-1.570,-0.733,-0.297
1606939822712282880,pose_received,1606939822711615956,-1.570,-0.750,0.837,-1.570,-0.733,-0.297
1606939822732332288,pose_received,1606939822731708005,-1.570,-0.784,0.871,-1.570,-0.699,-0.297
1606939822762658816,pose_received,1606939822761581531,-1.570,-0.785,0.872,-1.570,-0.698,-0.297
1606939822772678144,pose_received,1606939822771638305,-1.570,-0.785,0.872,-1.570,-0.698,-0.297
1606939822802289152,pose_received,1606939822801595730,-1.570,-0.872,0.994,-1.570,-0.576,-0.297
1606939822822546688,pose_received,1606939822821594580,-1.570,-0.872,0.994,-1.570,-0.576,-0.297
1606939822842469120,pose_received,1606939822841597129,-1.570,-0.872,0.994,-1.570,-0.576,-0.297
1606939822862540032,pose_received,1606939822861565979,-1.570,-0.872,0.994,-1.570,-0.576,-0.297
1606939822882866944,pose_received,1606939822881596029,-1.570,-0.872,0.994,-1.570,-0.576,-0.297
1606939822902412544,pose_received,1606939822901612978,-1.570,-0.872,0.994,-1.570,-0.576,-0.297
1606939822922337280,pose_received,1606939822921596828,-1.570,-0.872,0.994,-1.570,-0.576,-0.297
1606939822942532096,pose_received,1606939822941595877,-1.570,-0.872,0.994,-1.570,-0.576,-0.297
1606939822952443136,pose_received,1606939822951627452,-1.570,-0.872,0.994,-1.570,-0.576,-0.297
1606939822982501888,pose_received,1606939822981596577,-1.570,-0.872,0.994,-1.570,-0.576,-0.297
1606939823002552320,pose_received,1606939823001596526,-1.570,-0.872,0.994,-1.570,-0.576,-0.297
1606939823022405888,pose_received,1606939823021859173,-1.570,-0.872,0.994,-1.570,-0.576,-0.297
1606939823042348544,pose_received,1606939823041612027,-1.570,-0.872,0.994,-1.570,-0.576,-0.297
1606939823062146048,pose_received,1606939823061684476,-1.570,-0.872,0.994,-1.570,-0.576,-0.297
1606939823082656256,pose_received,1606939823081591428,-1.570,-0.872,0.994,-1.570,-0.576,-0.297
1606939823102493184,pose_received,1606939823101607378,-1.570,-0.872,0.994,-1.570,-0.576,-0.297
1606939823122093824,pose_received,1606939823121595128,-1.570,-0.872,0.994,-1.570,-0.576,-0.297
1606939823142578176,pose_received,1606939823141596078,-1.570,-0.872,0.994,-1.570,-0.576,-0.297
1606939823162564352,pose_received,1606939823161595729,-1.570,-0.872,0.994,-1.570,-0.576,-0.297
1606939823182244864,pose_received,1606939823181594579,-1.570,-0.872,0.994,-1.570,-0.576,-0.297
1606939823202332928,pose_received,1606939823201609729,-1.570,-0.872,0.994,-1.570,-0.576,-0.297
1606939823222425600,pose_received,1606939823221593480,-1.570,-0.872,0.994,-1.570,-0.576,-0.297
1606939823242255104,pose_received,1606939823241608030,-1.570,-0.872,0.994,-1.570,-0.576,-0.297
1606939823262191360,pose_received,1606939823261595080,-1.570,-0.890,0.977,-1.570,-0.593,-0.297
1606939823282308096,pose_received,1606939823281594830,-1.570,-0.890,0.977,-1.570,-0.593,-0.297
1606939823293813248,pose_received,1606939823292064700,-1.570,-0.890,0.977,-1.570,-0.593,-0.297
1606939823322548992,pose_received,1606939823321731729,-1.570,-0.890,0.964,-1.570,-0.606,-0.297
1606939823342525184,pose_received,1606939823341596281,-1.570,-0.890,0.959,-1.570,-0.611,-0.297
1606939823362327040,pose_received,1606939823361812729,-1.570,-0.890,0.959,-1.570,-0.611,-0.297
1606939823383095040,pose_received,1606939823382009377,-1.570,-0.908,0.950,-1.570,-0.620,-0.297
1606939823402528256,pose_received,1606939823401596332,-1.570,-0.925,0.942,-1.570,-0.628,-0.297
1606939823422488576,pose_received,1606939823421596582,-1.570,-0.925,0.942,-1.570,-0.628,-0.297
1606939823443569664,pose_received,1606939823441808130,-1.570,-0.925,0.942,-1.570,-0.628,-0.297
1606939823462301696,pose_received,1606939823461598083,-1.570,-0.925,0.942,-1.570,-0.628,-0.297
1606939823472414976,pose_received,1606939823471628358,-1.570,-0.937,0.930,-1.570,-0.640,-0.297
1606939823502402048,pose_received,1606939823501900680,-1.570,-0.942,0.925,-1.570,-0.645,-0.297
1606939823522555392,pose_received,1606939823521986929,-1.570,-0.942,0.925,-1.570,-0.645,-0.297
1606939823533875200,pose_received,1606939823533313987,-1.570,-0.961,0.915,-1.570,-0.655,-0.297
1606939823562500608,pose_received,1606939823561663833,-1.570,-0.977,0.907,-1.570,-0.663,-0.297
1606939823582253568,pose_received,1606939823581595485,-1.570,-0.977,0.907,-1.570,-0.663,-0.297
1606939823592774912,pose_received,1606939823591762058,-1.570,-0.992,0.892,-1.570,-0.678,-0.297
1606939823626655232,pose_received,1606939823624491349,-1.570,-0.995,0.890,-1.570,-0.680,-0.297
1606939823642654208,pose_received,1606939823641658735,-1.570,-1.029,0.890,-1.570,-0.680,-0.297
1606939823662400512,pose_received,1606939823661600586,-1.570,-1.029,0.890,-1.570,-0.680,-0.297
1606939823682180608,pose_received,1606939823681619436,-1.570,-1.029,0.890,-1.570,-0.680,-0.297
1606939823702075648,pose_received,1606939823701596086,-1.570,-1.047,0.855,-1.570,-0.715,-0.297
1606939823712358656,pose_received,1606939823711638661,-1.570,-1.047,0.855,-1.570,-0.715,-0.297
1606939823742480384,pose_received,1606939823741922583,-1.570,-1.047,0.855,-1.570,-0.715,-0.297
1606939823762221312,pose_received,1606939823761595537,-1.570,-1.082,0.872,-1.570,-0.698,-0.297
1606939823772284416,pose_received,1606939823771752310,-1.570,-1.082,0.872,-1.570,-0.698,-0.297
1606939823793235456,pose_received,1606939823792676449,-1.570,-1.082,0.872,-1.570,-0.698,-0.297
1606939823822765824,pose_received,1606939823821638487,-1.570,-1.121,0.872,-1.570,-0.698,-0.297
1606939823832427520,pose_received,1606939823831743561,-1.570,-1.134,0.872,-1.570,-0.698,-0.297
1606939823865133056,pose_received,1606939823862848173,-1.570,-1.134,0.872,-1.570,-0.698,-0.297
1606939823872534016,pose_received,1606939823871688763,-1.570,-1.166,0.872,-1.570,-0.698,-0.297
1606939823902437120,pose_received,1606939823901595489,-1.570,-1.169,0.872,-1.570,-0.698,-0.297
1606939823922648320,pose_received,1606939823921675338,-1.570,-1.169,0.872,-1.570,-0.698,-0.297
1606939823942490880,pose_received,1606939823941615989,-1.570,-1.204,0.855,-1.570,-0.715,-0.297
1606939823962522624,pose_received,1606939823962008435,-1.570,-1.204,0.855,-1.570,-0.715,-0.297
1606939823984110336,pose_received,1606939823982921774,-1.570,-1.204,0.855,-1.570,-0.715,-0.297
1606939824002373632,pose_received,1606939824001595541,-1.570,-1.221,0.872,-1.570,-0.698,-0.297
1606939824022219264,pose_received,1606939824021596791,-1.570,-1.221,0.872,-1.570,-0.698,-0.297
1606939824043519232,pose_received,1606939824042469231,-1.570,-1.221,0.872,-1.570,-0.698,-0.297
1606939824062452480,pose_received,1606939824061665092,-1.570,-1.273,0.890,-1.570,-0.680,-0.297
1606939824072762880,pose_received,1606939824071654568,-1.570,-1.273,0.890,-1.570,-0.680,-0.297
1606939824102350592,pose_received,1606939824101599495,-1.570,-1.273,0.890,-1.570,-0.680,-0.297
1606939824126925824,pose_received,1606939824121598846,-1.570,-1.273,0.890,-1.570,-0.680,-0.297
1606939824142403840,pose_received,1606939824141597997,-1.570,-1.361,0.925,-1.570,-0.645,-0.297
1606939824162478336,pose_received,1606939824161684547,-1.570,-1.361,0.925,-1.570,-0.645,-0.297
1606939824182379776,pose_received,1606939824181599099,-1.570,-1.379,0.934,-1.570,-0.636,-0.297
1606939824192450560,pose_received,1606939824191912170,-1.570,-1.396,0.942,-1.570,-0.628,-0.297
1606939824223295232,pose_received,1606939824221667900,-1.570,-1.396,0.942,-1.570,-0.628,-0.297
1606939824242726912,pose_received,1606939824241694150,-1.570,-1.430,0.959,-1.570,-0.611,-0.297
1606939824262468096,pose_received,1606939824261602202,-1.570,-1.430,0.959,-1.570,-0.611,-0.297
1606939824282636800,pose_received,1606939824281609453,-1.570,-1.450,0.969,-1.570,-0.601,-0.297
1606939824302318848,pose_received,1606939824301606604,-1.570,-1.465,0.977,-1.570,-0.593,-0.297
1606939824322564864,pose_received,1606939824321596055,-1.570,-1.465,0.977,-1.570,-0.593,-0.297
1606939824342413568,pose_received,1606939824341600306,-1.570,-1.465,0.977,-1.570,-0.593,-0.297
1606939824362366464,pose_received,1606939824361598657,-1.570,-1.465,0.977,-1.570,-0.593,-0.297
1606939824382432000,pose_received,1606939824381597108,-1.570,-1.465,0.977,-1.570,-0.593,-0.297
1606939824393123584,pose_received,1606939824391652883,-1.570,-1.465,0.977,-1.570,-0.593,-0.297
1606939824422274304,pose_received,1606939824421595210,-1.570,-1.465,0.977,-1.570,-0.593,-0.297
1606939824443068928,pose_received,1606939824441597861,-1.570,-1.465,0.977,-1.570,-0.593,-0.297
1606939824462447616,pose_received,1606939824461594012,-1.570,-1.465,0.977,-1.570,-0.593,-0.297
1606939824482210560,pose_received,1606939824481594463,-1.570,-1.465,0.977,-1.570,-0.593,-0.297
1606939824502617600,pose_received,1606939824501600713,-1.570,-1.465,0.977,-1.570,-0.593,-0.297
1606939824522212864,pose_received,1606939824521593864,-1.570,-1.465,0.977,-1.570,-0.593,-0.297
1606939824542574080,pose_received,1606939824541595215,-1.570,-1.465,0.977,-1.570,-0.593,-0.297
1606939824552355584,pose_received,1606939824551615991,-1.570,-1.465,0.977,-1.570,-0.593,-0.297
1606939824582569216,pose_received,1606939824581594517,-1.570,-1.465,0.977,-1.570,-0.593,-0.297
1606939824592698368,pose_received,1606939824591615492,-1.570,-1.465,0.977,-1.570,-0.593,-0.297
1606939824622633984,pose_received,1606939824621584419,-1.570,-1.465,0.977,-1.570,-0.593,-0.297
1606939824642190336,pose_received,1606939824641596370,-1.570,-1.465,0.977,-1.570,-0.593,-0.297
1606939824662661120,pose_received,1606939824661595221,-1.570,-1.465,0.977,-1.570,-0.593,-0.297
1606939824682586880,pose_received,1606939824681593972,-1.570,-1.465,0.977,-1.570,-0.593,-0.297
1606939824702936576,pose_received,1606939824702115116,-1.570,-1.465,0.977,-1.570,-0.593,-0.297
1606939824712631808,pose_received,1606939824711940594,-1.570,-1.465,0.977,-1.570,-0.593,-0.297
1606939824742159104,pose_received,1606939824741597325,-1.570,-1.465,0.977,-1.570,-0.593,-0.297
1606939824762432512,pose_received,1606939824761595876,-1.570,-1.465,0.977,-1.570,-0.593,-0.297
1606939824782715392,pose_received,1606939824781569627,-1.570,-1.465,0.977,-1.570,-0.593,-0.297
1606939824802491392,pose_received,1606939824801596577,-1.570,-1.465,0.977,-1.570,-0.593,-0.297
1606939824822304768,pose_received,1606939824821595528,-1.570,-1.465,0.977,-1.570,-0.593,-0.297
1606939824842643456,pose_received,1606939824841590279,-1.570,-1.465,0.977,-1.570,-0.593,-0.297
1606939824862317824,pose_received,1606939824861606030,-1.570,-1.465,0.977,-1.570,-0.593,-0.297
1606939824882605824,pose_received,1606939824881594881,-1.570,-1.465,0.977,-1.570,-0.593,-0.297
1606939824902548992,pose_received,1606939824901594332,-1.570,-1.465,0.977,-1.570,-0.593,-0.297
1606939824922543104,pose_received,1606939824921595983,-1.570,-1.465,0.977,-1.570,-0.593,-0.297
1606939824942471168,pose_received,1606939824941967029,-1.570,-1.465,0.977,-1.570,-0.593,-0.297
1606939824962772480,pose_received,1606939824961582685,-1.570,-1.465,0.977,-1.570,-0.593,-0.297
1606939824982640128,pose_received,1606939824981585736,-1.570,-1.465,0.977,-1.570,-0.593,-0.297
1606939825002591232,pose_received,1606939825001595687,-1.570,-1.465,0.977,-1.570,-0.593,-0.297
1606939825022386944,pose_received,1606939825021860435,-1.570,-1.465,0.977,-1.570,-0.593,-0.297
1606939825042274560,pose_received,1606939825041596690,-1.570,-1.465,0.977,-1.570,-0.593,-0.297
1606939825063279360,pose_received,1606939825061629541,-1.570,-1.465,0.977,-1.570,-0.593,-0.297
1606939825082562560,pose_received,1606939825081596493,-1.570,-1.465,0.977,-1.570,-0.593,-0.297
1606939825102560768,pose_received,1606939825101594244,-1.570,-1.465,0.977,-1.570,-0.593,-0.297
1606939825122868224,pose_received,1606939825121793193,-1.570,-1.465,0.977,-1.570,-0.593,-0.297
1606939825142581760,pose_received,1606939825141597747,-1.570,-1.465,0.977,-1.570,-0.593,-0.297
1606939825162700288,pose_received,1606939825161596699,-1.570,-1.465,0.977,-1.570,-0.593,-0.297
1606939825182644480,pose_received,1606939825181656950,-1.570,-1.465,0.977,-1.570,-0.593,-0.297
1606939825202475264,pose_received,1606939825201596102,-1.570,-1.465,0.977,-1.570,-0.593,-0.297
1606939825222592768,pose_received,1606939825221600554,-1.570,-1.465,0.977,-1.570,-0.593,-0.297
1606939825242378752,pose_received,1606939825241595305,-1.570,-1.465,0.977,-1.570,-0.593,-0.297
1606939825262310656,pose_received,1606939825261595557,-1.570,-1.465,0.977,-1.570,-0.593,-0.297
1606939825282334720,pose_received,1606939825281595708,-1.570,-1.465,0.977,-1.570,-0.593,-0.297
1606939825302446336,pose_received,1606939825301597260,-1.570,-1.465,0.977,-1.570,-0.593,-0.297
1606939825322364928,pose_received,1606939825321596811,-1.570,-1.465,0.977,-1.570,-0.593,-0.297
1606939825342331904,pose_received,1606939825341598163,-1.570,-1.465,0.977,-1.570,-0.593,-0.297
1606939825362578176,pose_received,1606939825361677414,-1.570,-1.465,0.977,-1.570,-0.593,-0.297
1606939825382567168,pose_received,1606939825381681765,-1.570,-1.465,0.977,-1.570,-0.593,-0.297
1606939825402273024,pose_received,1606939825401595318,-1.570,-1.465,0.977,-1.570,-0.593,-0.297
1606939825412406528,pose_received,1606939825411763691,-1.570,-1.465,0.977,-1.570,-0.593,-0.297
1606939825442260224,pose_received,1606939825441597921,-1.570,-1.465,0.977,-1.570,-0.593,-0.297
1606939825452962816,pose_received,1606939825451755595,-1.570,-1.465,0.977,-1.570,-0.593,-0.297
1606939825482624512,pose_received,1606939825481600624,-1.570,-1.465,0.977,-1.570,-0.593,-0.297
1606939825502427392,pose_received,1606939825501604675,-1.570,-1.465,0.977,-1.570,-0.593,-0.297
1606939825522134528,pose_received,1606939825521597327,-1.570,-1.465,0.977,-1.570,-0.593,-0.297
1606939825542699008,pose_received,1606939825541696677,-1.570,-1.465,0.977,-1.570,-0.593,-0.297
1606939825562167296,pose_received,1606939825561700229,-1.570,-1.465,0.977,-1.570,-0.593,-0.297
1606939825572512512,pose_received,1606939825571966001,-1.570,-1.465,0.977,-1.570,-0.593,-0.297
1606939825602391808,pose_received,1606939825601612733,-1.570,-1.465,0.977,-1.570,-0.593,-0.297
1606939825622289408,pose_received,1606939825621595385,-1.570,-1.465,0.977,-1.570,-0.593,-0.297
1606939825642225408,pose_received,1606939825641608636,-1.570,-1.465,0.977,-1.570,-0.593,-0.297
1606939825652459264,pose_received,1606939825651614712,-1.570,-1.465,0.977,-1.570,-0.593,-0.297
1606939825682586624,pose_received,1606939825681598239,-1.570,-1.465,0.977,-1.570,-0.593,-0.297
1606939825702551296,pose_received,1606939825701613791,-1.570,-1.465,0.977,-1.570,-0.593,-0.297
1606939825722580224,pose_received,1606939825722037537,-1.570,-1.465,0.977,-1.570,-0.593,-0.297
1606939825742668032,pose_received,1606939825741602594,-1.570,-1.465,0.977,-1.570,-0.593,-0.297
1606939825762695936,pose_received,1606939825761586546,-1.570,-1.465,0.977,-1.570,-0.593,-0.297
1606939825782152704,pose_received,1606939825781594497,-1.570,-1.465,0.977,-1.570,-0.593,-0.297
1606939825802735360,pose_received,1606939825801603949,-1.570,-1.465,0.977,-1.570,-0.593,-0.297
1606939825822385664,pose_received,1606939825821598000,-1.570,-1.465,0.977,-1.570,-0.593,-0.297
1606939825842622976,pose_received,1606939825841599052,-1.570,-1.465,0.977,-1.570,-0.593,-0.297
1606939825862159104,pose_received,1606939825861603003,-1.570,-1.465,0.977,-1.570,-0.593,-0.297
1606939825872642048,pose_received,1606939825871704678,-1.570,-1.465,0.977,-1.570,-0.593,-0.297
1606939825893037312,pose_received,1606939825891894627,-1.570,-1.465,0.977,-1.570,-0.593,-0.297
1606939825922439424,pose_received,1606939825921595958,-1.570,-1.465,0.977,-1.570,-0.593,-0.297
1606939825942601728,pose_received,1606939825941595810,-1.570,-1.465,0.977,-1.570,-0.593,-0.297
1606939825962264064,pose_received,1606939825961594961,-1.570,-1.465,0.977,-1.570,-0.593,-0.297
1606939825982582016,pose_received,1606939825981591213,-1.570,-1.465,0.977,-1.570,-0.593,-0.297
1606939826002720512,pose_received,1606939826001597364,-1.570,-1.465,0.977,-1.570,-0.593,-0.297
1606939826022698240,pose_received,1606939826021637616,-1.570,-1.465,0.977,-1.570,-0.593,-0.297
1606939826042217216,pose_received,1606939826041596369,-1.570,-1.465,0.977,-1.570,-0.593,-0.297
1606939826063055872,pose_received,1606939826061762919,-1.570,-1.465,0.977,-1.570,-0.593,-0.297
1606939826073210112,pose_received,1606939826072604985,-1.570,-1.465,0.977,-1.570,-0.593,-0.297
1606939826102664704,pose_received,1606939826101596525,-1.570,0.000,0.000,-1.570,-1.570,-0.297
1606939826123312384,pose_received,1606939826122544166,-1.570,0.000,0.000,-1.570,-1.570,-0.297
1606939826142198272,pose_received,1606939826141598630,-1.570,0.000,0.000,-1.570,-1.570,-0.297
1606939826164387584,pose_received,1606939826161600382,-1.570,0.000,0.000,-1.570,-1.570,-0.297
1606939826172357376,pose_received,1606939826171791856,-1.570,0.000,0.000,-1.570,-1.570,-0.297
1606939826202928384,pose_received,1606939826201709285,-1.570,0.000,0.000,-1.570,-1.570,-0.297
1606939826222094592,pose_received,1606939826221601438,-1.570,0.000,0.000,-1.570,-1.570,-0.297
1606939826242662400,pose_received,1606939826241597591,-1.570,0.000,0.000,-1.570,-1.570,-0.297
1606939826263105280,pose_received,1606939826261606143,-1.570,0.000,0.000,-1.570,-1.570,-0.297
1606939826282497792,pose_received,1606939826281595895,-1.570,0.000,0.000,-1.570,-1.570,-0.297
1606939826302405632,pose_received,1606939826301613047,-1.570,0.000,0.000,-1.570,-1.570,-0.297
1606939826312416768,pose_received,1606939826311689822,-1.570,0.000,0.000,-1.570,-1.570,-0.297
1606939826342146816,pose_received,1606939826341597352,-1.570,0.000,0.000,-1.570,-1.570,-0.297
1606939826362639360,pose_received,1606939826361555004,-1.570,0.000,0.000,-1.570,-1.570,-0.297
1606939826382615552,pose_received,1606939826381596356,-1.570,0.000,0.000,-1.570,-1.570,-0.297
1606939826402542080,pose_received,1606939826401595508,-1.570,0.000,0.000,-1.570,-1.570,-0.297
1606939826423164672,pose_received,1606939826422078754,-1.570,0.000,0.000,-1.570,-1.570,-0.297
1606939826442110720,pose_received,1606939826441597913,-1.570,0.000,0.000,-1.570,-1.570,-0.297
1606939826462510336,pose_received,1606939826461598265,-1.570,0.000,0.000,-1.570,-1.570,-0.297
1606939826482502144,pose_received,1606939826481595417,-1.570,0.000,0.000,-1.570,-1.570,-0.297
1606939826502472960,pose_received,1606939826501947865,-1.570,0.000,0.000,-1.570,-1.570,-0.297
1606939826522392576,pose_received,1606939826521595321,-1.570,0.000,0.000,-1.570,-1.570,-0.297
1606939826542233344,pose_received,1606939826541595274,-1.570,0.000,0.000,-1.570,-1.570,-0.297
1606939826563092224,pose_received,1606939826561949821,-1.570,0.000,0.000,-1.570,-1.570,-0.297
1606939826582270464,pose_received,1606939826581595878,-1.570,0.000,0.000,-1.570,-1.570,-0.297
1606939826593239552,pose_received,1606939826591992049,-1.570,0.000,0.000,-1.570,-1.570,-0.297
1606939826622216192,pose_received,1606939826621596282,-1.570,0.000,0.000,-1.570,-1.570,-0.297
1606939826642115328,pose_received,1606939826641598135,-1.570,0.000,0.000,-1.570,-1.570,-0.297
1606939826662375680,pose_received,1606939826661594287,-1.570,0.000,0.000,-1.570,-1.570,-0.297
1606939826682206208,pose_received,1606939826681601439,-1.570,0.000,0.000,-1.570,-1.570,-0.297
1606939826702265600,pose_received,1606939826701596091,-1.570,0.000,0.000,-1.570,-1.570,-0.297
1606939826712588288,pose_received,1606939826711704166,-1.570,0.000,0.000,-1.570,-1.570,-0.297
1606939826742656000,pose_received,1606939826741594796,-1.570,0.000,0.000,-1.570,-1.570,-0.297
1606939826762404096,pose_received,1606939826761594948,-1.570,0.000,0.000,-1.570,-1.570,-0.297
1606939826782772992,pose_received,1606939826781590600,-1.570,0.000,0.000,-1.570,-1.570,-0.297
1606939826802976000,pose_received,1606939826801758250,-1.570,0.000,0.000,-1.570,-1.570,-0.297
1606939826822277632,pose_received,1606939826821595104,-1.570,0.000,0.000,-1.570,-1.570,-0.297
1606939826842364928,pose_received,1606939826841872153,-1.570,0.000,0.000,-1.570,-1.570,-0.297
1606939826862236928,pose_received,1606939826861597409,-1.570,0.000,0.000,-1.570,-1.570,-0.297
1606939826882582016,pose_received,1606939826881596461,-1.570,0.000,0.000,-1.570,-1.570,-0.297
1606939826892549120,pose_received,1606939826891659336,-1.570,0.000,0.000,-1.570,-1.570,-0.297
1606939826922345472,pose_received,1606939826921595665,-1.570,0.000,0.000,-1.570,-1.570,-0.297
1606939826942248448,pose_received,1606939826941613217,-1.570,0.000,0.000,-1.570,-1.570,-0.297
1606939826952520704,pose_received,1606939826951616593,-1.570,0.000,0.000,-1.570,-1.570,-0.297
1606939826982303488,pose_received,1606939826981594822,-1.570,0.000,0.000,-1.570,-1.570,-0.297
1606939827002509056,pose_received,1606939827001603674,-1.570,0.000,0.000,-1.570,-1.570,-0.297
1606939827012591104,pose_received,1606939827011934746,-1.570,0.000,0.000,-1.570,-1.570,-0.297
1606939827042268160,pose_received,1606939827041595780,-1.570,0.000,0.000,-1.570,-1.570,-0.297
1606939827062143232,pose_received,1606939827061705831,-1.570,0.000,0.000,-1.570,-1.570,-0.297
1606939827072602624,pose_received,1606939827071651808,-1.570,0.000,0.000,-1.570,-1.570,-0.297
1606939827102462720,pose_received,1606939827101603838,-1.570,0.000,0.000,-1.570,-1.570,-0.297
1606939827112257536,pose_received,1606939827111620314,-1.570,0.000,0.000,-1.570,-1.570,-0.297
1606939827142125824,pose_received,1606939827141597244,-1.570,0.000,0.000,-1.570,-1.570,-0.297
1606939827162579712,pose_received,1606939827161593597,-1.570,0.000,0.000,-1.570,-1.570,-0.297
1606939827182137856,pose_received,1606939827181597249,-1.570,0.000,0.000,-1.570,-1.570,-0.297
1606939827202256896,pose_received,1606939827201600302,-1.570,0.000,0.000,-1.570,-1.570,-0.297
1606939827222475520,pose_received,1606939827221597055,-1.570,0.000,0.000,-1.570,-1.570,-0.297
1606939827242254080,pose_received,1606939827241599208,-1.570,0.000,0.000,-1.570,-1.570,-0.297
1606939827253105920,pose_received,1606939827251616384,-1.570,0.000,0.000,-1.570,-1.570,-0.297
1606939827282339584,pose_received,1606939827281595213,-1.570,0.000,0.000,-1.570,-1.570,-0.297
1606939827302687232,pose_received,1606939827301597766,-1.570,0.000,0.000,-1.570,-1.570,-0.297
1606939827322686976,pose_received,1606939827321598219,-1.570,0.000,0.000,-1.570,-1.570,-0.297
1606939827342705152,pose_received,1606939827341578772,-1.570,0.000,0.000,-1.570,-1.570,-0.297
1606939827362456064,pose_received,1606939827361928521,-1.570,0.000,0.000,-1.570,-1.570,-0.297
1606939827382251520,pose_received,1606939827381594478,-1.570,0.000,0.000,-1.570,-1.570,-0.297
1606939827402476544,pose_received,1606939827401596530,-1.570,0.000,0.000,-1.570,-1.570,-0.297
1606939827422379008,pose_received,1606939827421597283,-1.570,0.000,0.000,-1.570,-1.570,-0.297
1606939827442473472,pose_received,1606939827441597136,-1.570,0.000,0.000,-1.570,-1.570,-0.297
1606939827462357760,pose_received,1606939827461635188,-1.570,0.000,0.000,-1.570,-1.570,-0.297
1606939827482595328,pose_received,1606939827481737140,-1.570,0.000,0.000,-1.570,-1.570,-0.297
1606939827492406528,pose_received,1606939827491847615,-1.570,0.055,-0.022,-1.570,-1.592,-0.297
1606939827522482688,pose_received,1606939827521599347,-1.570,0.087,-0.035,-1.570,-1.605,-0.297
1606939827542239744,pose_received,1606939827541596500,-1.570,0.087,-0.035,-1.570,-1.605,-0.297
1606939827552435456,pose_received,1606939827551708175,-1.570,0.087,-0.035,-1.570,-1.605,-0.297
1606939827583394560,pose_received,1606939827581611506,-1.570,0.087,-0.035,-1.570,-1.605,-0.297
1606939827602548480,pose_received,1606939827601595659,-1.570,0.070,-0.017,-1.570,-1.587,-0.297
1606939827622477568,pose_received,1606939827621596011,-1.570,0.070,-0.017,-1.570,-1.587,-0.297
1606939827642241536,pose_received,1606939827641596364,-1.570,0.070,-0.017,-1.570,-1.587,-0.297
1606939827662587904,pose_received,1606939827661596917,-1.570,0.070,-0.017,-1.570,-1.587,-0.297
1606939827672487680,pose_received,1606939827671655193,-1.570,0.051,-0.008,-1.570,-1.578,-0.297
1606939827702270464,pose_received,1606939827701710721,-1.570,0.035,0.000,-1.570,-1.570,-0.297
1606939827722269952,pose_received,1606939827721609975,-1.570,0.035,0.000,-1.570,-1.570,-0.297
1606939827732894208,pose_received,1606939827732140645,-1.570,0.035,0.000,-1.570,-1.570,-0.297
1606939827762813952,pose_received,1606939827761596581,-1.570,0.000,0.017,-1.570,-1.553,-0.297
1606939827783386368,pose_received,1606939827781595634,-1.570,0.000,0.017,-1.570,-1.553,-0.297
1606939827802230016,pose_received,1606939827801620487,-1.570,0.000,0.017,-1.570,-1.553,-0.297
1606939827822469120,pose_received,1606939827821593940,-1.570,-0.035,0.035,-1.570,-1.535,-0.297
1606939827843398656,pose_received,1606939827842018087,-1.570,-0.035,0.035,-1.570,-1.535,-0.297
1606939827864496128,pose_received,1606939827863936116,-1.570,-0.063,0.076,-1.570,-1.494,-0.297
